mnegretev/MathWorks2020/catkin_ws/src/persistent_signal_gen/dataset/000g_2.csv
t, torque1, torque2, torque3, torque4, torque5, torque6, torque7, q1, q2, q3, q4, q5, q6, q7
0, 0, 0, 0, 0, 0, 0, 0, 0, 0, 0, 0, 0, 0, 0
0.004, 0.0, -0.2, 0.0, 0.0, 0.0, 0.0, 0.0, 0, 0, 0, 0, 0, 0, 0
0.008, 0.0113096263955, -0.2, 0.0, 0.0, 0.0, 0.0, 0.0, -0.165669925092, -0.0874369049095, 0.42798063982, 0.184077694546, -0.00153398078789, 0.00306796157577, 0.00153398078789
0.012, 0.0226186098541, -0.2, 0.0, 0.0, 0.0, 0.0, 0.0, -0.16720390588, -0.0813009817579, 0.424912678244, 0.181009732971, -0.00306796157577, 0.00306796157577, -0.00153398078789
0.016, 0.0339263074751, -0.2, 0.0, 0.0, 0.0, 0.0, 0.0, -0.165669925092, -0.0859029241216, 0.42798063982, 0.185611675334, 0.0, -0.00306796157577, -0.00153398078789
0.02, 0.0452320764313, -0.2, 0.0, 0.0, 0.0, 0.0, 0.0, -0.162601963516, -0.0843689433337, 0.42798063982, 0.187145656122, 0.0, -0.00153398078789, 0.00306796157577
0.024, 0.0565352740049, -0.2, 0.0, 0.0, 0.0, 0.0, 0.0, -0.162601963516, -0.0843689433337, 0.426446659032, 0.182543713758, 0.00306796157577, 0.0, 0.00153398078789
0.028, 0.0678352576244, -0.2, 0.0, 0.0, 0.0, 0.0, 0.0, -0.164135944304, -0.0843689433337, 0.429514620608, 0.181009732971, -0.00153398078789, -0.00153398078789, 0.00306796157577
0.032, 0.0791313849009, -0.2, 0.0, 0.0, 0.0, 0.0, 0.0, -0.162601963516, -0.0874369049095, 0.429514620608, 0.187145656122, 0.00153398078789, 0.0, 0.0
0.036, 0.0904230136649, -0.2, 0.0, 0.0, 0.0, 0.0, 0.0, -0.161067982728, -0.0813009817579, 0.429514620608, 0.181009732971, -0.00306796157577, 0.0, 0.0
0.04, 0.101709502002, -0.2, 0.0, 0.0, 0.0, 0.0, 0.0, -0.161067982728, -0.0813009817579, 0.429514620608, 0.187145656122, 0.00306796157577, -0.00306796157577, 0.0
0.044, 0.112990208292, -0.2, 0.0, 0.0, 0.0, 0.0, 0.0, -0.162601963516, -0.0813009817579, 0.424912678244, 0.184077694546, -0.00306796157577, 0.00306796157577, -0.00306796157577
0.048, 0.12426449124, -0.2, 0.0, 0.0, 0.0, 0.0, 0.0, -0.161067982728, -0.0813009817579, 0.426446659032, 0.187145656122, -0.00153398078789, 0.0, -0.00153398078789
0.052, 0.13553170992, -0.2, 0.0, 0.0, 0.0, 0.0, 0.0, -0.161067982728, -0.0874369049095, 0.431048601396, 0.184077694546, 0.00153398078789, -0.00306796157577, 0.0
0.056, 0.146791223804, -0.2, 0.0, 0.0, 0.0, 0.0, 0.0, -0.16720390588, -0.0859029241216, 0.42798063982, 0.184077694546, 0.00306796157577, 0.00153398078789, -0.00153398078789
0.06, 0.158042392806, -0.2, 0.0, 0.0, 0.0, 0.0, 0.0, -0.162601963516, -0.0874369049095, 0.431048601396, 0.181009732971, 0.00306796157577, 0.00306796157577, 0.0
0.064, 0.16928457731, -0.2, 0.0, 0.0, 0.0, 0.0, 0.0, -0.16720390588, -0.0813009817579, 0.426446659032, 0.185611675334, -0.00153398078789, 0.0, -0.00306796157577
0.068, 0.180517138215, -0.2, 0.0, 0.0, 0.0, 0.0, 0.0, -0.165669925092, -0.0874369049095, 0.431048601396, 0.185611675334, -0.00306796157577, -0.00153398078789, -0.00306796157577
0.072, 0.191739436963, -0.2, 0.0, 0.0, 0.0, 0.0, 0.0, -0.161067982728, -0.0843689433337, 0.429514620608, 0.185611675334, 0.00306796157577, 0.00153398078789, 0.00306796157577
0.076, 0.202950835583, -0.2, 0.0, 0.0, 0.0, 0.0, 0.0, -0.162601963516, -0.0828349625458, 0.431048601396, 0.187145656122, -0.00153398078789, 0.00153398078789, -0.00306796157577
0.08, 0.214150696721, -0.2, 0.0, 0.0, 0.0, 0.0, 0.0, -0.16720390588, -0.0874369049095, 0.429514620608, 0.184077694546, -0.00306796157577, 0.00306796157577, -0.00306796157577
0.084, 0.225338383681, -0.2, 0.0, 0.0, 0.0, 0.0, 0.0, -0.16720390588, -0.0874369049095, 0.424912678244, 0.184077694546, 0.0, -0.00153398078789, 0.00153398078789
0.088, 0.236513260458, -0.2, 0.0, 0.0, 0.0, 0.0, 0.0, -0.161067982728, -0.0874369049095, 0.424912678244, 0.185611675334, 0.0, -0.00306796157577, 0.00306796157577
0.092, 0.247674691774, -0.2, 0.0, 0.0, 0.0, 0.0, 0.0, -0.164135944304, -0.0843689433337, 0.429514620608, 0.185611675334, -0.00306796157577, 0.0, 0.00153398078789
0.096, 0.258822043118, -0.2, 0.0, 0.0, 0.0, 0.0, 0.0, -0.164135944304, -0.0843689433337, 0.431048601396, 0.182543713758, 0.0, -0.00153398078789, -0.00153398078789
0.1, 0.269954680778, -0.2, 0.0, 0.0, 0.0, 0.0, 0.0, -0.161067982728, -0.0828349625458, 0.429514620608, 0.184077694546, 0.0, 0.0, -0.00153398078789
0.104, 0.281071971879, -0.2, 0.0, 0.0, 0.0, 0.0, 0.0, -0.16720390588, -0.0874369049095, 0.426446659032, 0.182543713758, -0.00306796157577, -0.00306796157577, -0.00306796157577
0.108, 0.292173284416, -0.2, 0.0, 0.0, 0.0, 0.0, 0.0, -0.162601963516, -0.0859029241216, 0.429514620608, 0.184077694546, 0.0, -0.00306796157577, -0.00306796157577
0.112, 0.303257987296, -0.2, 0.0, 0.0, 0.0, 0.0, 0.0, -0.162601963516, -0.0813009817579, 0.424912678244, 0.181009732971, -0.00153398078789, 0.00306796157577, 0.00306796157577
0.116, 0.314325450368, -0.2, 0.0, 0.0, 0.0, 0.0, 0.0, -0.164135944304, -0.0828349625458, 0.426446659032, 0.184077694546, 0.0, -0.00153398078789, 0.0
0.12, 0.325375044463, -0.2, 0.0, 0.0, 0.0, 0.0, 0.0, -0.16720390588, -0.0874369049095, 0.431048601396, 0.182543713758, -0.00306796157577, 0.00153398078789, -0.00306796157577
0.124, 0.336406141424, -0.2, 0.0, 0.0, 0.0, 0.0, 0.0, -0.164135944304, -0.0813009817579, 0.424912678244, 0.182543713758, 0.00306796157577, -0.00153398078789, 0.00153398078789
0.128, 0.34741811415, -0.2, 0.0, 0.0, 0.0, 0.0, 0.0, -0.162601963516, -0.0828349625458, 0.429514620608, 0.181009732971, 0.00153398078789, 0.0, 0.00306796157577
0.132, 0.358410336624, -0.2, 0.0, 0.0, 0.0, 0.0, 0.0, -0.162601963516, -0.0859029241216, 0.42798063982, 0.181009732971, -0.00153398078789, 0.00153398078789, -0.00153398078789
0.136, 0.369382183954, -0.2, 0.0, 0.0, 0.0, 0.0, 0.0, -0.16720390588, -0.0843689433337, 0.42798063982, 0.184077694546, -0.00306796157577, 0.00153398078789, -0.00306796157577
0.14, 0.380333032405, -0.2, 0.0, 0.0, 0.0, 0.0, 0.0, -0.164135944304, -0.0843689433337, 0.431048601396, 0.185611675334, -0.00153398078789, 0.00306796157577, 0.00153398078789
0.144, 0.391262259435, -0.2, 0.0, 0.0, 0.0, 0.0, 0.0, -0.16720390588, -0.0828349625458, 0.42798063982, 0.185611675334, 0.00153398078789, 0.00306796157577, -0.00306796157577
0.148, 0.402169243733, -0.2, 0.0, 0.0, 0.0, 0.0, 0.0, -0.162601963516, -0.0859029241216, 0.424912678244, 0.181009732971, -0.00153398078789, 0.0, 0.00153398078789
0.152, 0.413053365252, -0.2, 0.0, 0.0, 0.0, 0.0, 0.0, -0.161067982728, -0.0874369049095, 0.429514620608, 0.185611675334, 0.00153398078789, -0.00306796157577, -0.00153398078789
0.156, 0.423914005244, -0.2, 0.0, 0.0, 0.0, 0.0, 0.0, -0.161067982728, -0.0843689433337, 0.429514620608, 0.185611675334, 0.0, 0.00153398078789, -0.00306796157577
0.16, 0.434750546296, -0.2, 0.0, 0.0, 0.0, 0.0, 0.0, -0.162601963516, -0.0859029241216, 0.429514620608, 0.182543713758, 0.00153398078789, 0.0, 0.00153398078789
0.164, 0.445562372366, -0.2, 0.0, 0.0, 0.0, 0.0, 0.0, -0.165669925092, -0.0843689433337, 0.431048601396, 0.185611675334, 0.00153398078789, -0.00153398078789, 0.00306796157577
0.168, 0.456348868815, -0.2, 0.0, 0.0, 0.0, 0.0, 0.0, -0.161067982728, -0.0859029241216, 0.424912678244, 0.185611675334, 0.00153398078789, 0.00153398078789, 0.0
0.172, 0.467109422446, -0.2, 0.0, 0.0, 0.0, 0.0, 0.0, -0.164135944304, -0.0828349625458, 0.424912678244, 0.185611675334, 0.00306796157577, 0.00153398078789, -0.00306796157577
0.176, 0.477843421536, -0.2, 0.0, 0.0, 0.0, 0.0, 0.0, -0.164135944304, -0.0828349625458, 0.429514620608, 0.181009732971, 0.00306796157577, 0.00306796157577, -0.00153398078789
0.18, 0.488550255872, -0.2, 0.0, 0.0, 0.0, 0.0, 0.0, -0.15953400194, -0.0843689433337, 0.429514620608, 0.181009732971, 0.0, 0.00153398078789, -0.00306796157577
0.184, 0.499229316784, -0.2, 0.0, 0.0, 0.0, 0.0, 0.0, -0.164135944304, -0.0843689433337, 0.426446659032, 0.181009732971, 0.00153398078789, 0.00153398078789, 0.00306796157577
0.188, 0.509879997183, -0.2, 0.0, 0.0, 0.0, 0.0, 0.0, -0.161067982728, -0.0828349625458, 0.42798063982, 0.182543713758, 0.00306796157577, 0.00306796157577, -0.00153398078789
0.192, 0.520501691591, -0.2, 0.0, 0.0, 0.0, 0.0, 0.0, -0.165669925092, -0.0874369049095, 0.426446659032, 0.181009732971, -0.00306796157577, 0.00153398078789, 0.0
0.196, 0.53109379618, -0.2, 0.0, 0.0, 0.0, 0.0, 0.0, -0.161067982728, -0.0813009817579, 0.426446659032, 0.184077694546, 0.00153398078789, -0.00153398078789, -0.00153398078789
0.2, 0.541655708802, -0.2, 0.0, 0.0, 0.0, 0.0, 0.0, -0.165669925092, -0.0813009817579, 0.424912678244, 0.179475752183, -0.00306796157577, 0.0, -0.00153398078789
0.204, 0.552186829027, -0.2, 0.0, 0.0, 0.0, 0.0, 0.0, -0.164135944304, -0.0828349625458, 0.424912678244, 0.184077694546, 0.0, -0.00306796157577, 0.00306796157577
0.208, 0.562686558175, -0.2, 0.0, 0.0, 0.0, 0.0, 0.0, -0.15953400194, -0.0828349625458, 0.426446659032, 0.179475752183, -0.00153398078789, -0.00306796157577, 0.0
0.212, 0.573154299351, -0.2, 0.0, 0.0, 0.0, 0.0, 0.0, -0.162601963516, -0.0843689433337, 0.42798063982, 0.184077694546, 0.0, 0.0, -0.00306796157577
0.216, 0.583589457478, -0.2, 0.0, 0.0, 0.0, 0.0, 0.0, -0.162601963516, -0.0813009817579, 0.424912678244, 0.184077694546, -0.00306796157577, -0.00153398078789, -0.00153398078789
0.22, 0.593991439331, -0.2, 0.0, 0.0, 0.0, 0.0, 0.0, -0.158000021152, -0.0813009817579, 0.424912678244, 0.177941771395, 0.00306796157577, 0.00306796157577, -0.00306796157577
0.224, 0.60435965357, -0.2, 0.0, 0.0, 0.0, 0.0, 0.0, -0.162601963516, -0.0813009817579, 0.424912678244, 0.179475752183, 0.00153398078789, -0.00153398078789, 0.0
0.228, 0.614693510779, -0.2, 0.0, 0.0, 0.0, 0.0, 0.0, -0.158000021152, -0.0859029241216, 0.426446659032, 0.177941771395, 0.00153398078789, -0.00306796157577, -0.00306796157577
0.232, 0.62499242349, -0.2, 0.0, 0.0, 0.0, 0.0, 0.0, -0.158000021152, -0.0859029241216, 0.431048601396, 0.181009732971, 0.0, 0.00153398078789, 0.0
0.236, 0.635255806224, -0.2, 0.0, 0.0, 0.0, 0.0, 0.0, -0.161067982728, -0.0828349625458, 0.42798063982, 0.179475752183, 0.00306796157577, 0.00306796157577, 0.0
0.24, 0.645483075521, -0.2, 0.0, 0.0, 0.0, 0.0, 0.0, -0.158000021152, -0.0813009817579, 0.42798063982, 0.182543713758, 0.00306796157577, -0.00306796157577, -0.00306796157577
0.244, 0.655673649976, -0.2, 0.0, 0.0, 0.0, 0.0, 0.0, -0.161067982728, -0.0813009817579, 0.429514620608, 0.182543713758, -0.00306796157577, 0.00153398078789, 0.00153398078789
0.248, 0.665826950268, -0.2, 0.0, 0.0, 0.0, 0.0, 0.0, -0.154932059576, -0.0843689433337, 0.429514620608, 0.177941771395, -0.00153398078789, -0.00153398078789, 0.00306796157577
0.252, 0.675942399195, -0.2, 0.0, 0.0, 0.0, 0.0, 0.0, -0.156466040364, -0.0813009817579, 0.42798063982, 0.174873809819, 0.00153398078789, 0.0, 0.0
0.256, 0.686019421708, -0.2, 0.0, 0.0, 0.0, 0.0, 0.0, -0.161067982728, -0.0843689433337, 0.431048601396, 0.179475752183, 0.00306796157577, 0.00306796157577, 0.00153398078789
0.26, 0.696057444942, -0.2, 0.0, 0.0, 0.0, 0.0, 0.0, -0.153398078789, -0.0813009817579, 0.429514620608, 0.179475752183, 0.00153398078789, 0.00306796157577, 0.00153398078789
0.264, 0.706055898248, -0.2, 0.0, 0.0, 0.0, 0.0, 0.0, -0.15953400194, -0.0843689433337, 0.426446659032, 0.176407790607, -0.00153398078789, -0.00306796157577, -0.00153398078789
0.268, 0.716014213228, -0.2, 0.0, 0.0, 0.0, 0.0, 0.0, -0.153398078789, -0.0859029241216, 0.426446659032, 0.174873809819, -0.00306796157577, 0.00306796157577, 0.00306796157577
0.272, 0.725931823765, -0.2, 0.0, 0.0, 0.0, 0.0, 0.0, -0.15953400194, -0.0828349625458, 0.429514620608, 0.174873809819, -0.00153398078789, 0.00153398078789, 0.00306796157577
0.276, 0.735808166057, -0.2, 0.0, 0.0, 0.0, 0.0, 0.0, -0.156466040364, -0.0797670009701, 0.426446659032, 0.177941771395, -0.00153398078789, -0.00306796157577, -0.00153398078789
0.28, 0.745642678646, -0.2, 0.0, 0.0, 0.0, 0.0, 0.0, -0.158000021152, -0.0828349625458, 0.429514620608, 0.174873809819, 0.00306796157577, 0.0, 0.0
0.284, 0.755434802454, -0.2, 0.0, 0.0, 0.0, 0.0, 0.0, -0.154932059576, -0.0782330201822, 0.432582582184, 0.176407790607, -0.00306796157577, 0.0, 0.00153398078789
0.288, 0.765183980811, -0.2, 0.0, 0.0, 0.0, 0.0, 0.0, -0.154932059576, -0.0813009817579, 0.429514620608, 0.173339829031, 0.00153398078789, -0.00306796157577, 0.00153398078789
0.292, 0.774889659491, -0.2, 0.0, 0.0, 0.0, 0.0, 0.0, -0.150330117213, -0.0797670009701, 0.432582582184, 0.171805848243, 0.0, -0.00153398078789, -0.00306796157577
0.296, 0.784551286738, -0.2, 0.0, 0.0, 0.0, 0.0, 0.0, -0.156466040364, -0.0797670009701, 0.431048601396, 0.176407790607, 0.00153398078789, 0.00153398078789, 0.00153398078789
0.3, 0.794168313302, -0.2, 0.0, 0.0, 0.0, 0.0, 0.0, -0.154932059576, -0.0782330201822, 0.426446659032, 0.176407790607, 0.0, -0.00153398078789, -0.00306796157577
0.304, 0.803740192468, -0.2, 0.0, 0.0, 0.0, 0.0, 0.0, -0.151864098001, -0.0828349625458, 0.429514620608, 0.174873809819, 0.00306796157577, -0.00306796157577, 0.0
0.308, 0.813266380088, -0.2, 0.0, 0.0, 0.0, 0.0, 0.0, -0.148796136425, -0.0782330201822, 0.431048601396, 0.168737886667, 0.00153398078789, 0.00153398078789, 0.0
0.312, 0.82274633461, -0.2, 0.0, 0.0, 0.0, 0.0, 0.0, -0.148796136425, -0.0782330201822, 0.426446659032, 0.168737886667, -0.00153398078789, 0.0, 0.0
0.316, 0.832179517112, -0.2, 0.0, 0.0, 0.0, 0.0, 0.0, -0.148796136425, -0.0828349625458, 0.42798063982, 0.170271867455, 0.00306796157577, -0.00153398078789, 0.0
0.32, 0.84156539133, -0.2, 0.0, 0.0, 0.0, 0.0, 0.0, -0.148796136425, -0.0782330201822, 0.431048601396, 0.16720390588, 0.00153398078789, -0.00153398078789, -0.00153398078789
0.324, 0.85090342369, -0.2, 0.0, 0.0, 0.0, 0.0, 0.0, -0.151864098001, -0.0782330201822, 0.426446659032, 0.171805848243, 0.0, -0.00460194236366, 0.00306796157577
0.328, 0.860193083338, -0.2, 0.0, 0.0, 0.0, 0.0, 0.0, -0.148796136425, -0.0782330201822, 0.432582582184, 0.170271867455, 0.0, 0.00153398078789, 0.00153398078789
0.332, 0.869433842168, -0.2, 0.0, 0.0, 0.0, 0.0, 0.0, -0.150330117213, -0.0828349625458, 0.429514620608, 0.16720390588, 0.00306796157577, 0.0, 0.0
0.336, 0.878625174856, -0.2, 0.0, 0.0, 0.0, 0.0, 0.0, -0.145728174849, -0.0782330201822, 0.42798063982, 0.170271867455, 0.00306796157577, 0.00153398078789, 0.00306796157577
0.34, 0.887766558887, -0.2, 0.0, 0.0, 0.0, 0.0, 0.0, -0.142660213273, -0.0782330201822, 0.429514620608, 0.164135944304, 0.0, -0.00460194236366, 0.00153398078789
0.344, 0.896857474586, -0.2, 0.0, 0.0, 0.0, 0.0, 0.0, -0.142660213273, -0.0813009817579, 0.431048601396, 0.164135944304, -0.00153398078789, -0.00460194236366, 0.0
0.348, 0.905897405147, -0.2, 0.0, 0.0, 0.0, 0.0, 0.0, -0.141126232485, -0.0797670009701, 0.42798063982, 0.165669925092, 0.00153398078789, -0.00460194236366, -0.00306796157577
0.352, 0.914885836661, -0.2, 0.0, 0.0, 0.0, 0.0, 0.0, -0.141126232485, -0.0797670009701, 0.42798063982, 0.164135944304, -0.00306796157577, 0.0, 0.0
0.356, 0.923822258149, -0.2, 0.0, 0.0, 0.0, 0.0, 0.0, -0.142660213273, -0.0782330201822, 0.429514620608, 0.165669925092, 0.00306796157577, -0.00460194236366, -0.00306796157577
0.36, 0.932706161586, -0.2, 0.0, 0.0, 0.0, 0.0, 0.0, -0.142660213273, -0.0828349625458, 0.431048601396, 0.165669925092, -0.00153398078789, -0.00153398078789, 0.0
0.364, 0.941537041936, -0.2, 0.0, 0.0, 0.0, 0.0, 0.0, -0.142660213273, -0.0766990393943, 0.429514620608, 0.161067982728, -0.00153398078789, -0.00460194236366, 0.00306796157577
0.368, 0.950314397174, -0.2, 0.0, 0.0, 0.0, 0.0, 0.0, -0.144194194061, -0.0782330201822, 0.432582582184, 0.16720390588, 0.00306796157577, -0.00613592315154, 0.0
0.372, 0.959037728319, -0.2, 0.0, 0.0, 0.0, 0.0, 0.0, -0.139592251698, -0.0782330201822, 0.432582582184, 0.15953400194, 0.00306796157577, -0.00153398078789, 0.00306796157577
0.376, 0.967706539463, -0.2, 0.0, 0.0, 0.0, 0.0, 0.0, -0.142660213273, -0.0766990393943, 0.432582582184, 0.162601963516, 0.00153398078789, -0.00613592315154, 0.0
0.38, 0.976320337794, -0.2, 0.0, 0.0, 0.0, 0.0, 0.0, -0.142660213273, -0.0766990393943, 0.434116562972, 0.161067982728, 0.0, 0.0, -0.00153398078789
0.384, 0.984878633629, -0.2, 0.0, 0.0, 0.0, 0.0, 0.0, -0.141126232485, -0.0766990393943, 0.431048601396, 0.15953400194, -0.00153398078789, 0.0, -0.00153398078789
0.388, 0.993380940443, -0.2, 0.0, 0.0, 0.0, 0.0, 0.0, -0.13805827091, -0.0751650586064, 0.432582582184, 0.162601963516, -0.00153398078789, -0.00306796157577, -0.00153398078789
0.392, 1.00182677489, -0.2, 0.0, 0.0, 0.0, 0.0, 0.0, -0.133456328546, -0.0797670009701, 0.429514620608, 0.158000021152, -0.00460194236366, 0.0, 0.00153398078789
0.396, 1.01021565683, -0.2, 0.0, 0.0, 0.0, 0.0, 0.0, -0.13805827091, -0.0751650586064, 0.434116562972, 0.161067982728, -0.00306796157577, -0.00153398078789, 0.0
0.4, 1.01854710938, -0.2, 0.0, 0.0, 0.0, 0.0, 0.0, -0.134990309334, -0.0766990393943, 0.434116562972, 0.154932059576, 0.00153398078789, -0.00153398078789, -0.00153398078789
0.404, 1.02682065889, -0.2, 0.0, 0.0, 0.0, 0.0, 0.0, -0.136524290122, -0.0797670009701, 0.429514620608, 0.158000021152, 0.00153398078789, -0.00153398078789, -0.00153398078789
0.408, 1.03503583504, -0.2, 0.0, 0.0, 0.0, 0.0, 0.0, -0.131922347758, -0.0751650586064, 0.431048601396, 0.156466040364, 0.00153398078789, -0.00460194236366, 0.00306796157577
0.412, 1.04319217079, -0.2, 0.0, 0.0, 0.0, 0.0, 0.0, -0.131922347758, -0.0782330201822, 0.434116562972, 0.154932059576, -0.00460194236366, -0.00153398078789, -0.00306796157577
0.416, 1.05128920248, -0.2, 0.0, 0.0, 0.0, 0.0, 0.0, -0.131922347758, -0.0736310778185, 0.432582582184, 0.153398078789, 0.0, -0.00306796157577, 0.0
0.42, 1.05932646979, -0.2, 0.0, 0.0, 0.0, 0.0, 0.0, -0.131922347758, -0.0797670009701, 0.434116562972, 0.158000021152, -0.00460194236366, -0.00153398078789, -0.00306796157577
0.424, 1.06730351581, -0.2, 0.0, 0.0, 0.0, 0.0, 0.0, -0.128854386182, -0.0751650586064, 0.431048601396, 0.151864098001, -0.00306796157577, -0.00460194236366, -0.00306796157577
0.428, 1.07521988708, -0.2, 0.0, 0.0, 0.0, 0.0, 0.0, -0.125786424607, -0.0736310778185, 0.43565054376, 0.150330117213, 0.0, -0.00306796157577, 0.00306796157577
0.432, 1.08307513354, -0.2, 0.0, 0.0, 0.0, 0.0, 0.0, -0.13038836697, -0.0766990393943, 0.43565054376, 0.153398078789, 0.00153398078789, -0.00766990393943, -0.00306796157577
0.436, 1.09086880864, -0.2, 0.0, 0.0, 0.0, 0.0, 0.0, -0.127320405395, -0.0782330201822, 0.434116562972, 0.154932059576, 0.0, -0.00613592315154, -0.00153398078789
0.44, 1.09860046931, -0.2, 0.0, 0.0, 0.0, 0.0, 0.0, -0.127320405395, -0.0782330201822, 0.431048601396, 0.151864098001, 0.0, -0.00306796157577, 0.00153398078789
0.444, 1.10626967604, -0.2, 0.0, 0.0, 0.0, 0.0, 0.0, -0.124252443819, -0.0736310778185, 0.429514620608, 0.153398078789, -0.00460194236366, -0.00766990393943, -0.00153398078789
0.448, 1.11387599282, -0.2, 0.0, 0.0, 0.0, 0.0, 0.0, -0.121184482243, -0.0751650586064, 0.431048601396, 0.147262155637, -0.00460194236366, -0.00613592315154, -0.00153398078789
0.452, 1.12141898725, -0.2, 0.0, 0.0, 0.0, 0.0, 0.0, -0.125786424607, -0.0766990393943, 0.434116562972, 0.150330117213, -0.00460194236366, -0.00460194236366, -0.00153398078789
0.456, 1.12889823053, -0.2, 0.0, 0.0, 0.0, 0.0, 0.0, -0.121184482243, -0.0782330201822, 0.431048601396, 0.150330117213, -0.00153398078789, -0.00613592315154, 0.00153398078789
0.46, 1.13631329746, -0.2, 0.0, 0.0, 0.0, 0.0, 0.0, -0.119650501455, -0.0751650586064, 0.43565054376, 0.150330117213, -0.00306796157577, -0.00306796157577, -0.00153398078789
0.464, 1.14366376652, -0.2, 0.0, 0.0, 0.0, 0.0, 0.0, -0.119650501455, -0.0736310778185, 0.432582582184, 0.144194194061, 0.00153398078789, -0.00920388472731, -0.00306796157577
0.468, 1.15094921983, -0.2, 0.0, 0.0, 0.0, 0.0, 0.0, -0.115048559091, -0.0736310778185, 0.43565054376, 0.145728174849, 0.0, -0.00306796157577, -0.00153398078789
0.472, 1.15816924323, -0.2, 0.0, 0.0, 0.0, 0.0, 0.0, -0.118116520667, -0.0751650586064, 0.429514620608, 0.142660213273, -0.00306796157577, -0.00766990393943, 0.00306796157577
0.476, 1.16532342627, -0.2, 0.0, 0.0, 0.0, 0.0, 0.0, -0.119650501455, -0.0751650586064, 0.431048601396, 0.147262155637, -0.00306796157577, -0.00613592315154, -0.00306796157577
0.48, 1.17241136224, -0.2, 0.0, 0.0, 0.0, 0.0, 0.0, -0.113514578304, -0.0751650586064, 0.431048601396, 0.147262155637, -0.00153398078789, -0.00613592315154, -0.00153398078789
0.484, 1.1794326482, -0.2, 0.0, 0.0, 0.0, 0.0, 0.0, -0.113514578304, -0.0751650586064, 0.432582582184, 0.145728174849, 0.0, -0.00460194236366, -0.00306796157577
0.488, 1.18638688502, -0.2, 0.0, 0.0, 0.0, 0.0, 0.0, -0.113514578304, -0.0766990393943, 0.432582582184, 0.139592251698, -0.00306796157577, -0.00766990393943, 0.00306796157577
0.492, 1.19327367733, -0.2, 0.0, 0.0, 0.0, 0.0, 0.0, -0.10891263594, -0.0751650586064, 0.434116562972, 0.144194194061, -0.00153398078789, -0.00766990393943, -0.00153398078789
0.496, 1.20009263365, -0.2, 0.0, 0.0, 0.0, 0.0, 0.0, -0.110446616728, -0.0736310778185, 0.43565054376, 0.139592251698, -0.00306796157577, -0.0107378655152, 0.0
0.5, 1.20684336631, -0.2, 0.0, 0.0, 0.0, 0.0, 0.0, -0.110446616728, -0.0751650586064, 0.432582582184, 0.142660213273, -0.00460194236366, -0.00613592315154, -0.00306796157577
0.504, 1.21352549156, -0.2, 0.0, 0.0, 0.0, 0.0, 0.0, -0.110446616728, -0.0705631162427, 0.432582582184, 0.136524290122, -0.00153398078789, -0.00613592315154, -0.00306796157577
0.508, 1.22013862952, -0.2, 0.0, 0.0, 0.0, 0.0, 0.0, -0.107378655152, -0.0720970970306, 0.434116562972, 0.139592251698, -0.00153398078789, -0.00766990393943, 0.0
0.512, 1.22668240425, -0.2, 0.0, 0.0, 0.0, 0.0, 0.0, -0.105844674364, -0.0720970970306, 0.434116562972, 0.139592251698, -0.00153398078789, -0.00920388472731, -0.00306796157577
0.516, 1.23315644373, -0.2, 0.0, 0.0, 0.0, 0.0, 0.0, -0.102776712788, -0.0690291354549, 0.43565054376, 0.139592251698, -0.00306796157577, -0.00766990393943, 0.00306796157577
0.52, 1.23956037993, -0.2, 0.0, 0.0, 0.0, 0.0, 0.0, -0.101242732, -0.0690291354549, 0.434116562972, 0.13805827091, -0.00460194236366, -0.00920388472731, -0.00306796157577
0.524, 1.24589384879, -0.2, 0.0, 0.0, 0.0, 0.0, 0.0, -0.101242732, -0.0720970970306, 0.437184524547, 0.133456328546, -0.00153398078789, -0.00613592315154, -0.00153398078789
0.528, 1.25215649027, -0.2, 0.0, 0.0, 0.0, 0.0, 0.0, -0.0981747704247, -0.0690291354549, 0.431048601396, 0.136524290122, 0.0, -0.00766990393943, 0.0
0.532, 1.25834794834, -0.2, 0.0, 0.0, 0.0, 0.0, 0.0, -0.101242732, -0.0720970970306, 0.43565054376, 0.13038836697, 0.00153398078789, -0.00766990393943, -0.00153398078789
0.536, 1.26446787103, -0.2, 0.0, 0.0, 0.0, 0.0, 0.0, -0.102776712788, -0.0720970970306, 0.431048601396, 0.134990309334, -0.00460194236366, -0.00613592315154, 0.0
0.54, 1.27051591042, -0.2, 0.0, 0.0, 0.0, 0.0, 0.0, -0.0997087512126, -0.0720970970306, 0.431048601396, 0.13038836697, -0.00306796157577, -0.013805827091, 0.00153398078789
0.544, 1.27649172269, -0.2, 0.0, 0.0, 0.0, 0.0, 0.0, -0.0951068088489, -0.0720970970306, 0.432582582184, 0.133456328546, 0.00153398078789, -0.0107378655152, 0.00153398078789
0.548, 1.28239496813, -0.2, 0.0, 0.0, 0.0, 0.0, 0.0, -0.0951068088489, -0.067495154667, 0.434116562972, 0.127320405395, -0.00153398078789, -0.00766990393943, -0.00306796157577
0.552, 1.28822531115, -0.2, 0.0, 0.0, 0.0, 0.0, 0.0, -0.093572828061, -0.0720970970306, 0.431048601396, 0.127320405395, -0.00306796157577, -0.0122718463031, 0.00306796157577
0.556, 1.29398242029, -0.2, 0.0, 0.0, 0.0, 0.0, 0.0, -0.093572828061, -0.067495154667, 0.434116562972, 0.13038836697, -0.00306796157577, -0.00766990393943, 0.00153398078789
0.56, 1.29966596828, -0.2, 0.0, 0.0, 0.0, 0.0, 0.0, -0.093572828061, -0.0720970970306, 0.43565054376, 0.128854386182, 0.0, -0.0122718463031, 0.00153398078789
0.564, 1.305275632, -0.2, 0.0, 0.0, 0.0, 0.0, 0.0, -0.0874369049095, -0.0659611738791, 0.43565054376, 0.122718463031, -0.00460194236366, -0.013805827091, -0.00306796157577
0.568, 1.31081109257, -0.2, 0.0, 0.0, 0.0, 0.0, 0.0, -0.0905048664853, -0.0690291354549, 0.43565054376, 0.124252443819, 0.0, -0.013805827091, 0.00153398078789
0.572, 1.3162720353, -0.2, 0.0, 0.0, 0.0, 0.0, 0.0, -0.0889708856974, -0.0690291354549, 0.438718505335, 0.127320405395, 0.0, -0.0153398078789, -0.00306796157577
0.576, 1.32165814973, -0.2, 0.0, 0.0, 0.0, 0.0, 0.0, -0.0874369049095, -0.0690291354549, 0.43565054376, 0.122718463031, 0.0, -0.013805827091, -0.00306796157577
0.58, 1.32696912968, -0.2, 0.0, 0.0, 0.0, 0.0, 0.0, -0.0843689433337, -0.067495154667, 0.434116562972, 0.118116520667, -0.00306796157577, -0.0107378655152, 0.0
0.584, 1.33220467322, -0.2, 0.0, 0.0, 0.0, 0.0, 0.0, -0.0813009817579, -0.0659611738791, 0.438718505335, 0.124252443819, 0.00153398078789, -0.013805827091, 0.00153398078789
0.588, 1.33736448272, -0.2, 0.0, 0.0, 0.0, 0.0, 0.0, -0.0797670009701, -0.0659611738791, 0.432582582184, 0.116582539879, -0.00460194236366, -0.013805827091, -0.00153398078789
0.592, 1.34244826486, -0.2, 0.0, 0.0, 0.0, 0.0, 0.0, -0.0828349625458, -0.0659611738791, 0.438718505335, 0.116582539879, -0.00460194236366, -0.0153398078789, -0.00306796157577
0.596, 1.34745573062, -0.2, 0.0, 0.0, 0.0, 0.0, 0.0, -0.0782330201822, -0.067495154667, 0.43565054376, 0.116582539879, -0.00306796157577, -0.0168737886667, -0.00306796157577
0.6, 1.35238659534, -0.2, 0.0, 0.0, 0.0, 0.0, 0.0, -0.0813009817579, -0.0690291354549, 0.438718505335, 0.118116520667, 0.0, -0.013805827091, -0.00306796157577
0.604, 1.3572405787, -0.2, 0.0, 0.0, 0.0, 0.0, 0.0, -0.0736310778185, -0.067495154667, 0.437184524547, 0.118116520667, -0.00153398078789, -0.0153398078789, -0.00460194236366
0.608, 1.36201740476, -0.2, 0.0, 0.0, 0.0, 0.0, 0.0, -0.0751650586064, -0.067495154667, 0.432582582184, 0.113514578304, 0.0, -0.0153398078789, 0.00153398078789
0.612, 1.36671680198, -0.2, 0.0, 0.0, 0.0, 0.0, 0.0, -0.0766990393943, -0.0628932123033, 0.432582582184, 0.110446616728, -0.00613592315154, -0.0168737886667, -0.00306796157577
0.616, 1.37133850318, -0.2, 0.0, 0.0, 0.0, 0.0, 0.0, -0.0705631162427, -0.0644271930912, 0.432582582184, 0.110446616728, -0.00306796157577, -0.0184077694546, 0.0
0.62, 1.37588224564, -0.2, 0.0, 0.0, 0.0, 0.0, 0.0, -0.0690291354549, -0.067495154667, 0.438718505335, 0.110446616728, -0.00460194236366, -0.0153398078789, -0.00460194236366
0.624, 1.38034777105, -0.2, 0.0, 0.0, 0.0, 0.0, 0.0, -0.0705631162427, -0.067495154667, 0.43565054376, 0.110446616728, -0.00306796157577, -0.0184077694546, -0.00460194236366
0.628, 1.38473482555, -0.2, 0.0, 0.0, 0.0, 0.0, 0.0, -0.0690291354549, -0.0628932123033, 0.438718505335, 0.113514578304, -0.00306796157577, -0.0168737886667, -0.00153398078789
0.632, 1.38904315974, -0.2, 0.0, 0.0, 0.0, 0.0, 0.0, -0.0705631162427, -0.0613592315154, 0.440252486123, 0.105844674364, -0.00460194236366, -0.013805827091, -0.00306796157577
0.636, 1.39327252869, -0.2, 0.0, 0.0, 0.0, 0.0, 0.0, -0.0690291354549, -0.0659611738791, 0.43565054376, 0.107378655152, -0.00153398078789, -0.0184077694546, 0.00153398078789
0.64, 1.39742269199, -0.2, 0.0, 0.0, 0.0, 0.0, 0.0, -0.067495154667, -0.0659611738791, 0.438718505335, 0.104310693576, -0.00306796157577, -0.0184077694546, -0.00153398078789
0.644, 1.40149341368, -0.2, 0.0, 0.0, 0.0, 0.0, 0.0, -0.0598252507275, -0.0613592315154, 0.438718505335, 0.102776712788, -0.00153398078789, -0.0153398078789, -0.00306796157577
0.648, 1.40548446237, -0.2, 0.0, 0.0, 0.0, 0.0, 0.0, -0.0644271930912, -0.0644271930912, 0.437184524547, 0.107378655152, 0.0, -0.0214757310304, -0.00153398078789
0.652, 1.40939561116, -0.2, 0.0, 0.0, 0.0, 0.0, 0.0, -0.0613592315154, -0.0659611738791, 0.43565054376, 0.104310693576, -0.00153398078789, -0.0199417502425, -0.00153398078789
0.656, 1.41322663771, -0.2, 0.0, 0.0, 0.0, 0.0, 0.0, -0.0552233083639, -0.0613592315154, 0.437184524547, 0.105844674364, -0.00460194236366, -0.0153398078789, 0.00153398078789
0.66, 1.41697732422, -0.2, 0.0, 0.0, 0.0, 0.0, 0.0, -0.0582912699397, -0.0644271930912, 0.43565054376, 0.104310693576, -0.00460194236366, -0.0214757310304, -0.00153398078789
0.664, 1.42064745749, -0.2, 0.0, 0.0, 0.0, 0.0, 0.0, -0.053689327576, -0.0598252507275, 0.440252486123, 0.0981747704247, -0.00460194236366, -0.0199417502425, 0.00153398078789
0.668, 1.42423682887, -0.2, 0.0, 0.0, 0.0, 0.0, 0.0, -0.0506213660002, -0.0613592315154, 0.43565054376, 0.0981747704247, -0.00153398078789, -0.0168737886667, -0.00306796157577
0.672, 1.4277452343, -0.2, 0.0, 0.0, 0.0, 0.0, 0.0, -0.0490873852123, -0.0598252507275, 0.437184524547, 0.0981747704247, -0.00306796157577, -0.0184077694546, -0.00306796157577
0.676, 1.43117247434, -0.2, 0.0, 0.0, 0.0, 0.0, 0.0, -0.0521553467881, -0.0613592315154, 0.437184524547, 0.0981747704247, -0.00153398078789, -0.0168737886667, 0.0
0.68, 1.43451835415, -0.2, 0.0, 0.0, 0.0, 0.0, 0.0, -0.0521553467881, -0.0644271930912, 0.437184524547, 0.101242732, -0.00306796157577, -0.0184077694546, 0.00153398078789
0.684, 1.43778268353, -0.2, 0.0, 0.0, 0.0, 0.0, 0.0, -0.0475534044245, -0.0598252507275, 0.438718505335, 0.0997087512126, -0.00153398078789, -0.0199417502425, -0.00153398078789
0.688, 1.4409652769, -0.2, 0.0, 0.0, 0.0, 0.0, 0.0, -0.0444854428487, -0.0582912699397, 0.441786466911, 0.0951068088489, -0.00306796157577, -0.0230097118183, 0.0
0.692, 1.44406595333, -0.2, 0.0, 0.0, 0.0, 0.0, 0.0, -0.0429514620608, -0.0628932123033, 0.437184524547, 0.0981747704247, -0.00613592315154, -0.0199417502425, -0.00460194236366
0.696, 1.44708453657, -0.2, 0.0, 0.0, 0.0, 0.0, 0.0, -0.0460194236366, -0.0582912699397, 0.440252486123, 0.0905048664853, -0.00613592315154, -0.0245436926062, 0.00153398078789
0.7, 1.450020855, -0.2, 0.0, 0.0, 0.0, 0.0, 0.0, -0.0383495196971, -0.0613592315154, 0.43565054376, 0.0889708856974, -0.00460194236366, -0.0245436926062, 0.0
0.704, 1.45287474169, -0.2, 0.0, 0.0, 0.0, 0.0, 0.0, -0.0368155389093, -0.0582912699397, 0.437184524547, 0.0889708856974, -0.00460194236366, -0.0245436926062, -0.00460194236366
0.708, 1.45564603442, -0.2, 0.0, 0.0, 0.0, 0.0, 0.0, -0.0337475773335, -0.0598252507275, 0.441786466911, 0.0905048664853, -0.00460194236366, -0.0245436926062, -0.00460194236366
0.712, 1.45833457563, -0.2, 0.0, 0.0, 0.0, 0.0, 0.0, -0.0368155389093, -0.0613592315154, 0.440252486123, 0.0889708856974, -0.00306796157577, -0.0260776733941, 0.00153398078789
0.716, 1.46094021249, -0.2, 0.0, 0.0, 0.0, 0.0, 0.0, -0.0352815581214, -0.0567572891518, 0.43565054376, 0.0889708856974, -0.00153398078789, -0.0245436926062, 0.0
0.72, 1.46346279686, -0.2, 0.0, 0.0, 0.0, 0.0, 0.0, -0.0337475773335, -0.0628932123033, 0.440252486123, 0.0843689433337, -0.00460194236366, -0.0230097118183, 0.00153398078789
0.724, 1.46590218535, -0.2, 0.0, 0.0, 0.0, 0.0, 0.0, -0.0322135965456, -0.0582912699397, 0.437184524547, 0.0859029241216, -0.00153398078789, -0.0230097118183, 0.00153398078789
0.728, 1.46825823928, -0.2, 0.0, 0.0, 0.0, 0.0, 0.0, -0.0322135965456, -0.0582912699397, 0.440252486123, 0.0859029241216, 0.0, -0.0230097118183, 0.00153398078789
0.732, 1.4705308247, -0.2, 0.0, 0.0, 0.0, 0.0, 0.0, -0.0291456349698, -0.0613592315154, 0.43565054376, 0.0828349625458, 0.0, -0.0214757310304, 0.00153398078789
0.736, 1.47271981243, -0.2, 0.0, 0.0, 0.0, 0.0, 0.0, -0.0276116541819, -0.0598252507275, 0.43565054376, 0.0797670009701, 0.0, -0.0260776733941, 0.0
0.74, 1.47482507802, -0.2, 0.0, 0.0, 0.0, 0.0, 0.0, -0.0245436926062, -0.0613592315154, 0.441786466911, 0.0828349625458, -0.00306796157577, -0.0245436926062, -0.00306796157577
0.744, 1.47684650179, -0.2, 0.0, 0.0, 0.0, 0.0, 0.0, -0.0199417502425, -0.0552233083639, 0.440252486123, 0.0782330201822, -0.00153398078789, -0.0291456349698, 0.00153398078789
0.748, 1.47878396883, -0.2, 0.0, 0.0, 0.0, 0.0, 0.0, -0.0199417502425, -0.0567572891518, 0.438718505335, 0.0828349625458, -0.00306796157577, -0.0291456349698, -0.00460194236366
0.752, 1.480637369, -0.2, 0.0, 0.0, 0.0, 0.0, 0.0, -0.0168737886667, -0.0582912699397, 0.438718505335, 0.0797670009701, 0.0, -0.0306796157577, -0.00460194236366
0.756, 1.48240659693, -0.2, 0.0, 0.0, 0.0, 0.0, 0.0, -0.0153398078789, -0.053689327576, 0.437184524547, 0.0751650586064, -0.00460194236366, -0.0260776733941, 0.0
0.76, 1.48409155204, -0.2, 0.0, 0.0, 0.0, 0.0, 0.0, -0.0168737886667, -0.0582912699397, 0.438718505335, 0.0736310778185, -0.00153398078789, -0.0276116541819, -0.00153398078789
0.764, 1.48569213854, -0.2, 0.0, 0.0, 0.0, 0.0, 0.0, -0.0107378655152, -0.0567572891518, 0.438718505335, 0.0797670009701, 0.0, -0.0245436926062, 0.00153398078789
0.768, 1.48720826546, -0.2, 0.0, 0.0, 0.0, 0.0, 0.0, -0.0107378655152, -0.0582912699397, 0.440252486123, 0.0736310778185, -0.00306796157577, -0.0276116541819, 0.00153398078789
0.772, 1.48863984658, -0.2, 0.0, 0.0, 0.0, 0.0, 0.0, -0.0122718463031, -0.053689327576, 0.443320447699, 0.0766990393943, -0.00613592315154, -0.0322135965456, 0.00153398078789
0.776, 1.48998680054, -0.2, 0.0, 0.0, 0.0, 0.0, 0.0, -0.0122718463031, -0.0567572891518, 0.438718505335, 0.0751650586064, 0.0, -0.0322135965456, -0.00153398078789
0.78, 1.49124905075, -0.2, 0.0, 0.0, 0.0, 0.0, 0.0, -0.00920388472731, -0.0567572891518, 0.438718505335, 0.0705631162427, -0.00153398078789, -0.0291456349698, -0.00460194236366
0.784, 1.49242652547, -0.2, 0.0, 0.0, 0.0, 0.0, 0.0, -0.00460194236366, -0.053689327576, 0.443320447699, 0.0736310778185, -0.00460194236366, -0.0276116541819, 0.0
0.788, 1.49351915775, -0.2, 0.0, 0.0, 0.0, 0.0, 0.0, -0.00306796157577, -0.0567572891518, 0.440252486123, 0.067495154667, 0.0, -0.0306796157577, -0.00153398078789
0.792, 1.49452688548, -0.2, 0.0, 0.0, 0.0, 0.0, 0.0, -0.00460194236366, -0.053689327576, 0.440252486123, 0.0690291354549, -0.00153398078789, -0.0322135965456, -0.00153398078789
0.796, 1.49544965138, -0.2, 0.0, 0.0, 0.0, 0.0, 0.0, 0.00306796157577, -0.0582912699397, 0.440252486123, 0.0644271930912, -0.00613592315154, -0.0291456349698, -0.00306796157577
0.8, 1.49628740297, -0.2, 0.0, 0.0, 0.0, 0.0, 0.0, 0.00306796157577, -0.0582912699397, 0.441786466911, 0.0659611738791, -0.00306796157577, -0.0352815581214, 0.00153398078789
0.804, 1.49704009264, -0.2, 0.0, 0.0, 0.0, 0.0, 0.0, 0.00613592315154, -0.0567572891518, 0.443320447699, 0.067495154667, -0.00460194236366, -0.0291456349698, 0.0
0.808, 1.4977076776, -0.2, 0.0, 0.0, 0.0, 0.0, 0.0, 0.00460194236366, -0.0552233083639, 0.440252486123, 0.0628932123033, -0.00613592315154, -0.0337475773335, -0.00460194236366
0.812, 1.4982901199, -0.2, 0.0, 0.0, 0.0, 0.0, 0.0, 0.00920388472731, -0.0521553467881, 0.444854428487, 0.0644271930912, 0.0, -0.0306796157577, -0.00306796157577
0.816, 1.49878738643, -0.2, 0.0, 0.0, 0.0, 0.0, 0.0, 0.00613592315154, -0.0567572891518, 0.444854428487, 0.0659611738791, 0.0, -0.0337475773335, 0.00153398078789
0.82, 1.49919944891, -0.2, 0.0, 0.0, 0.0, 0.0, 0.0, 0.0122718463031, -0.0521553467881, 0.444854428487, 0.0598252507275, -0.00153398078789, -0.0337475773335, -0.00153398078789
0.824, 1.49952628392, -0.2, 0.0, 0.0, 0.0, 0.0, 0.0, 0.0153398078789, -0.0506213660002, 0.438718505335, 0.0613592315154, -0.00153398078789, -0.0368155389093, -0.00306796157577
0.828, 1.49976787289, -0.2, 0.0, 0.0, 0.0, 0.0, 0.0, 0.013805827091, -0.053689327576, 0.443320447699, 0.0567572891518, 0.0, -0.0352815581214, -0.00153398078789
0.832, 1.49992420208, -0.2, 0.0, 0.0, 0.0, 0.0, 0.0, 0.013805827091, -0.0567572891518, 0.441786466911, 0.0582912699397, 0.0, -0.0383495196971, 0.00153398078789
0.836, 1.49999526259, -0.2, 0.0, 0.0, 0.0, 0.0, 0.0, 0.0199417502425, -0.0521553467881, 0.443320447699, 0.0582912699397, -0.00306796157577, -0.0383495196971, -0.00306796157577
0.84, 1.4999810504, -0.2, 0.0, 0.0, 0.0, 0.0, 0.0, 0.0184077694546, -0.0506213660002, 0.441786466911, 0.0582912699397, -0.00153398078789, -0.0383495196971, 0.0
0.844, 1.49988156631, -0.2, 0.0, 0.0, 0.0, 0.0, 0.0, 0.0230097118183, -0.053689327576, 0.440252486123, 0.053689327576, -0.00613592315154, -0.0368155389093, -0.00306796157577
0.848, 1.49969681597, -0.2, 0.0, 0.0, 0.0, 0.0, 0.0, 0.0199417502425, -0.0490873852123, 0.441786466911, 0.0567572891518, -0.00306796157577, -0.0368155389093, -0.00306796157577
0.852, 1.49942680989, -0.2, 0.0, 0.0, 0.0, 0.0, 0.0, 0.0214757310304, -0.0521553467881, 0.444854428487, 0.0506213660002, 0.0, -0.0352815581214, 0.0
0.856, 1.49907156341, -0.2, 0.0, 0.0, 0.0, 0.0, 0.0, 0.0230097118183, -0.053689327576, 0.438718505335, 0.0552233083639, -0.00306796157577, -0.0368155389093, 0.00153398078789
0.86, 1.49863109674, -0.2, 0.0, 0.0, 0.0, 0.0, 0.0, 0.0306796157577, -0.0521553467881, 0.444854428487, 0.053689327576, -0.00153398078789, -0.0337475773335, -0.00153398078789
0.864, 1.49810543491, -0.2, 0.0, 0.0, 0.0, 0.0, 0.0, 0.0276116541819, -0.0490873852123, 0.438718505335, 0.0490873852123, -0.00153398078789, -0.0414174812729, 0.0
0.868, 1.4974946078, -0.2, 0.0, 0.0, 0.0, 0.0, 0.0, 0.0322135965456, -0.0521553467881, 0.440252486123, 0.0460194236366, -0.00306796157577, -0.039883500485, 0.00153398078789
0.872, 1.49679865015, -0.2, 0.0, 0.0, 0.0, 0.0, 0.0, 0.0306796157577, -0.0506213660002, 0.438718505335, 0.0521553467881, -0.00460194236366, -0.0414174812729, -0.00153398078789
0.876, 1.49601760151, -0.2, 0.0, 0.0, 0.0, 0.0, 0.0, 0.0322135965456, -0.053689327576, 0.443320447699, 0.0444854428487, -0.00153398078789, -0.0414174812729, -0.00153398078789
0.88, 1.49515150629, -0.2, 0.0, 0.0, 0.0, 0.0, 0.0, 0.0414174812729, -0.0506213660002, 0.446388409275, 0.0429514620608, 0.0, -0.0383495196971, 0.0
0.884, 1.49420041371, -0.2, 0.0, 0.0, 0.0, 0.0, 0.0, 0.0429514620608, -0.0475534044245, 0.443320447699, 0.0490873852123, -0.00460194236366, -0.0414174812729, -0.00460194236366
0.888, 1.49316437786, -0.2, 0.0, 0.0, 0.0, 0.0, 0.0, 0.0429514620608, -0.0506213660002, 0.444854428487, 0.0475534044245, -0.00460194236366, -0.0429514620608, 0.0
0.892, 1.49204345763, -0.2, 0.0, 0.0, 0.0, 0.0, 0.0, 0.0460194236366, -0.0490873852123, 0.443320447699, 0.0414174812729, -0.00460194236366, -0.0429514620608, -0.00460194236366
0.896, 1.49083771674, -0.2, 0.0, 0.0, 0.0, 0.0, 0.0, 0.0444854428487, -0.0521553467881, 0.444854428487, 0.0444854428487, 0.0, -0.0414174812729, 0.0
0.9, 1.48954722373, -0.2, 0.0, 0.0, 0.0, 0.0, 0.0, 0.0460194236366, -0.0521553467881, 0.443320447699, 0.0444854428487, -0.00460194236366, -0.0383495196971, -0.00460194236366
0.904, 1.48817205197, -0.2, 0.0, 0.0, 0.0, 0.0, 0.0, 0.0521553467881, -0.0460194236366, 0.440252486123, 0.0368155389093, -0.00460194236366, -0.0414174812729, 0.0
0.908, 1.48671227964, -0.2, 0.0, 0.0, 0.0, 0.0, 0.0, 0.053689327576, -0.0460194236366, 0.444854428487, 0.0368155389093, -0.00153398078789, -0.039883500485, -0.00460194236366
0.912, 1.48516798971, -0.2, 0.0, 0.0, 0.0, 0.0, 0.0, 0.0521553467881, -0.0521553467881, 0.441786466911, 0.0352815581214, -0.00613592315154, -0.0444854428487, -0.00153398078789
0.916, 1.48353926999, -0.2, 0.0, 0.0, 0.0, 0.0, 0.0, 0.0552233083639, -0.0460194236366, 0.446388409275, 0.0352815581214, -0.00306796157577, -0.0414174812729, 0.00153398078789
0.92, 1.48182621306, -0.2, 0.0, 0.0, 0.0, 0.0, 0.0, 0.0582912699397, -0.0521553467881, 0.441786466911, 0.039883500485, -0.00306796157577, -0.0444854428487, -0.00153398078789
0.924, 1.48002891631, -0.2, 0.0, 0.0, 0.0, 0.0, 0.0, 0.0613592315154, -0.0460194236366, 0.440252486123, 0.0337475773335, 0.0, -0.0414174812729, -0.00153398078789
0.928, 1.47814748191, -0.2, 0.0, 0.0, 0.0, 0.0, 0.0, 0.0567572891518, -0.0490873852123, 0.444854428487, 0.0352815581214, 0.0, -0.0460194236366, -0.00306796157577
0.932, 1.47618201682, -0.2, 0.0, 0.0, 0.0, 0.0, 0.0, 0.0644271930912, -0.0506213660002, 0.444854428487, 0.0306796157577, -0.00153398078789, -0.0429514620608, 0.00153398078789
0.936, 1.47413263277, -0.2, 0.0, 0.0, 0.0, 0.0, 0.0, 0.0628932123033, -0.0506213660002, 0.444854428487, 0.0352815581214, -0.00153398078789, -0.0460194236366, 0.00153398078789
0.94, 1.47199944626, -0.2, 0.0, 0.0, 0.0, 0.0, 0.0, 0.0644271930912, -0.0506213660002, 0.443320447699, 0.0306796157577, -0.00306796157577, -0.0414174812729, -0.00306796157577
0.944, 1.46978257858, -0.2, 0.0, 0.0, 0.0, 0.0, 0.0, 0.0705631162427, -0.0475534044245, 0.441786466911, 0.0306796157577, -0.00613592315154, -0.0460194236366, 0.00306796157577
0.948, 1.46748215573, -0.2, 0.0, 0.0, 0.0, 0.0, 0.0, 0.0659611738791, -0.0490873852123, 0.446388409275, 0.0306796157577, -0.00460194236366, -0.0475534044245, 0.0
0.952, 1.4650983085, -0.2, 0.0, 0.0, 0.0, 0.0, 0.0, 0.0705631162427, -0.0460194236366, 0.441786466911, 0.0322135965456, -0.00306796157577, -0.0490873852123, 0.00306796157577
0.956, 1.46263117241, -0.2, 0.0, 0.0, 0.0, 0.0, 0.0, 0.0766990393943, -0.0444854428487, 0.446388409275, 0.0291456349698, 0.0, -0.0444854428487, 0.0
0.96, 1.46008088771, -0.2, 0.0, 0.0, 0.0, 0.0, 0.0, 0.0782330201822, -0.0429514620608, 0.443320447699, 0.0291456349698, -0.00306796157577, -0.0460194236366, 0.00306796157577
0.964, 1.45744759937, -0.2, 0.0, 0.0, 0.0, 0.0, 0.0, 0.0782330201822, -0.0460194236366, 0.441786466911, 0.0291456349698, -0.00306796157577, -0.0506213660002, -0.00306796157577
0.968, 1.45473145711, -0.2, 0.0, 0.0, 0.0, 0.0, 0.0, 0.0813009817579, -0.0429514620608, 0.446388409275, 0.0260776733941, 0.0, -0.0460194236366, 0.0
0.972, 1.45193261532, -0.2, 0.0, 0.0, 0.0, 0.0, 0.0, 0.0843689433337, -0.0475534044245, 0.441786466911, 0.0230097118183, -0.00153398078789, -0.0460194236366, 0.00153398078789
0.976, 1.44905123312, -0.2, 0.0, 0.0, 0.0, 0.0, 0.0, 0.0843689433337, -0.0429514620608, 0.446388409275, 0.0260776733941, 0.0, -0.0475534044245, -0.00153398078789
0.98, 1.44608747431, -0.2, 0.0, 0.0, 0.0, 0.0, 0.0, 0.0859029241216, -0.0460194236366, 0.447922390063, 0.0245436926062, -0.00306796157577, -0.0475534044245, -0.00153398078789
0.984, 1.44304150738, -0.2, 0.0, 0.0, 0.0, 0.0, 0.0, 0.0843689433337, -0.0460194236366, 0.443320447699, 0.0245436926062, 0.00153398078789, -0.0460194236366, 0.00306796157577
0.988, 1.43991350548, -0.2, 0.0, 0.0, 0.0, 0.0, 0.0, 0.0859029241216, -0.0475534044245, 0.447922390063, 0.0168737886667, -0.00306796157577, -0.053689327576, 0.00306796157577
0.992, 1.43670364644, -0.2, 0.0, 0.0, 0.0, 0.0, 0.0, 0.0874369049095, -0.0460194236366, 0.446388409275, 0.0214757310304, -0.00460194236366, -0.053689327576, 0.0
0.996, 1.43341211274, -0.2, 0.0, 0.0, 0.0, 0.0, 0.0, 0.0889708856974, -0.0414174812729, 0.441786466911, 0.0199417502425, 0.00153398078789, -0.0475534044245, 0.00153398078789
1.0, 1.43003909149, -0.2, 0.0, 0.0, 0.0, 0.0, 0.0, 0.0966407896368, -0.0444854428487, 0.441786466911, 0.0199417502425, -0.00460194236366, -0.0490873852123, -0.00306796157577
1.004, 1.42658477444, -0.2, 0.0, 0.0, 0.0, 0.0, 0.0, 0.093572828061, -0.0429514620608, 0.447922390063, 0.0153398078789, -0.00460194236366, -0.0521553467881, -0.00153398078789
1.008, 1.42304935798, -0.2, 0.0, 0.0, 0.0, 0.0, 0.0, 0.0951068088489, -0.0444854428487, 0.447922390063, 0.0168737886667, -0.00460194236366, -0.0506213660002, -0.00306796157577
1.012, 1.41943304307, -0.2, 0.0, 0.0, 0.0, 0.0, 0.0, 0.0997087512126, -0.0414174812729, 0.443320447699, 0.013805827091, -0.00153398078789, -0.053689327576, 0.00306796157577
1.016, 1.41573603531, -0.2, 0.0, 0.0, 0.0, 0.0, 0.0, 0.105844674364, -0.0414174812729, 0.441786466911, 0.0153398078789, -0.00153398078789, -0.0506213660002, -0.00306796157577
1.02, 1.41195854487, -0.2, 0.0, 0.0, 0.0, 0.0, 0.0, 0.105844674364, -0.0414174812729, 0.443320447699, 0.00920388472731, -0.00306796157577, -0.0567572891518, 0.00306796157577
1.024, 1.40810078648, -0.2, 0.0, 0.0, 0.0, 0.0, 0.0, 0.10891263594, -0.0414174812729, 0.441786466911, 0.013805827091, -0.00460194236366, -0.0567572891518, 0.00306796157577
1.028, 1.40416297946, -0.2, 0.0, 0.0, 0.0, 0.0, 0.0, 0.105844674364, -0.0444854428487, 0.446388409275, 0.0122718463031, -0.00460194236366, -0.0567572891518, -0.00153398078789
1.032, 1.40014534767, -0.2, 0.0, 0.0, 0.0, 0.0, 0.0, 0.105844674364, -0.039883500485, 0.444854428487, 0.0107378655152, 0.00153398078789, -0.0567572891518, -0.00306796157577
1.036, 1.39604811951, -0.2, 0.0, 0.0, 0.0, 0.0, 0.0, 0.110446616728, -0.0429514620608, 0.44945637085, 0.00766990393943, -0.00460194236366, -0.0567572891518, -0.00306796157577
1.04, 1.39187152789, -0.2, 0.0, 0.0, 0.0, 0.0, 0.0, 0.116582539879, -0.0414174812729, 0.447922390063, 0.0107378655152, -0.00153398078789, -0.0521553467881, -0.00306796157577
1.044, 1.38761581025, -0.2, 0.0, 0.0, 0.0, 0.0, 0.0, 0.111980597516, -0.0429514620608, 0.444854428487, 0.00766990393943, -0.00460194236366, -0.0582912699397, 0.00306796157577
1.048, 1.38328120852, -0.2, 0.0, 0.0, 0.0, 0.0, 0.0, 0.119650501455, -0.0414174812729, 0.44945637085, 0.00460194236366, -0.00460194236366, -0.0552233083639, 0.0
1.052, 1.37886796912, -0.2, 0.0, 0.0, 0.0, 0.0, 0.0, 0.122718463031, -0.039883500485, 0.446388409275, 0.00613592315154, -0.00460194236366, -0.0567572891518, -0.00306796157577
1.056, 1.37437634294, -0.2, 0.0, 0.0, 0.0, 0.0, 0.0, 0.118116520667, -0.0414174812729, 0.446388409275, 0.00460194236366, 0.00153398078789, -0.0567572891518, 0.0
1.06, 1.36980658531, -0.2, 0.0, 0.0, 0.0, 0.0, 0.0, 0.122718463031, -0.0444854428487, 0.443320447699, 0.00613592315154, 0.00153398078789, -0.0567572891518, 0.00306796157577
1.064, 1.36515895603, -0.2, 0.0, 0.0, 0.0, 0.0, 0.0, 0.125786424607, -0.0429514620608, 0.444854428487, 0.00153398078789, -0.00460194236366, -0.0552233083639, 0.00153398078789
1.068, 1.3604337193, -0.2, 0.0, 0.0, 0.0, 0.0, 0.0, 0.125786424607, -0.0460194236366, 0.446388409275, 0.00153398078789, 0.00153398078789, -0.0552233083639, 0.00153398078789
1.072, 1.35563114374, -0.2, 0.0, 0.0, 0.0, 0.0, 0.0, 0.127320405395, -0.0414174812729, 0.447922390063, 0.00460194236366, -0.00306796157577, -0.0582912699397, 0.00306796157577
1.076, 1.35075150238, -0.2, 0.0, 0.0, 0.0, 0.0, 0.0, 0.131922347758, -0.0429514620608, 0.446388409275, -0.00153398078789, 0.0, -0.0613592315154, 0.0
1.08, 1.34579507262, -0.2, 0.0, 0.0, 0.0, 0.0, 0.0, 0.128854386182, -0.0414174812729, 0.443320447699, 0.00306796157577, 0.0, -0.0567572891518, -0.00306796157577
1.084, 1.34076213623, -0.2, 0.0, 0.0, 0.0, 0.0, 0.0, 0.13038836697, -0.0414174812729, 0.446388409275, 0.0, -0.00306796157577, -0.0582912699397, 0.00306796157577
1.088, 1.33565297931, -0.2, 0.0, 0.0, 0.0, 0.0, 0.0, 0.136524290122, -0.0444854428487, 0.446388409275, -0.00306796157577, 0.00153398078789, -0.0613592315154, -0.00153398078789
1.092, 1.33046789232, -0.2, 0.0, 0.0, 0.0, 0.0, 0.0, 0.139592251698, -0.0444854428487, 0.447922390063, -0.00153398078789, -0.00306796157577, -0.0613592315154, 0.0
1.096, 1.32520717003, -0.2, 0.0, 0.0, 0.0, 0.0, 0.0, 0.13805827091, -0.0383495196971, 0.447922390063, -0.00613592315154, 0.0, -0.0582912699397, 0.00153398078789
1.1, 1.31987111149, -0.2, 0.0, 0.0, 0.0, 0.0, 0.0, 0.141126232485, -0.0414174812729, 0.44945637085, -0.00613592315154, 0.0, -0.0613592315154, 0.0
1.104, 1.31446002007, -0.2, 0.0, 0.0, 0.0, 0.0, 0.0, 0.145728174849, -0.039883500485, 0.443320447699, -0.00460194236366, 0.00153398078789, -0.0582912699397, 0.0
1.108, 1.30897420336, -0.2, 0.0, 0.0, 0.0, 0.0, 0.0, 0.144194194061, -0.0429514620608, 0.447922390063, -0.00306796157577, -0.00460194236366, -0.0613592315154, 0.00306796157577
1.112, 1.30341397323, -0.2, 0.0, 0.0, 0.0, 0.0, 0.0, 0.148796136425, -0.0414174812729, 0.446388409275, -0.00460194236366, 0.0, -0.0644271930912, -0.00153398078789
1.116, 1.29777964577, -0.2, 0.0, 0.0, 0.0, 0.0, 0.0, 0.147262155637, -0.0414174812729, 0.447922390063, -0.00920388472731, -0.00306796157577, -0.0582912699397, -0.00306796157577
1.12, 1.29207154129, -0.2, 0.0, 0.0, 0.0, 0.0, 0.0, 0.151864098001, -0.0444854428487, 0.446388409275, -0.00766990393943, -0.00153398078789, -0.0659611738791, 0.00306796157577
1.124, 1.28628998429, -0.2, 0.0, 0.0, 0.0, 0.0, 0.0, 0.156466040364, -0.0429514620608, 0.446388409275, -0.00613592315154, -0.00153398078789, -0.0644271930912, 0.00306796157577
1.128, 1.28043530343, -0.2, 0.0, 0.0, 0.0, 0.0, 0.0, 0.151864098001, -0.039883500485, 0.444854428487, -0.0122718463031, -0.00460194236366, -0.0644271930912, 0.00306796157577
1.132, 1.27450783156, -0.2, 0.0, 0.0, 0.0, 0.0, 0.0, 0.154932059576, -0.0383495196971, 0.447922390063, -0.00920388472731, 0.0, -0.0644271930912, 0.00153398078789
1.136, 1.26850790563, -0.2, 0.0, 0.0, 0.0, 0.0, 0.0, 0.161067982728, -0.0383495196971, 0.450990351638, -0.0153398078789, 0.0, -0.0613592315154, 0.0
1.14, 1.26243586673, -0.2, 0.0, 0.0, 0.0, 0.0, 0.0, 0.162601963516, -0.039883500485, 0.450990351638, -0.0153398078789, 0.00153398078789, -0.067495154667, -0.00153398078789
1.144, 1.25629206006, -0.2, 0.0, 0.0, 0.0, 0.0, 0.0, 0.164135944304, -0.0383495196971, 0.450990351638, -0.013805827091, -0.00153398078789, -0.0613592315154, 0.00153398078789
1.148, 1.25007683488, -0.2, 0.0, 0.0, 0.0, 0.0, 0.0, 0.165669925092, -0.039883500485, 0.444854428487, -0.013805827091, -0.00306796157577, -0.0659611738791, 0.00306796157577
1.152, 1.24379054452, -0.2, 0.0, 0.0, 0.0, 0.0, 0.0, 0.164135944304, -0.039883500485, 0.447922390063, -0.0153398078789, -0.00153398078789, -0.067495154667, 0.00306796157577
1.156, 1.23743354634, -0.2, 0.0, 0.0, 0.0, 0.0, 0.0, 0.16720390588, -0.039883500485, 0.446388409275, -0.0122718463031, 0.0, -0.0628932123033, -0.00306796157577
1.16, 1.23100620173, -0.2, 0.0, 0.0, 0.0, 0.0, 0.0, 0.16720390588, -0.039883500485, 0.450990351638, -0.013805827091, -0.00153398078789, -0.067495154667, 0.00306796157577
1.164, 1.22450887608, -0.2, 0.0, 0.0, 0.0, 0.0, 0.0, 0.171805848243, -0.039883500485, 0.44945637085, -0.0153398078789, 0.0, -0.0690291354549, 0.00153398078789
1.168, 1.21794193874, -0.2, 0.0, 0.0, 0.0, 0.0, 0.0, 0.176407790607, -0.0414174812729, 0.444854428487, -0.013805827091, -0.00153398078789, -0.0690291354549, -0.00153398078789
1.172, 1.21130576306, -0.2, 0.0, 0.0, 0.0, 0.0, 0.0, 0.173339829031, -0.0383495196971, 0.44945637085, -0.0214757310304, 0.00306796157577, -0.0628932123033, -0.00153398078789
1.176, 1.20460072627, -0.2, 0.0, 0.0, 0.0, 0.0, 0.0, 0.174873809819, -0.039883500485, 0.44945637085, -0.0199417502425, 0.0, -0.0690291354549, -0.00153398078789
1.18, 1.19782720955, -0.2, 0.0, 0.0, 0.0, 0.0, 0.0, 0.179475752183, -0.0383495196971, 0.444854428487, -0.0168737886667, -0.00306796157577, -0.0659611738791, -0.00306796157577
1.184, 1.19098559797, -0.2, 0.0, 0.0, 0.0, 0.0, 0.0, 0.176407790607, -0.0429514620608, 0.447922390063, -0.0214757310304, -0.00306796157577, -0.0690291354549, -0.00153398078789
1.188, 1.18407628047, -0.2, 0.0, 0.0, 0.0, 0.0, 0.0, 0.181009732971, -0.0414174812729, 0.450990351638, -0.0230097118183, 0.00306796157577, -0.0690291354549, 0.0
1.192, 1.17709964982, -0.2, 0.0, 0.0, 0.0, 0.0, 0.0, 0.184077694546, -0.0429514620608, 0.444854428487, -0.0184077694546, 0.0, -0.067495154667, 0.00153398078789
1.196, 1.17005610265, -0.2, 0.0, 0.0, 0.0, 0.0, 0.0, 0.187145656122, -0.0429514620608, 0.450990351638, -0.0214757310304, 0.00153398078789, -0.0690291354549, 0.0
1.2, 1.16294603936, -0.2, 0.0, 0.0, 0.0, 0.0, 0.0, 0.18867963691, -0.039883500485, 0.447922390063, -0.0260776733941, -0.00153398078789, -0.067495154667, 0.0
1.204, 1.15576986416, -0.2, 0.0, 0.0, 0.0, 0.0, 0.0, 0.190213617698, -0.0368155389093, 0.450990351638, -0.0230097118183, -0.00153398078789, -0.0720970970306, -0.00306796157577
1.208, 1.148527985, -0.2, 0.0, 0.0, 0.0, 0.0, 0.0, 0.193281579274, -0.0429514620608, 0.446388409275, -0.0276116541819, -0.00153398078789, -0.067495154667, -0.00306796157577
1.212, 1.14122081358, -0.2, 0.0, 0.0, 0.0, 0.0, 0.0, 0.194815560061, -0.0429514620608, 0.450990351638, -0.0230097118183, 0.00306796157577, -0.0705631162427, 0.00153398078789
1.216, 1.13384876529, -0.2, 0.0, 0.0, 0.0, 0.0, 0.0, 0.196349540849, -0.0414174812729, 0.450990351638, -0.0260776733941, -0.00306796157577, -0.0736310778185, -0.00153398078789
1.22, 1.12641225922, -0.2, 0.0, 0.0, 0.0, 0.0, 0.0, 0.193281579274, -0.0429514620608, 0.450990351638, -0.0245436926062, 0.00306796157577, -0.0720970970306, 0.00306796157577
1.224, 1.11891171814, -0.2, 0.0, 0.0, 0.0, 0.0, 0.0, 0.200951483213, -0.039883500485, 0.44945637085, -0.0291456349698, 0.0, -0.0720970970306, 0.00153398078789
1.228, 1.11134756843, -0.2, 0.0, 0.0, 0.0, 0.0, 0.0, 0.200951483213, -0.0429514620608, 0.446388409275, -0.0276116541819, 0.00306796157577, -0.0690291354549, -0.00306796157577
1.232, 1.10372024011, -0.2, 0.0, 0.0, 0.0, 0.0, 0.0, 0.199417502425, -0.0414174812729, 0.452524332426, -0.0306796157577, -0.00153398078789, -0.067495154667, 0.00306796157577
1.236, 1.09603016678, -0.2, 0.0, 0.0, 0.0, 0.0, 0.0, 0.200951483213, -0.0383495196971, 0.452524332426, -0.0306796157577, 0.00306796157577, -0.0705631162427, 0.00306796157577
1.24, 1.08827778562, -0.2, 0.0, 0.0, 0.0, 0.0, 0.0, 0.207087406365, -0.0383495196971, 0.44945637085, -0.0306796157577, 0.00306796157577, -0.0751650586064, 0.00306796157577
1.244, 1.08046353733, -0.2, 0.0, 0.0, 0.0, 0.0, 0.0, 0.205553425577, -0.0383495196971, 0.447922390063, -0.0276116541819, 0.0, -0.0705631162427, -0.00306796157577
1.248, 1.07258786615, -0.2, 0.0, 0.0, 0.0, 0.0, 0.0, 0.21015536794, -0.0368155389093, 0.452524332426, -0.0276116541819, 0.00153398078789, -0.0690291354549, -0.00306796157577
1.252, 1.06465121979, -0.2, 0.0, 0.0, 0.0, 0.0, 0.0, 0.213223329516, -0.0383495196971, 0.452524332426, -0.0322135965456, -0.00153398078789, -0.0736310778185, -0.00306796157577
1.256, 1.05665404944, -0.2, 0.0, 0.0, 0.0, 0.0, 0.0, 0.214757310304, -0.0352815581214, 0.446388409275, -0.0337475773335, 0.00153398078789, -0.0736310778185, -0.00306796157577
1.26, 1.04859680974, -0.2, 0.0, 0.0, 0.0, 0.0, 0.0, 0.21015536794, -0.039883500485, 0.452524332426, -0.0352815581214, 0.00306796157577, -0.0766990393943, 0.0
1.264, 1.04047995872, -0.2, 0.0, 0.0, 0.0, 0.0, 0.0, 0.216291291092, -0.0383495196971, 0.450990351638, -0.0322135965456, -0.00153398078789, -0.0766990393943, 0.00306796157577
1.268, 1.03230395782, -0.2, 0.0, 0.0, 0.0, 0.0, 0.0, 0.219359252668, -0.0383495196971, 0.447922390063, -0.0368155389093, 0.00153398078789, -0.0751650586064, 0.0
1.272, 1.02406927183, -0.2, 0.0, 0.0, 0.0, 0.0, 0.0, 0.214757310304, -0.0414174812729, 0.44945637085, -0.0352815581214, 0.00460194236366, -0.0705631162427, 0.00306796157577
1.276, 1.01577636888, -0.2, 0.0, 0.0, 0.0, 0.0, 0.0, 0.21782527188, -0.0352815581214, 0.450990351638, -0.0352815581214, 0.00306796157577, -0.0720970970306, 0.0
1.28, 1.00742572041, -0.2, 0.0, 0.0, 0.0, 0.0, 0.0, 0.220893233456, -0.0368155389093, 0.450990351638, -0.0337475773335, 0.0, -0.0736310778185, -0.00153398078789
1.284, 0.999017801151, -0.2, 0.0, 0.0, 0.0, 0.0, 0.0, 0.223961195031, -0.0352815581214, 0.44945637085, -0.0352815581214, 0.00153398078789, -0.0766990393943, -0.00153398078789
1.288, 0.990553089076, -0.2, 0.0, 0.0, 0.0, 0.0, 0.0, 0.227029156607, -0.0383495196971, 0.446388409275, -0.0352815581214, 0.00460194236366, -0.0736310778185, 0.00153398078789
1.292, 0.982032065393, -0.2, 0.0, 0.0, 0.0, 0.0, 0.0, 0.227029156607, -0.039883500485, 0.446388409275, -0.0383495196971, 0.00153398078789, -0.0751650586064, 0.00153398078789
1.296, 0.97345521451, -0.2, 0.0, 0.0, 0.0, 0.0, 0.0, 0.227029156607, -0.039883500485, 0.452524332426, -0.0383495196971, 0.00153398078789, -0.0720970970306, 0.0
1.3, 0.964823024011, -0.2, 0.0, 0.0, 0.0, 0.0, 0.0, 0.228563137395, -0.0414174812729, 0.452524332426, -0.0337475773335, 0.0, -0.0720970970306, -0.00153398078789
1.304, 0.956135984623, -0.2, 0.0, 0.0, 0.0, 0.0, 0.0, 0.227029156607, -0.0352815581214, 0.450990351638, -0.0414174812729, 0.00306796157577, -0.0766990393943, 0.00153398078789
1.308, 0.947394590193, -0.2, 0.0, 0.0, 0.0, 0.0, 0.0, 0.230097118183, -0.039883500485, 0.452524332426, -0.0352815581214, 0.00153398078789, -0.0766990393943, 0.00153398078789
1.312, 0.938599337659, -0.2, 0.0, 0.0, 0.0, 0.0, 0.0, 0.233165079759, -0.0414174812729, 0.452524332426, -0.0383495196971, 0.00460194236366, -0.0751650586064, 0.00306796157577
1.316, 0.929750727016, -0.2, 0.0, 0.0, 0.0, 0.0, 0.0, 0.233165079759, -0.0383495196971, 0.447922390063, -0.0429514620608, 0.00460194236366, -0.0797670009701, 0.00153398078789
1.32, 0.920849261299, -0.2, 0.0, 0.0, 0.0, 0.0, 0.0, 0.234699060547, -0.0383495196971, 0.450990351638, -0.0383495196971, -0.00153398078789, -0.0751650586064, 0.00460194236366
1.324, 0.911895446542, -0.2, 0.0, 0.0, 0.0, 0.0, 0.0, 0.236233041334, -0.0414174812729, 0.447922390063, -0.0414174812729, 0.00460194236366, -0.0766990393943, 0.00460194236366
1.328, 0.902889791758, -0.2, 0.0, 0.0, 0.0, 0.0, 0.0, 0.23930100291, -0.0414174812729, 0.450990351638, -0.039883500485, -0.00153398078789, -0.0766990393943, 0.00306796157577
1.332, 0.893832808907, -0.2, 0.0, 0.0, 0.0, 0.0, 0.0, 0.23930100291, -0.039883500485, 0.452524332426, -0.0429514620608, 0.00306796157577, -0.0736310778185, -0.00153398078789
1.336, 0.884725012865, -0.2, 0.0, 0.0, 0.0, 0.0, 0.0, 0.240834983698, -0.0414174812729, 0.450990351638, -0.0444854428487, 0.0, -0.0736310778185, -0.00153398078789
1.34, 0.875566921399, -0.2, 0.0, 0.0, 0.0, 0.0, 0.0, 0.240834983698, -0.0429514620608, 0.450990351638, -0.0383495196971, -0.00153398078789, -0.0813009817579, -0.00153398078789
1.344, 0.866359055133, -0.2, 0.0, 0.0, 0.0, 0.0, 0.0, 0.245436926062, -0.039883500485, 0.454058313214, -0.0429514620608, 0.00306796157577, -0.0797670009701, 0.00153398078789
1.348, 0.857101937524, -0.2, 0.0, 0.0, 0.0, 0.0, 0.0, 0.24697090685, -0.039883500485, 0.44945637085, -0.0429514620608, 0.00306796157577, -0.0782330201822, 0.00306796157577
1.352, 0.847796094824, -0.2, 0.0, 0.0, 0.0, 0.0, 0.0, 0.24697090685, -0.039883500485, 0.450990351638, -0.0444854428487, 0.00153398078789, -0.0766990393943, 0.0
1.356, 0.838442056059, -0.2, 0.0, 0.0, 0.0, 0.0, 0.0, 0.248504887637, -0.0429514620608, 0.447922390063, -0.0460194236366, -0.00153398078789, -0.0813009817579, -0.00153398078789
1.36, 0.829040352993, -0.2, 0.0, 0.0, 0.0, 0.0, 0.0, 0.250038868425, -0.0368155389093, 0.447922390063, -0.0460194236366, 0.00460194236366, -0.0782330201822, -0.00153398078789
1.364, 0.819591520101, -0.2, 0.0, 0.0, 0.0, 0.0, 0.0, 0.256174791577, -0.039883500485, 0.450990351638, -0.0460194236366, 0.0, -0.0766990393943, 0.00153398078789
1.368, 0.810096094536, -0.2, 0.0, 0.0, 0.0, 0.0, 0.0, 0.254640810789, -0.0368155389093, 0.450990351638, -0.0460194236366, 0.00306796157577, -0.0797670009701, 0.0
1.372, 0.8005546161, -0.2, 0.0, 0.0, 0.0, 0.0, 0.0, 0.257708772365, -0.0414174812729, 0.454058313214, -0.0429514620608, 0.00153398078789, -0.0813009817579, 0.00460194236366
1.376, 0.790967627213, -0.2, 0.0, 0.0, 0.0, 0.0, 0.0, 0.259242753153, -0.0368155389093, 0.452524332426, -0.0444854428487, 0.0, -0.0813009817579, 0.0
1.38, 0.781335672882, -0.2, 0.0, 0.0, 0.0, 0.0, 0.0, 0.262310714728, -0.039883500485, 0.454058313214, -0.0444854428487, 0.00460194236366, -0.0797670009701, 0.0
1.384, 0.771659300672, -0.2, 0.0, 0.0, 0.0, 0.0, 0.0, 0.259242753153, -0.0429514620608, 0.450990351638, -0.0460194236366, 0.00306796157577, -0.0782330201822, 0.00153398078789
1.388, 0.761939060671, -0.2, 0.0, 0.0, 0.0, 0.0, 0.0, 0.263844695516, -0.0383495196971, 0.450990351638, -0.0429514620608, 0.00460194236366, -0.0766990393943, 0.00153398078789
1.392, 0.752175505461, -0.2, 0.0, 0.0, 0.0, 0.0, 0.0, 0.263844695516, -0.0414174812729, 0.44945637085, -0.0444854428487, 0.00153398078789, -0.0813009817579, -0.00153398078789
1.396, 0.742369190088, -0.2, 0.0, 0.0, 0.0, 0.0, 0.0, 0.262310714728, -0.0429514620608, 0.44945637085, -0.0475534044245, 0.00153398078789, -0.0797670009701, 0.00153398078789
1.4, 0.732520672027, -0.2, 0.0, 0.0, 0.0, 0.0, 0.0, 0.266912657092, -0.039883500485, 0.452524332426, -0.0475534044245, 0.0, -0.0797670009701, 0.00460194236366
1.404, 0.722630511153, -0.2, 0.0, 0.0, 0.0, 0.0, 0.0, 0.263844695516, -0.0368155389093, 0.44945637085, -0.0444854428487, 0.00306796157577, -0.0782330201822, 0.00153398078789
1.408, 0.712699269708, -0.2, 0.0, 0.0, 0.0, 0.0, 0.0, 0.266912657092, -0.0368155389093, 0.447922390063, -0.0490873852123, 0.00613592315154, -0.0782330201822, 0.00153398078789
1.412, 0.702727512271, -0.2, 0.0, 0.0, 0.0, 0.0, 0.0, 0.273048580244, -0.0368155389093, 0.454058313214, -0.0460194236366, 0.0, -0.0828349625458, 0.00306796157577
1.416, 0.692715805722, -0.2, 0.0, 0.0, 0.0, 0.0, 0.0, 0.274582561032, -0.0414174812729, 0.452524332426, -0.0460194236366, 0.00460194236366, -0.0782330201822, 0.00460194236366
1.42, 0.682664719213, -0.2, 0.0, 0.0, 0.0, 0.0, 0.0, 0.269980618668, -0.0414174812729, 0.44945637085, -0.0521553467881, 0.00153398078789, -0.0843689433337, 0.00306796157577
1.424, 0.672574824135, -0.2, 0.0, 0.0, 0.0, 0.0, 0.0, 0.273048580244, -0.0414174812729, 0.44945637085, -0.0475534044245, 0.00153398078789, -0.0843689433337, 0.0
1.428, 0.662446694085, -0.2, 0.0, 0.0, 0.0, 0.0, 0.0, 0.276116541819, -0.0429514620608, 0.452524332426, -0.0506213660002, 0.00153398078789, -0.0828349625458, -0.00153398078789
1.432, 0.652280904833, -0.2, 0.0, 0.0, 0.0, 0.0, 0.0, 0.273048580244, -0.0383495196971, 0.454058313214, -0.0475534044245, 0.0, -0.0782330201822, 0.0
1.436, 0.642078034291, -0.2, 0.0, 0.0, 0.0, 0.0, 0.0, 0.276116541819, -0.039883500485, 0.44945637085, -0.0521553467881, 0.00460194236366, -0.0828349625458, 0.00460194236366
1.44, 0.631838662479, -0.2, 0.0, 0.0, 0.0, 0.0, 0.0, 0.279184503395, -0.0429514620608, 0.447922390063, -0.0521553467881, 0.00153398078789, -0.0782330201822, -0.00153398078789
1.444, 0.62156337149, -0.2, 0.0, 0.0, 0.0, 0.0, 0.0, 0.279184503395, -0.0429514620608, 0.450990351638, -0.053689327576, 0.0, -0.0797670009701, 0.00306796157577
1.448, 0.611252745461, -0.2, 0.0, 0.0, 0.0, 0.0, 0.0, 0.279184503395, -0.0414174812729, 0.450990351638, -0.0521553467881, 0.00460194236366, -0.0797670009701, 0.00460194236366
1.452, 0.600907370538, -0.2, 0.0, 0.0, 0.0, 0.0, 0.0, 0.283786445759, -0.0429514620608, 0.455592294002, -0.0490873852123, 0.00153398078789, -0.0813009817579, 0.00460194236366
1.456, 0.590527834841, -0.2, 0.0, 0.0, 0.0, 0.0, 0.0, 0.283786445759, -0.0383495196971, 0.452524332426, -0.053689327576, 0.00306796157577, -0.0828349625458, -0.00153398078789
1.46, 0.580114728432, -0.2, 0.0, 0.0, 0.0, 0.0, 0.0, 0.283786445759, -0.0429514620608, 0.44945637085, -0.0490873852123, 0.00306796157577, -0.0782330201822, 0.0
1.464, 0.569668643283, -0.2, 0.0, 0.0, 0.0, 0.0, 0.0, 0.283786445759, -0.0383495196971, 0.454058313214, -0.0521553467881, 0.0, -0.0797670009701, 0.00153398078789
1.468, 0.559190173239, -0.2, 0.0, 0.0, 0.0, 0.0, 0.0, 0.283786445759, -0.0383495196971, 0.450990351638, -0.053689327576, 0.00460194236366, -0.0813009817579, 0.00153398078789
1.472, 0.548679913988, -0.2, 0.0, 0.0, 0.0, 0.0, 0.0, 0.285320426547, -0.0460194236366, 0.455592294002, -0.053689327576, 0.00460194236366, -0.0797670009701, 0.00460194236366
1.476, 0.538138463023, -0.2, 0.0, 0.0, 0.0, 0.0, 0.0, 0.288388388123, -0.0460194236366, 0.44945637085, -0.0506213660002, 0.00613592315154, -0.0813009817579, 0.00306796157577
1.48, 0.527566419612, -0.2, 0.0, 0.0, 0.0, 0.0, 0.0, 0.292990330486, -0.0429514620608, 0.454058313214, -0.0552233083639, 0.00306796157577, -0.0828349625458, 0.00306796157577
1.484, 0.516964384762, -0.2, 0.0, 0.0, 0.0, 0.0, 0.0, 0.28992236891, -0.0414174812729, 0.44945637085, -0.0490873852123, 0.00306796157577, -0.0843689433337, 0.00306796157577
1.488, 0.506332961183, -0.2, 0.0, 0.0, 0.0, 0.0, 0.0, 0.292990330486, -0.0444854428487, 0.450990351638, -0.0506213660002, 0.0, -0.0843689433337, 0.00153398078789
1.492, 0.495672753257, -0.2, 0.0, 0.0, 0.0, 0.0, 0.0, 0.292990330486, -0.0444854428487, 0.452524332426, -0.0552233083639, 0.00460194236366, -0.0797670009701, 0.00306796157577
1.496, 0.484984367004, -0.2, 0.0, 0.0, 0.0, 0.0, 0.0, 0.294524311274, -0.0444854428487, 0.454058313214, -0.053689327576, 0.00460194236366, -0.0828349625458, 0.00153398078789
1.5, 0.474268410043, -0.2, 0.0, 0.0, 0.0, 0.0, 0.0, 0.296058292062, -0.0429514620608, 0.44945637085, -0.0490873852123, 0.00306796157577, -0.0859029241216, 0.00460194236366
1.504, 0.463525491562, -0.2, 0.0, 0.0, 0.0, 0.0, 0.0, 0.292990330486, -0.0444854428487, 0.454058313214, -0.0506213660002, 0.0, -0.0813009817579, 0.00306796157577
1.508, 0.452756222282, -0.2, 0.0, 0.0, 0.0, 0.0, 0.0, 0.296058292062, -0.0444854428487, 0.454058313214, -0.053689327576, 0.00306796157577, -0.0859029241216, 0.00306796157577
1.512, 0.441961214421, -0.2, 0.0, 0.0, 0.0, 0.0, 0.0, 0.300660234426, -0.0429514620608, 0.452524332426, -0.0552233083639, 0.00460194236366, -0.0859029241216, -0.00153398078789
1.516, 0.431141081661, -0.2, 0.0, 0.0, 0.0, 0.0, 0.0, 0.296058292062, -0.0460194236366, 0.450990351638, -0.0490873852123, 0.00613592315154, -0.0797670009701, 0.00306796157577
1.52, 0.420296439112, -0.2, 0.0, 0.0, 0.0, 0.0, 0.0, 0.302194215213, -0.0444854428487, 0.454058313214, -0.0490873852123, 0.00460194236366, -0.0797670009701, 0.00306796157577
1.524, 0.409427903276, -0.2, 0.0, 0.0, 0.0, 0.0, 0.0, 0.300660234426, -0.0444854428487, 0.44945637085, -0.0490873852123, 0.00306796157577, -0.0797670009701, -0.00153398078789
1.528, 0.398536092016, -0.2, 0.0, 0.0, 0.0, 0.0, 0.0, 0.299126253638, -0.0444854428487, 0.452524332426, -0.0521553467881, 0.00460194236366, -0.0843689433337, 0.00153398078789
1.532, 0.387621624516, -0.2, 0.0, 0.0, 0.0, 0.0, 0.0, 0.303728196001, -0.0444854428487, 0.44945637085, -0.0552233083639, 0.00153398078789, -0.0813009817579, 0.00460194236366
1.536, 0.37668512125, -0.2, 0.0, 0.0, 0.0, 0.0, 0.0, 0.300660234426, -0.0444854428487, 0.450990351638, -0.0506213660002, 0.00153398078789, -0.0797670009701, 0.0
1.54, 0.365727203942, -0.2, 0.0, 0.0, 0.0, 0.0, 0.0, 0.302194215213, -0.0460194236366, 0.450990351638, -0.053689327576, 0.00766990393943, -0.0797670009701, 0.00306796157577
1.544, 0.354748495536, -0.2, 0.0, 0.0, 0.0, 0.0, 0.0, 0.303728196001, -0.0475534044245, 0.44945637085, -0.053689327576, 0.00153398078789, -0.0797670009701, 0.00306796157577
1.548, 0.343749620155, -0.2, 0.0, 0.0, 0.0, 0.0, 0.0, 0.306796157577, -0.0429514620608, 0.450990351638, -0.0552233083639, 0.00460194236366, -0.0843689433337, 0.0
1.552, 0.332731203073, -0.2, 0.0, 0.0, 0.0, 0.0, 0.0, 0.308330138365, -0.0490873852123, 0.450990351638, -0.0521553467881, 0.00613592315154, -0.0843689433337, -0.00153398078789
1.556, 0.32169387067, -0.2, 0.0, 0.0, 0.0, 0.0, 0.0, 0.308330138365, -0.0429514620608, 0.44945637085, -0.053689327576, 0.00766990393943, -0.0813009817579, 0.00306796157577
1.56, 0.310638250403, -0.2, 0.0, 0.0, 0.0, 0.0, 0.0, 0.309864119153, -0.0444854428487, 0.452524332426, -0.0506213660002, 0.00766990393943, -0.0843689433337, 0.0
1.564, 0.299564970772, -0.2, 0.0, 0.0, 0.0, 0.0, 0.0, 0.311398099941, -0.0429514620608, 0.44945637085, -0.0552233083639, 0.00460194236366, -0.0828349625458, 0.00460194236366
1.568, 0.288474661275, -0.2, 0.0, 0.0, 0.0, 0.0, 0.0, 0.308330138365, -0.0429514620608, 0.450990351638, -0.0490873852123, 0.00153398078789, -0.0797670009701, 0.00153398078789
1.572, 0.277367952383, -0.2, 0.0, 0.0, 0.0, 0.0, 0.0, 0.311398099941, -0.0429514620608, 0.450990351638, -0.0521553467881, 0.00766990393943, -0.0797670009701, 0.00153398078789
1.576, 0.266245475496, -0.2, 0.0, 0.0, 0.0, 0.0, 0.0, 0.311398099941, -0.0475534044245, 0.455592294002, -0.0506213660002, 0.00766990393943, -0.0813009817579, 0.00153398078789
1.58, 0.255107862913, -0.2, 0.0, 0.0, 0.0, 0.0, 0.0, 0.312932080729, -0.0475534044245, 0.455592294002, -0.0521553467881, 0.00613592315154, -0.0828349625458, 0.00460194236366
1.584, 0.243955747792, -0.2, 0.0, 0.0, 0.0, 0.0, 0.0, 0.312932080729, -0.0475534044245, 0.44945637085, -0.0506213660002, 0.00460194236366, -0.0843689433337, -0.00153398078789
1.588, 0.232789764116, -0.2, 0.0, 0.0, 0.0, 0.0, 0.0, 0.317534023092, -0.0460194236366, 0.452524332426, -0.0506213660002, 0.00153398078789, -0.0843689433337, 0.00153398078789
1.592, 0.221610546655, -0.2, 0.0, 0.0, 0.0, 0.0, 0.0, 0.314466061517, -0.0444854428487, 0.44945637085, -0.053689327576, 0.00306796157577, -0.0797670009701, -0.00153398078789
1.596, 0.210418730934, -0.2, 0.0, 0.0, 0.0, 0.0, 0.0, 0.31906800388, -0.0475534044245, 0.455592294002, -0.0506213660002, 0.00460194236366, -0.0843689433337, 0.00306796157577
1.6, 0.199214953191, -0.2, 0.0, 0.0, 0.0, 0.0, 0.0, 0.31906800388, -0.0506213660002, 0.452524332426, -0.053689327576, 0.00306796157577, -0.0782330201822, 0.00153398078789
1.604, 0.187999850346, -0.2, 0.0, 0.0, 0.0, 0.0, 0.0, 0.320601984668, -0.0490873852123, 0.454058313214, -0.0490873852123, 0.00766990393943, -0.0843689433337, -0.00153398078789
1.608, 0.176774059964, -0.2, 0.0, 0.0, 0.0, 0.0, 0.0, 0.320601984668, -0.0490873852123, 0.44945637085, -0.0490873852123, 0.00766990393943, -0.0828349625458, -0.00153398078789
1.612, 0.165538220215, -0.2, 0.0, 0.0, 0.0, 0.0, 0.0, 0.320601984668, -0.0490873852123, 0.454058313214, -0.0475534044245, 0.00766990393943, -0.0797670009701, 0.00460194236366
1.616, 0.15429296984, -0.2, 0.0, 0.0, 0.0, 0.0, 0.0, 0.320601984668, -0.0460194236366, 0.450990351638, -0.0475534044245, 0.00153398078789, -0.0797670009701, 0.00153398078789
1.62, 0.143038948119, -0.2, 0.0, 0.0, 0.0, 0.0, 0.0, 0.320601984668, -0.0475534044245, 0.44945637085, -0.053689327576, 0.00153398078789, -0.0782330201822, -0.00153398078789
1.624, 0.131776794826, -0.2, 0.0, 0.0, 0.0, 0.0, 0.0, 0.31906800388, -0.0475534044245, 0.452524332426, -0.0506213660002, 0.00153398078789, -0.0813009817579, 0.00460194236366
1.628, 0.1205071502, -0.2, 0.0, 0.0, 0.0, 0.0, 0.0, 0.323669946244, -0.0521553467881, 0.450990351638, -0.053689327576, 0.00306796157577, -0.0782330201822, 0.0
1.632, 0.109230654905, -0.2, 0.0, 0.0, 0.0, 0.0, 0.0, 0.31906800388, -0.0506213660002, 0.455592294002, -0.0506213660002, 0.00766990393943, -0.0828349625458, 0.0
1.636, 0.0979479499945, -0.2, 0.0, 0.0, 0.0, 0.0, 0.0, 0.320601984668, -0.0490873852123, 0.454058313214, -0.053689327576, 0.00153398078789, -0.0828349625458, 0.00460194236366
1.64, 0.086659676875, -0.2, 0.0, 0.0, 0.0, 0.0, 0.0, 0.322135965456, -0.0475534044245, 0.45712627479, -0.0490873852123, 0.00460194236366, -0.0843689433337, 0.0
1.644, 0.0753664772697, -0.2, 0.0, 0.0, 0.0, 0.0, 0.0, 0.32673790782, -0.0490873852123, 0.45712627479, -0.0506213660002, 0.00306796157577, -0.0828349625458, 0.00460194236366
1.648, 0.0640689931817, -0.2, 0.0, 0.0, 0.0, 0.0, 0.0, 0.322135965456, -0.0521553467881, 0.455592294002, -0.0521553467881, 0.00766990393943, -0.0782330201822, 0.00153398078789
1.652, 0.0527678668579, -0.2, 0.0, 0.0, 0.0, 0.0, 0.0, 0.323669946244, -0.0490873852123, 0.45712627479, -0.0490873852123, 0.00460194236366, -0.0813009817579, 0.00460194236366
1.656, 0.0414637407519, -0.2, 0.0, 0.0, 0.0, 0.0, 0.0, 0.325203927032, -0.053689327576, 0.45712627479, -0.0475534044245, 0.00613592315154, -0.0782330201822, 0.0
1.66, 0.0301572574882, -0.2, 0.0, 0.0, 0.0, 0.0, 0.0, 0.322135965456, -0.053689327576, 0.455592294002, -0.0506213660002, 0.00460194236366, -0.0766990393943, 0.00153398078789
1.664, 0.018849059825, -0.2, 0.0, 0.0, 0.0, 0.0, 0.0, 0.323669946244, -0.053689327576, 0.455592294002, -0.0490873852123, 0.00613592315154, -0.0828349625458, 0.00306796157577
1.668, 0.00753979061822, -0.2, 0.0, 0.0, 0.0, 0.0, 0.0, 0.325203927032, -0.0490873852123, 0.45712627479, -0.0506213660002, 0.00766990393943, -0.0797670009701, -0.00153398078789
1.672, -0.00376990721551, -0.2, 0.0, 0.0, 0.0, 0.0, 0.0, 0.329805869395, -0.0521553467881, 0.454058313214, -0.0506213660002, 0.00306796157577, -0.0782330201822, 0.0
1.676, -0.0150793907351, -0.2, 0.0, 0.0, 0.0, 0.0, 0.0, 0.328271888608, -0.0521553467881, 0.454058313214, -0.0506213660002, 0.00306796157577, -0.0782330201822, 0.00306796157577
1.68, -0.0263880170117, -0.2, 0.0, 0.0, 0.0, 0.0, 0.0, 0.32673790782, -0.0521553467881, 0.455592294002, -0.0490873852123, 0.00613592315154, -0.0828349625458, 0.0
1.684, -0.037695143165, -0.2, 0.0, 0.0, 0.0, 0.0, 0.0, 0.32673790782, -0.0552233083639, 0.455592294002, -0.0460194236366, 0.00153398078789, -0.0813009817579, -0.00153398078789
1.688, -0.0490001264003, -0.2, 0.0, 0.0, 0.0, 0.0, 0.0, 0.328271888608, -0.0567572891518, 0.450990351638, -0.0444854428487, 0.00613592315154, -0.0813009817579, 0.00460194236366
1.692, -0.0603023240444, -0.2, 0.0, 0.0, 0.0, 0.0, 0.0, 0.328271888608, -0.0506213660002, 0.450990351638, -0.0475534044245, 0.00766990393943, -0.0813009817579, -0.00153398078789
1.696, -0.0716010935827, -0.2, 0.0, 0.0, 0.0, 0.0, 0.0, 0.331339850183, -0.0506213660002, 0.452524332426, -0.0429514620608, 0.00460194236366, -0.0782330201822, 0.00306796157577
1.7, -0.0828957926954, -0.2, 0.0, 0.0, 0.0, 0.0, 0.0, 0.329805869395, -0.0521553467881, 0.45712627479, -0.0444854428487, 0.00460194236366, -0.0797670009701, 0.00460194236366
1.704, -0.094185779294, -0.2, 0.0, 0.0, 0.0, 0.0, 0.0, 0.328271888608, -0.0506213660002, 0.454058313214, -0.0460194236366, 0.00153398078789, -0.0797670009701, 0.00306796157577
1.708, -0.105470411558, -0.2, 0.0, 0.0, 0.0, 0.0, 0.0, 0.32673790782, -0.053689327576, 0.45712627479, -0.0444854428487, 0.00460194236366, -0.0813009817579, -0.00153398078789
1.712, -0.116749047971, -0.2, 0.0, 0.0, 0.0, 0.0, 0.0, 0.328271888608, -0.0552233083639, 0.452524332426, -0.0414174812729, 0.00613592315154, -0.0797670009701, 0.00306796157577
1.716, -0.128021047358, -0.2, 0.0, 0.0, 0.0, 0.0, 0.0, 0.328271888608, -0.0521553467881, 0.454058313214, -0.0475534044245, 0.00766990393943, -0.0797670009701, 0.0
1.72, -0.139285768922, -0.2, 0.0, 0.0, 0.0, 0.0, 0.0, 0.331339850183, -0.0582912699397, 0.450990351638, -0.0444854428487, 0.00306796157577, -0.0766990393943, 0.00306796157577
1.724, -0.150542572277, -0.2, 0.0, 0.0, 0.0, 0.0, 0.0, 0.331339850183, -0.053689327576, 0.455592294002, -0.0460194236366, 0.00306796157577, -0.0797670009701, 0.00460194236366
1.728, -0.16179081749, -0.2, 0.0, 0.0, 0.0, 0.0, 0.0, 0.331339850183, -0.0552233083639, 0.452524332426, -0.0429514620608, 0.00153398078789, -0.0782330201822, 0.00460194236366
1.732, -0.173029865112, -0.2, 0.0, 0.0, 0.0, 0.0, 0.0, 0.329805869395, -0.0582912699397, 0.45712627479, -0.0414174812729, 0.00613592315154, -0.0736310778185, 0.00460194236366
1.736, -0.184259076221, -0.2, 0.0, 0.0, 0.0, 0.0, 0.0, 0.334407811759, -0.0582912699397, 0.455592294002, -0.0414174812729, 0.00153398078789, -0.0736310778185, 0.00153398078789
1.74, -0.195477812449, -0.2, 0.0, 0.0, 0.0, 0.0, 0.0, 0.334407811759, -0.0552233083639, 0.45712627479, -0.0429514620608, 0.00613592315154, -0.0766990393943, 0.00460194236366
1.744, -0.206685436027, -0.2, 0.0, 0.0, 0.0, 0.0, 0.0, 0.332873830971, -0.0582912699397, 0.450990351638, -0.0429514620608, 0.00460194236366, -0.0766990393943, 0.00460194236366
1.748, -0.217881309817, -0.2, 0.0, 0.0, 0.0, 0.0, 0.0, 0.332873830971, -0.0582912699397, 0.455592294002, -0.0383495196971, 0.00766990393943, -0.0766990393943, 0.0
1.752, -0.229064797347, -0.2, 0.0, 0.0, 0.0, 0.0, 0.0, 0.334407811759, -0.053689327576, 0.45712627479, -0.0414174812729, 0.00306796157577, -0.0797670009701, 0.0
1.756, -0.240235262853, -0.2, 0.0, 0.0, 0.0, 0.0, 0.0, 0.329805869395, -0.0552233083639, 0.45712627479, -0.0383495196971, 0.00153398078789, -0.0766990393943, 0.00460194236366
1.76, -0.251392071308, -0.2, 0.0, 0.0, 0.0, 0.0, 0.0, 0.334407811759, -0.0552233083639, 0.45712627479, -0.039883500485, 0.00460194236366, -0.0720970970306, 0.0
1.764, -0.262534588463, -0.2, 0.0, 0.0, 0.0, 0.0, 0.0, 0.334407811759, -0.0582912699397, 0.455592294002, -0.0383495196971, 0.00613592315154, -0.0782330201822, 0.00153398078789
1.768, -0.27366218088, -0.2, 0.0, 0.0, 0.0, 0.0, 0.0, 0.335941792547, -0.0567572891518, 0.450990351638, -0.039883500485, 0.00306796157577, -0.0720970970306, 0.00153398078789
1.772, -0.284774215971, -0.2, 0.0, 0.0, 0.0, 0.0, 0.0, 0.331339850183, -0.0567572891518, 0.454058313214, -0.0414174812729, 0.00306796157577, -0.0720970970306, 0.00306796157577
1.776, -0.295870062032, -0.2, 0.0, 0.0, 0.0, 0.0, 0.0, 0.331339850183, -0.0582912699397, 0.455592294002, -0.0352815581214, 0.00766990393943, -0.0751650586064, -0.00153398078789
1.78, -0.306949088278, -0.2, 0.0, 0.0, 0.0, 0.0, 0.0, 0.332873830971, -0.0628932123033, 0.452524332426, -0.0352815581214, 0.00306796157577, -0.0751650586064, -0.00153398078789
1.784, -0.318010664883, -0.2, 0.0, 0.0, 0.0, 0.0, 0.0, 0.329805869395, -0.0582912699397, 0.45712627479, -0.0383495196971, 0.00460194236366, -0.0705631162427, 0.00306796157577
1.788, -0.32905416301, -0.2, 0.0, 0.0, 0.0, 0.0, 0.0, 0.331339850183, -0.0582912699397, 0.454058313214, -0.0352815581214, 0.00613592315154, -0.0751650586064, 0.00306796157577
1.792, -0.340078954851, -0.2, 0.0, 0.0, 0.0, 0.0, 0.0, 0.331339850183, -0.0598252507275, 0.452524332426, -0.0322135965456, 0.00460194236366, -0.0705631162427, 0.00153398078789
1.796, -0.351084413663, -0.2, 0.0, 0.0, 0.0, 0.0, 0.0, 0.332873830971, -0.0582912699397, 0.454058313214, -0.0337475773335, 0.00920388472731, -0.0766990393943, 0.00306796157577
1.8, -0.362069913798, -0.2, 0.0, 0.0, 0.0, 0.0, 0.0, 0.335941792547, -0.0628932123033, 0.45712627479, -0.0322135965456, 0.00766990393943, -0.0751650586064, 0.00306796157577
1.804, -0.373034830747, -0.2, 0.0, 0.0, 0.0, 0.0, 0.0, 0.329805869395, -0.0613592315154, 0.455592294002, -0.0306796157577, 0.00766990393943, -0.0736310778185, 0.0
1.808, -0.383978541169, -0.2, 0.0, 0.0, 0.0, 0.0, 0.0, 0.335941792547, -0.0613592315154, 0.454058313214, -0.0352815581214, 0.00306796157577, -0.0690291354549, -0.00153398078789
1.812, -0.394900422928, -0.2, 0.0, 0.0, 0.0, 0.0, 0.0, 0.334407811759, -0.0582912699397, 0.450990351638, -0.0352815581214, 0.00306796157577, -0.0736310778185, 0.00460194236366
1.816, -0.405799855131, -0.2, 0.0, 0.0, 0.0, 0.0, 0.0, 0.331339850183, -0.0644271930912, 0.452524332426, -0.0337475773335, 0.00306796157577, -0.0690291354549, 0.00460194236366
1.82, -0.416676218159, -0.2, 0.0, 0.0, 0.0, 0.0, 0.0, 0.331339850183, -0.0644271930912, 0.452524332426, -0.0306796157577, 0.00613592315154, -0.0690291354549, 0.00306796157577
1.824, -0.427528893705, -0.2, 0.0, 0.0, 0.0, 0.0, 0.0, 0.328271888608, -0.0628932123033, 0.455592294002, -0.0322135965456, 0.00613592315154, -0.0720970970306, 0.00306796157577
1.828, -0.43835726481, -0.2, 0.0, 0.0, 0.0, 0.0, 0.0, 0.329805869395, -0.0598252507275, 0.454058313214, -0.0322135965456, 0.00306796157577, -0.0720970970306, 0.00306796157577
1.832, -0.449160715896, -0.2, 0.0, 0.0, 0.0, 0.0, 0.0, 0.329805869395, -0.0644271930912, 0.450990351638, -0.0337475773335, 0.00766990393943, -0.0705631162427, -0.00153398078789
1.836, -0.4599386328, -0.2, 0.0, 0.0, 0.0, 0.0, 0.0, 0.328271888608, -0.0628932123033, 0.450990351638, -0.0322135965456, 0.00613592315154, -0.067495154667, 0.00153398078789
1.84, -0.470690402813, -0.2, 0.0, 0.0, 0.0, 0.0, 0.0, 0.334407811759, -0.0659611738791, 0.45712627479, -0.0276116541819, 0.00460194236366, -0.0705631162427, 0.00306796157577
1.844, -0.481415414711, -0.2, 0.0, 0.0, 0.0, 0.0, 0.0, 0.329805869395, -0.0659611738791, 0.452524332426, -0.0260776733941, 0.00460194236366, -0.0720970970306, 0.0
1.848, -0.492113058791, -0.2, 0.0, 0.0, 0.0, 0.0, 0.0, 0.328271888608, -0.0628932123033, 0.454058313214, -0.0260776733941, 0.00306796157577, -0.0690291354549, -0.00153398078789
1.852, -0.502782726908, -0.2, 0.0, 0.0, 0.0, 0.0, 0.0, 0.332873830971, -0.0613592315154, 0.450990351638, -0.0245436926062, 0.00920388472731, -0.0659611738791, 0.00306796157577
1.856, -0.513423812504, -0.2, 0.0, 0.0, 0.0, 0.0, 0.0, 0.328271888608, -0.067495154667, 0.450990351638, -0.0230097118183, 0.00306796157577, -0.067495154667, -0.00153398078789
1.86, -0.524035710649, -0.2, 0.0, 0.0, 0.0, 0.0, 0.0, 0.328271888608, -0.0628932123033, 0.450990351638, -0.0291456349698, 0.00460194236366, -0.0705631162427, -0.00153398078789
1.864, -0.53461781807, -0.2, 0.0, 0.0, 0.0, 0.0, 0.0, 0.32673790782, -0.0628932123033, 0.454058313214, -0.0214757310304, 0.00460194236366, -0.0690291354549, -0.00153398078789
1.868, -0.545169533188, -0.2, 0.0, 0.0, 0.0, 0.0, 0.0, 0.325203927032, -0.0690291354549, 0.454058313214, -0.0276116541819, 0.00460194236366, -0.0644271930912, 0.00306796157577
1.872, -0.555690256154, -0.2, 0.0, 0.0, 0.0, 0.0, 0.0, 0.32673790782, -0.0644271930912, 0.450990351638, -0.0276116541819, 0.00766990393943, -0.0659611738791, 0.00460194236366
1.876, -0.566179388877, -0.2, 0.0, 0.0, 0.0, 0.0, 0.0, 0.32673790782, -0.067495154667, 0.455592294002, -0.0214757310304, 0.00766990393943, -0.0644271930912, 0.0
1.88, -0.576636335066, -0.2, 0.0, 0.0, 0.0, 0.0, 0.0, 0.325203927032, -0.0705631162427, 0.454058313214, -0.0245436926062, 0.00920388472731, -0.0690291354549, 0.0
1.884, -0.587060500256, -0.2, 0.0, 0.0, 0.0, 0.0, 0.0, 0.328271888608, -0.0690291354549, 0.45712627479, -0.0184077694546, 0.00766990393943, -0.0644271930912, 0.00460194236366
1.888, -0.597451291848, -0.2, 0.0, 0.0, 0.0, 0.0, 0.0, 0.329805869395, -0.0705631162427, 0.45712627479, -0.0245436926062, 0.00460194236366, -0.0628932123033, 0.00153398078789
1.892, -0.607808119139, -0.2, 0.0, 0.0, 0.0, 0.0, 0.0, 0.32673790782, -0.0690291354549, 0.450990351638, -0.0184077694546, 0.00613592315154, -0.0644271930912, -0.00153398078789
1.896, -0.618130393358, -0.2, 0.0, 0.0, 0.0, 0.0, 0.0, 0.325203927032, -0.0720970970306, 0.454058313214, -0.0230097118183, 0.00613592315154, -0.0613592315154, 0.00460194236366
1.9, -0.628417527698, -0.2, 0.0, 0.0, 0.0, 0.0, 0.0, 0.328271888608, -0.067495154667, 0.455592294002, -0.0168737886667, 0.00766990393943, -0.0628932123033, 0.00306796157577
1.904, -0.638668937348, -0.2, 0.0, 0.0, 0.0, 0.0, 0.0, 0.323669946244, -0.0705631162427, 0.455592294002, -0.0168737886667, 0.00306796157577, -0.0628932123033, -0.00153398078789
1.908, -0.648884039529, -0.2, 0.0, 0.0, 0.0, 0.0, 0.0, 0.322135965456, -0.0659611738791, 0.455592294002, -0.0184077694546, 0.00153398078789, -0.0613592315154, 0.00306796157577
1.912, -0.659062253528, -0.2, 0.0, 0.0, 0.0, 0.0, 0.0, 0.325203927032, -0.0705631162427, 0.452524332426, -0.0184077694546, 0.00306796157577, -0.0644271930912, 0.0
1.916, -0.669203000727, -0.2, 0.0, 0.0, 0.0, 0.0, 0.0, 0.31906800388, -0.0690291354549, 0.44945637085, -0.0168737886667, 0.00766990393943, -0.0628932123033, 0.00460194236366
1.92, -0.679305704636, -0.2, 0.0, 0.0, 0.0, 0.0, 0.0, 0.320601984668, -0.0705631162427, 0.455592294002, -0.0184077694546, 0.00460194236366, -0.0613592315154, 0.00306796157577
1.924, -0.689369790932, -0.2, 0.0, 0.0, 0.0, 0.0, 0.0, 0.325203927032, -0.0705631162427, 0.452524332426, -0.013805827091, 0.00460194236366, -0.0582912699397, 0.00306796157577
1.928, -0.699394687485, -0.2, 0.0, 0.0, 0.0, 0.0, 0.0, 0.317534023092, -0.0705631162427, 0.44945637085, -0.0122718463031, 0.00766990393943, -0.0582912699397, 0.00153398078789
1.932, -0.709379824392, -0.2, 0.0, 0.0, 0.0, 0.0, 0.0, 0.320601984668, -0.0720970970306, 0.452524332426, -0.013805827091, 0.00306796157577, -0.0628932123033, 0.00306796157577
1.936, -0.719324634013, -0.2, 0.0, 0.0, 0.0, 0.0, 0.0, 0.316000042304, -0.0720970970306, 0.455592294002, -0.0153398078789, 0.00460194236366, -0.0598252507275, -0.00153398078789
1.94, -0.729228550998, -0.2, 0.0, 0.0, 0.0, 0.0, 0.0, 0.317534023092, -0.0690291354549, 0.454058313214, -0.00920388472731, 0.00613592315154, -0.0613592315154, 0.00306796157577
1.944, -0.739091012322, -0.2, 0.0, 0.0, 0.0, 0.0, 0.0, 0.316000042304, -0.0720970970306, 0.44945637085, -0.00766990393943, 0.00306796157577, -0.0567572891518, 0.0
1.948, -0.748911457319, -0.2, 0.0, 0.0, 0.0, 0.0, 0.0, 0.320601984668, -0.0720970970306, 0.454058313214, -0.00920388472731, 0.00306796157577, -0.0598252507275, 0.0
1.952, -0.758689327709, -0.2, 0.0, 0.0, 0.0, 0.0, 0.0, 0.320601984668, -0.0720970970306, 0.454058313214, -0.0107378655152, 0.00460194236366, -0.0613592315154, -0.00153398078789
1.956, -0.768424067634, -0.2, 0.0, 0.0, 0.0, 0.0, 0.0, 0.314466061517, -0.0705631162427, 0.450990351638, -0.00920388472731, 0.00766990393943, -0.0552233083639, 0.0
1.96, -0.778115123686, -0.2, 0.0, 0.0, 0.0, 0.0, 0.0, 0.316000042304, -0.0766990393943, 0.450990351638, -0.00460194236366, 0.00613592315154, -0.0598252507275, 0.0
1.964, -0.787761944942, -0.2, 0.0, 0.0, 0.0, 0.0, 0.0, 0.314466061517, -0.0766990393943, 0.455592294002, -0.00460194236366, 0.00766990393943, -0.0598252507275, 0.00460194236366
1.968, -0.797363982993, -0.2, 0.0, 0.0, 0.0, 0.0, 0.0, 0.314466061517, -0.0736310778185, 0.450990351638, -0.00613592315154, 0.00306796157577, -0.0582912699397, 0.0
1.972, -0.806920691977, -0.2, 0.0, 0.0, 0.0, 0.0, 0.0, 0.311398099941, -0.0782330201822, 0.452524332426, -0.00306796157577, 0.00153398078789, -0.0552233083639, 0.00306796157577
1.976, -0.816431528607, -0.2, 0.0, 0.0, 0.0, 0.0, 0.0, 0.314466061517, -0.0720970970306, 0.450990351638, -0.00306796157577, 0.00766990393943, -0.0552233083639, 0.00306796157577
1.98, -0.825895952206, -0.2, 0.0, 0.0, 0.0, 0.0, 0.0, 0.309864119153, -0.0766990393943, 0.450990351638, -0.00460194236366, 0.00460194236366, -0.0521553467881, 0.0
1.984, -0.835313424732, -0.2, 0.0, 0.0, 0.0, 0.0, 0.0, 0.312932080729, -0.0736310778185, 0.452524332426, -0.00460194236366, 0.00460194236366, -0.0552233083639, 0.00460194236366
1.988, -0.844683410817, -0.2, 0.0, 0.0, 0.0, 0.0, 0.0, 0.309864119153, -0.0782330201822, 0.450990351638, -0.00460194236366, 0.00460194236366, -0.053689327576, 0.00306796157577
1.992, -0.854005377788, -0.2, 0.0, 0.0, 0.0, 0.0, 0.0, 0.305262176789, -0.0736310778185, 0.454058313214, 0.0, 0.00460194236366, -0.0506213660002, 0.0
1.996, -0.863278795705, -0.2, 0.0, 0.0, 0.0, 0.0, 0.0, 0.309864119153, -0.0797670009701, 0.454058313214, 0.0, 0.00460194236366, -0.0506213660002, 0.00153398078789
2.0, -0.872503137385, -0.2, 0.0, 0.0, 0.0, 0.0, 0.0, 0.306796157577, -0.0797670009701, 0.452524332426, 0.0, 0.00613592315154, -0.0552233083639, -0.00153398078789
2.004, -0.881677878439, -0.2, 0.0, 0.0, 0.0, 0.0, 0.0, 0.306796157577, -0.0797670009701, 0.450990351638, 0.0, 0.00766990393943, -0.0506213660002, 0.0
2.008, -0.890802497293, -0.2, 0.0, 0.0, 0.0, 0.0, 0.0, 0.302194215213, -0.0751650586064, 0.44945637085, 0.00613592315154, 0.00766990393943, -0.053689327576, 0.00306796157577
2.012, -0.899876475227, -0.2, 0.0, 0.0, 0.0, 0.0, 0.0, 0.302194215213, -0.0751650586064, 0.450990351638, 0.00460194236366, 0.00766990393943, -0.0521553467881, 0.00153398078789
2.016, -0.908899296395, -0.2, 0.0, 0.0, 0.0, 0.0, 0.0, 0.300660234426, -0.0766990393943, 0.452524332426, 0.00613592315154, 0.00613592315154, -0.0475534044245, 0.00153398078789
2.02, -0.917870447864, -0.2, 0.0, 0.0, 0.0, 0.0, 0.0, 0.302194215213, -0.0828349625458, 0.450990351638, 0.00766990393943, 0.00306796157577, -0.053689327576, 0.00306796157577
2.024, -0.926789419636, -0.2, 0.0, 0.0, 0.0, 0.0, 0.0, 0.300660234426, -0.0766990393943, 0.44945637085, 0.00766990393943, 0.00153398078789, -0.0521553467881, -0.00153398078789
2.028, -0.935655704677, -0.2, 0.0, 0.0, 0.0, 0.0, 0.0, 0.302194215213, -0.0797670009701, 0.450990351638, 0.00613592315154, 0.00306796157577, -0.0460194236366, -0.00153398078789
2.032, -0.944468798954, -0.2, 0.0, 0.0, 0.0, 0.0, 0.0, 0.302194215213, -0.0843689433337, 0.450990351638, 0.00613592315154, 0.00460194236366, -0.0490873852123, 0.0
2.036, -0.953228201452, -0.2, 0.0, 0.0, 0.0, 0.0, 0.0, 0.299126253638, -0.0797670009701, 0.452524332426, 0.0107378655152, 0.00306796157577, -0.0475534044245, 0.0
2.04, -0.961933414212, -0.2, 0.0, 0.0, 0.0, 0.0, 0.0, 0.294524311274, -0.0797670009701, 0.452524332426, 0.00920388472731, 0.00153398078789, -0.0490873852123, -0.00306796157577
2.044, -0.970583942354, -0.2, 0.0, 0.0, 0.0, 0.0, 0.0, 0.294524311274, -0.0782330201822, 0.447922390063, 0.013805827091, 0.00613592315154, -0.0444854428487, 0.00153398078789
2.048, -0.979179294107, -0.2, 0.0, 0.0, 0.0, 0.0, 0.0, 0.29759227285, -0.0828349625458, 0.447922390063, 0.0107378655152, 0.00153398078789, -0.0490873852123, -0.00306796157577
2.052, -0.987718980838, -0.2, 0.0, 0.0, 0.0, 0.0, 0.0, 0.291456349698, -0.0828349625458, 0.450990351638, 0.0107378655152, 0.00306796157577, -0.0444854428487, 0.0
2.056, -0.996202517075, -0.2, 0.0, 0.0, 0.0, 0.0, 0.0, 0.294524311274, -0.0843689433337, 0.44945637085, 0.0153398078789, 0.00460194236366, -0.0475534044245, 0.00153398078789
2.06, -1.00462942054, -0.2, 0.0, 0.0, 0.0, 0.0, 0.0, 0.291456349698, -0.0797670009701, 0.452524332426, 0.0168737886667, 0.00460194236366, -0.0414174812729, -0.00306796157577
2.064, -1.01299921218, -0.2, 0.0, 0.0, 0.0, 0.0, 0.0, 0.286854407335, -0.0828349625458, 0.44945637085, 0.0168737886667, 0.00613592315154, -0.0475534044245, 0.00306796157577
2.068, -1.02131141618, -0.2, 0.0, 0.0, 0.0, 0.0, 0.0, 0.291456349698, -0.0813009817579, 0.450990351638, 0.0122718463031, 0.00306796157577, -0.0444854428487, 0.0
2.072, -1.02956556, -0.2, 0.0, 0.0, 0.0, 0.0, 0.0, 0.288388388123, -0.0874369049095, 0.450990351638, 0.0168737886667, 0.00613592315154, -0.0460194236366, 0.00306796157577
2.076, -1.03776117441, -0.2, 0.0, 0.0, 0.0, 0.0, 0.0, 0.288388388123, -0.0874369049095, 0.44945637085, 0.0184077694546, 0.00460194236366, -0.0429514620608, 0.0
2.08, -1.04589779349, -0.2, 0.0, 0.0, 0.0, 0.0, 0.0, 0.288388388123, -0.0859029241216, 0.454058313214, 0.0168737886667, 0.00306796157577, -0.039883500485, 0.00153398078789
2.084, -1.0539749547, -0.2, 0.0, 0.0, 0.0, 0.0, 0.0, 0.280718484183, -0.0843689433337, 0.452524332426, 0.0199417502425, 0.00613592315154, -0.0444854428487, 0.00153398078789
2.088, -1.06199219885, -0.2, 0.0, 0.0, 0.0, 0.0, 0.0, 0.280718484183, -0.0859029241216, 0.44945637085, 0.0245436926062, 0.00766990393943, -0.0383495196971, 0.00153398078789
2.092, -1.06994907017, -0.2, 0.0, 0.0, 0.0, 0.0, 0.0, 0.279184503395, -0.0828349625458, 0.450990351638, 0.0199417502425, 0.00766990393943, -0.039883500485, -0.00306796157577
2.096, -1.07784511633, -0.2, 0.0, 0.0, 0.0, 0.0, 0.0, 0.282252464971, -0.0828349625458, 0.454058313214, 0.0214757310304, 0.00613592315154, -0.0429514620608, -0.00306796157577
2.1, -1.08567988845, -0.2, 0.0, 0.0, 0.0, 0.0, 0.0, 0.276116541819, -0.0828349625458, 0.44945637085, 0.0230097118183, 0.00460194236366, -0.0383495196971, -0.00153398078789
2.104, -1.09345294113, -0.2, 0.0, 0.0, 0.0, 0.0, 0.0, 0.276116541819, -0.0905048664853, 0.446388409275, 0.0230097118183, 0.00153398078789, -0.0383495196971, -0.00306796157577
2.108, -1.10116383249, -0.2, 0.0, 0.0, 0.0, 0.0, 0.0, 0.279184503395, -0.0905048664853, 0.447922390063, 0.0291456349698, 0.00306796157577, -0.0368155389093, 0.00153398078789
2.112, -1.10881212416, -0.2, 0.0, 0.0, 0.0, 0.0, 0.0, 0.271514599456, -0.0843689433337, 0.450990351638, 0.0260776733941, 0.00766990393943, -0.0368155389093, 0.0
2.116, -1.11639738136, -0.2, 0.0, 0.0, 0.0, 0.0, 0.0, 0.274582561032, -0.0905048664853, 0.44945637085, 0.0260776733941, 0.00153398078789, -0.0368155389093, -0.00153398078789
2.12, -1.12391917288, -0.2, 0.0, 0.0, 0.0, 0.0, 0.0, 0.274582561032, -0.0889708856974, 0.446388409275, 0.0306796157577, 0.00306796157577, -0.0352815581214, 0.0
2.124, -1.1313770711, -0.2, 0.0, 0.0, 0.0, 0.0, 0.0, 0.26844663788, -0.0905048664853, 0.447922390063, 0.0306796157577, 0.00460194236366, -0.039883500485, 0.00306796157577
2.128, -1.13877065207, -0.2, 0.0, 0.0, 0.0, 0.0, 0.0, 0.265378676304, -0.0920388472731, 0.450990351638, 0.0337475773335, 0.00766990393943, -0.0337475773335, 0.0
2.132, -1.14609949545, -0.2, 0.0, 0.0, 0.0, 0.0, 0.0, 0.265378676304, -0.0920388472731, 0.44945637085, 0.0306796157577, 0.00613592315154, -0.0352815581214, 0.00306796157577
2.136, -1.15336318463, -0.2, 0.0, 0.0, 0.0, 0.0, 0.0, 0.266912657092, -0.093572828061, 0.446388409275, 0.0337475773335, 0.00153398078789, -0.0306796157577, -0.00306796157577
2.14, -1.16056130666, -0.2, 0.0, 0.0, 0.0, 0.0, 0.0, 0.265378676304, -0.0920388472731, 0.446388409275, 0.0322135965456, 0.00460194236366, -0.0322135965456, -0.00153398078789
2.144, -1.16769345235, -0.2, 0.0, 0.0, 0.0, 0.0, 0.0, 0.260776733941, -0.0905048664853, 0.450990351638, 0.0337475773335, 0.00460194236366, -0.0368155389093, -0.00306796157577
2.148, -1.17475921624, -0.2, 0.0, 0.0, 0.0, 0.0, 0.0, 0.263844695516, -0.0905048664853, 0.452524332426, 0.0368155389093, 0.00460194236366, -0.0352815581214, 0.0
2.152, -1.18175819665, -0.2, 0.0, 0.0, 0.0, 0.0, 0.0, 0.260776733941, -0.0889708856974, 0.44945637085, 0.039883500485, 0.00153398078789, -0.0291456349698, -0.00153398078789
2.156, -1.1886899957, -0.2, 0.0, 0.0, 0.0, 0.0, 0.0, 0.257708772365, -0.0905048664853, 0.452524332426, 0.0368155389093, 0.00460194236366, -0.0276116541819, 0.00306796157577
2.16, -1.19555421933, -0.2, 0.0, 0.0, 0.0, 0.0, 0.0, 0.254640810789, -0.0920388472731, 0.452524332426, 0.039883500485, 0.00306796157577, -0.0322135965456, -0.00306796157577
2.164, -1.20235047731, -0.2, 0.0, 0.0, 0.0, 0.0, 0.0, 0.254640810789, -0.0920388472731, 0.446388409275, 0.0383495196971, 0.00613592315154, -0.0322135965456, -0.00153398078789
2.168, -1.20907838328, -0.2, 0.0, 0.0, 0.0, 0.0, 0.0, 0.257708772365, -0.0951068088489, 0.446388409275, 0.0383495196971, 0.00153398078789, -0.0260776733941, 0.00306796157577
2.172, -1.21573755478, -0.2, 0.0, 0.0, 0.0, 0.0, 0.0, 0.254640810789, -0.0951068088489, 0.44945637085, 0.0429514620608, 0.00613592315154, -0.0276116541819, 0.00306796157577
2.176, -1.22232761324, -0.2, 0.0, 0.0, 0.0, 0.0, 0.0, 0.248504887637, -0.093572828061, 0.446388409275, 0.039883500485, 0.00153398078789, -0.0245436926062, 0.00306796157577
2.18, -1.22884818402, -0.2, 0.0, 0.0, 0.0, 0.0, 0.0, 0.248504887637, -0.0905048664853, 0.450990351638, 0.0475534044245, 0.00766990393943, -0.0306796157577, 0.0
2.184, -1.23529889644, -0.2, 0.0, 0.0, 0.0, 0.0, 0.0, 0.245436926062, -0.0905048664853, 0.450990351638, 0.0444854428487, 0.00153398078789, -0.0276116541819, -0.00153398078789
2.188, -1.24167938378, -0.2, 0.0, 0.0, 0.0, 0.0, 0.0, 0.243902945274, -0.0966407896368, 0.44945637085, 0.0444854428487, 0.00153398078789, -0.0245436926062, -0.00306796157577
2.192, -1.24798928333, -0.2, 0.0, 0.0, 0.0, 0.0, 0.0, 0.240834983698, -0.0966407896368, 0.446388409275, 0.0490873852123, 0.00613592315154, -0.0245436926062, 0.0
2.196, -1.25422823636, -0.2, 0.0, 0.0, 0.0, 0.0, 0.0, 0.245436926062, -0.0951068088489, 0.446388409275, 0.0475534044245, 0.00460194236366, -0.0230097118183, -0.00306796157577
2.2, -1.26039588821, -0.2, 0.0, 0.0, 0.0, 0.0, 0.0, 0.242368964486, -0.0966407896368, 0.447922390063, 0.0490873852123, 0.00766990393943, -0.0214757310304, 0.0
2.204, -1.26649188825, -0.2, 0.0, 0.0, 0.0, 0.0, 0.0, 0.240834983698, -0.0966407896368, 0.446388409275, 0.0490873852123, 0.00766990393943, -0.0260776733941, -0.00153398078789
2.208, -1.27251588994, -0.2, 0.0, 0.0, 0.0, 0.0, 0.0, 0.234699060547, -0.0966407896368, 0.44945637085, 0.053689327576, 0.00153398078789, -0.0230097118183, 0.0
2.212, -1.27846755081, -0.2, 0.0, 0.0, 0.0, 0.0, 0.0, 0.233165079759, -0.0997087512126, 0.444854428487, 0.0506213660002, 0.00306796157577, -0.0199417502425, 0.00153398078789
2.216, -1.28434653253, -0.2, 0.0, 0.0, 0.0, 0.0, 0.0, 0.231631098971, -0.0997087512126, 0.446388409275, 0.0521553467881, 0.00153398078789, -0.0214757310304, 0.00306796157577
2.22, -1.29015250087, -0.2, 0.0, 0.0, 0.0, 0.0, 0.0, 0.230097118183, -0.093572828061, 0.446388409275, 0.0521553467881, 0.00613592315154, -0.0199417502425, -0.00306796157577
2.224, -1.29588512579, -0.2, 0.0, 0.0, 0.0, 0.0, 0.0, 0.233165079759, -0.0997087512126, 0.44945637085, 0.0552233083639, 0.00306796157577, -0.0168737886667, -0.00153398078789
2.228, -1.30154408138, -0.2, 0.0, 0.0, 0.0, 0.0, 0.0, 0.227029156607, -0.101242732, 0.443320447699, 0.0567572891518, 0.00766990393943, -0.0199417502425, -0.00153398078789
2.232, -1.30712904595, -0.2, 0.0, 0.0, 0.0, 0.0, 0.0, 0.228563137395, -0.101242732, 0.444854428487, 0.0552233083639, 0.00460194236366, -0.0199417502425, 0.00153398078789
2.236, -1.31263970199, -0.2, 0.0, 0.0, 0.0, 0.0, 0.0, 0.223961195031, -0.0997087512126, 0.443320447699, 0.0613592315154, 0.00613592315154, -0.0214757310304, 0.00306796157577
2.24, -1.31807573624, -0.2, 0.0, 0.0, 0.0, 0.0, 0.0, 0.223961195031, -0.101242732, 0.444854428487, 0.0613592315154, 0.00460194236366, -0.0168737886667, -0.00306796157577
2.244, -1.32343683965, -0.2, 0.0, 0.0, 0.0, 0.0, 0.0, 0.223961195031, -0.0966407896368, 0.447922390063, 0.0628932123033, 0.00460194236366, -0.0199417502425, 0.0
2.248, -1.32872270747, -0.2, 0.0, 0.0, 0.0, 0.0, 0.0, 0.216291291092, -0.0997087512126, 0.446388409275, 0.0582912699397, 0.00613592315154, -0.0199417502425, -0.00153398078789
2.252, -1.33393303919, -0.2, 0.0, 0.0, 0.0, 0.0, 0.0, 0.214757310304, -0.0966407896368, 0.447922390063, 0.0613592315154, 0.0, -0.0153398078789, 0.0
2.256, -1.33906753861, -0.2, 0.0, 0.0, 0.0, 0.0, 0.0, 0.219359252668, -0.102776712788, 0.443320447699, 0.0613592315154, 0.0, -0.013805827091, 0.00306796157577
2.26, -1.34412591386, -0.2, 0.0, 0.0, 0.0, 0.0, 0.0, 0.211689348728, -0.102776712788, 0.443320447699, 0.0659611738791, 0.00613592315154, -0.013805827091, -0.00306796157577
2.264, -1.34910787735, -0.2, 0.0, 0.0, 0.0, 0.0, 0.0, 0.213223329516, -0.101242732, 0.443320447699, 0.0628932123033, 0.00460194236366, -0.0168737886667, -0.00306796157577
2.268, -1.35401314588, -0.2, 0.0, 0.0, 0.0, 0.0, 0.0, 0.207087406365, -0.0981747704247, 0.44945637085, 0.0644271930912, 0.0, -0.013805827091, -0.00153398078789
2.272, -1.35884144059, -0.2, 0.0, 0.0, 0.0, 0.0, 0.0, 0.205553425577, -0.102776712788, 0.446388409275, 0.067495154667, 0.00460194236366, -0.0153398078789, 0.00306796157577
2.276, -1.36359248699, -0.2, 0.0, 0.0, 0.0, 0.0, 0.0, 0.205553425577, -0.0981747704247, 0.447922390063, 0.0720970970306, 0.00153398078789, -0.0153398078789, -0.00306796157577
2.28, -1.368266015, -0.2, 0.0, 0.0, 0.0, 0.0, 0.0, 0.207087406365, -0.0981747704247, 0.441786466911, 0.0690291354549, 0.00153398078789, -0.013805827091, -0.00306796157577
2.284, -1.37286175893, -0.2, 0.0, 0.0, 0.0, 0.0, 0.0, 0.202485464001, -0.0981747704247, 0.446388409275, 0.0751650586064, 0.00613592315154, -0.0122718463031, 0.0
2.288, -1.37737945752, -0.2, 0.0, 0.0, 0.0, 0.0, 0.0, 0.200951483213, -0.105844674364, 0.443320447699, 0.0720970970306, 0.0, -0.0122718463031, 0.00153398078789
2.292, -1.38181885395, -0.2, 0.0, 0.0, 0.0, 0.0, 0.0, 0.200951483213, -0.101242732, 0.447922390063, 0.0736310778185, 0.0, -0.00920388472731, -0.00306796157577
2.296, -1.38617969583, -0.2, 0.0, 0.0, 0.0, 0.0, 0.0, 0.199417502425, -0.101242732, 0.443320447699, 0.0782330201822, 0.00306796157577, -0.00920388472731, 0.00153398078789
2.3, -1.39046173527, -0.2, 0.0, 0.0, 0.0, 0.0, 0.0, 0.197883521637, -0.105844674364, 0.444854428487, 0.0751650586064, 0.00460194236366, -0.00920388472731, 0.00153398078789
2.304, -1.39466472883, -0.2, 0.0, 0.0, 0.0, 0.0, 0.0, 0.193281579274, -0.104310693576, 0.446388409275, 0.0782330201822, 0.00460194236366, -0.0107378655152, 0.0
2.308, -1.39878843759, -0.2, 0.0, 0.0, 0.0, 0.0, 0.0, 0.190213617698, -0.102776712788, 0.444854428487, 0.0813009817579, 0.00613592315154, -0.00306796157577, 0.00153398078789
2.312, -1.4028326271, -0.2, 0.0, 0.0, 0.0, 0.0, 0.0, 0.191747598486, -0.104310693576, 0.444854428487, 0.0782330201822, 0.00460194236366, -0.00920388472731, 0.0
2.316, -1.40679706747, -0.2, 0.0, 0.0, 0.0, 0.0, 0.0, 0.190213617698, -0.105844674364, 0.441786466911, 0.0813009817579, 0.00460194236366, -0.00613592315154, -0.00306796157577
2.32, -1.41068153333, -0.2, 0.0, 0.0, 0.0, 0.0, 0.0, 0.187145656122, -0.105844674364, 0.441786466911, 0.0797670009701, 0.00613592315154, -0.00613592315154, -0.00306796157577
2.324, -1.41448580384, -0.2, 0.0, 0.0, 0.0, 0.0, 0.0, 0.182543713758, -0.105844674364, 0.446388409275, 0.0797670009701, 0.00613592315154, 0.0, 0.0
2.328, -1.41820966274, -0.2, 0.0, 0.0, 0.0, 0.0, 0.0, 0.184077694546, -0.104310693576, 0.440252486123, 0.0813009817579, 0.00153398078789, -0.00460194236366, 0.0
2.332, -1.42185289833, -0.2, 0.0, 0.0, 0.0, 0.0, 0.0, 0.174873809819, -0.102776712788, 0.440252486123, 0.0843689433337, 0.0, -0.00306796157577, 0.0
2.336, -1.4254153035, -0.2, 0.0, 0.0, 0.0, 0.0, 0.0, 0.179475752183, -0.105844674364, 0.444854428487, 0.0843689433337, 0.0, -0.00460194236366, 0.0
2.34, -1.42889667574, -0.2, 0.0, 0.0, 0.0, 0.0, 0.0, 0.174873809819, -0.10891263594, 0.446388409275, 0.0889708856974, 0.00153398078789, 0.00153398078789, -0.00306796157577
2.344, -1.43229681712, -0.2, 0.0, 0.0, 0.0, 0.0, 0.0, 0.174873809819, -0.105844674364, 0.441786466911, 0.0843689433337, 0.00613592315154, -0.00153398078789, -0.00306796157577
2.348, -1.43561553436, -0.2, 0.0, 0.0, 0.0, 0.0, 0.0, 0.16720390588, -0.107378655152, 0.443320447699, 0.0905048664853, 0.00153398078789, -0.00153398078789, -0.00306796157577
2.352, -1.43885263879, -0.2, 0.0, 0.0, 0.0, 0.0, 0.0, 0.16720390588, -0.110446616728, 0.443320447699, 0.0889708856974, 0.00460194236366, 0.0, 0.0
2.356, -1.44200794639, -0.2, 0.0, 0.0, 0.0, 0.0, 0.0, 0.165669925092, -0.10891263594, 0.441786466911, 0.0889708856974, 0.0, -0.00153398078789, -0.00153398078789
2.36, -1.44508127778, -0.2, 0.0, 0.0, 0.0, 0.0, 0.0, 0.16720390588, -0.110446616728, 0.441786466911, 0.093572828061, 0.00460194236366, 0.00306796157577, 0.00306796157577
