mnegretev/MathWorks2020/catkin_ws/src/persistent_signal_gen/dataset/000g_3.csv
t, torque1, torque2, torque3, torque4, torque5, torque6, torque7, q1, q2, q3, q4, q5, q6, q7
0, 0, 0, 0, 0, 0, 0, 0, 0, 0, 0, 0, 0, 0, 0
0.004, 0.0, -0.2, 0.0, 0.0, 0.0, 0.0, 0.0, 0, 0, 0, 0, 0, 0, 0
0.008, 0.0188493773259, -0.2, 0.0, 0.0, 0.0, 0.0, 0.0, 0.00306796157577, -0.00306796157577, 0.00153398078789, 0.00153398078789, 0.00153398078789, 0.0, 0.00153398078789
0.012, 0.0376976830901, -0.2, 0.0, 0.0, 0.0, 0.0, 0.0, 0.00306796157577, 0.00153398078789, 0.00153398078789, 0.00306796157577, -0.00306796157577, -0.00306796157577, -0.00306796157577
0.016, 0.0565438457918, -0.2, 0.0, 0.0, 0.0, 0.0, 0.0, 0.00153398078789, 0.00153398078789, 0.00153398078789, 0.00153398078789, 0.00306796157577, 0.0, -0.00153398078789
0.02, 0.0753867940521, -0.2, 0.0, 0.0, 0.0, 0.0, 0.0, 0.00306796157577, 0.00153398078789, 0.00306796157577, 0.00306796157577, 0.00153398078789, 0.00153398078789, -0.00306796157577
0.024, 0.0942254566748, -0.2, 0.0, 0.0, 0.0, 0.0, 0.0, 0.00153398078789, 0.0, -0.00306796157577, 0.00153398078789, 0.00306796157577, 0.00306796157577, 0.00153398078789
0.028, 0.113058762707, -0.2, 0.0, 0.0, 0.0, 0.0, 0.0, 0.0, -0.00153398078789, 0.00306796157577, -0.00306796157577, -0.00306796157577, 0.00306796157577, 0.00306796157577
0.032, 0.131885641502, -0.2, 0.0, 0.0, 0.0, 0.0, 0.0, 0.00306796157577, 0.0, 0.00153398078789, -0.00153398078789, -0.00306796157577, -0.00153398078789, 0.00306796157577
0.036, 0.150705022775, -0.2, 0.0, 0.0, 0.0, 0.0, 0.0, 0.0, -0.00306796157577, -0.00153398078789, -0.00306796157577, -0.00153398078789, -0.00153398078789, 0.00306796157577
0.04, 0.169515836671, -0.2, 0.0, 0.0, 0.0, 0.0, 0.0, 0.00153398078789, 0.00153398078789, -0.00153398078789, 0.00153398078789, -0.00306796157577, 0.00153398078789, 0.00153398078789
0.044, 0.18831701382, -0.2, 0.0, 0.0, 0.0, 0.0, 0.0, 0.00306796157577, 0.0, 0.00153398078789, -0.00306796157577, 0.00306796157577, 0.00306796157577, 0.00306796157577
0.048, 0.207107485401, -0.2, 0.0, 0.0, 0.0, 0.0, 0.0, 0.0, 0.0, -0.00306796157577, -0.00153398078789, 0.00306796157577, 0.00153398078789, -0.00153398078789
0.052, 0.2258861832, -0.2, 0.0, 0.0, 0.0, 0.0, 0.0, 0.00153398078789, 0.00306796157577, -0.00306796157577, -0.00306796157577, 0.0, -0.00153398078789, 0.0
0.056, 0.244652039674, -0.2, 0.0, 0.0, 0.0, 0.0, 0.0, 0.00306796157577, -0.00306796157577, 0.0, -0.00153398078789, -0.00153398078789, 0.0, 0.00306796157577
0.06, 0.26340398801, -0.2, 0.0, 0.0, 0.0, 0.0, 0.0, -0.00306796157577, 0.00153398078789, -0.00153398078789, 0.00306796157577, 0.00153398078789, -0.00306796157577, -0.00306796157577
0.064, 0.282140962184, -0.2, 0.0, 0.0, 0.0, 0.0, 0.0, 0.00306796157577, -0.00306796157577, 0.00306796157577, 0.00153398078789, -0.00153398078789, 0.0, 0.00153398078789
0.068, 0.300861897024, -0.2, 0.0, 0.0, 0.0, 0.0, 0.0, 0.00153398078789, -0.00306796157577, 0.0, 0.00153398078789, 0.00153398078789, -0.00153398078789, -0.00306796157577
0.072, 0.319565728272, -0.2, 0.0, 0.0, 0.0, 0.0, 0.0, 0.00306796157577, 0.0, 0.00153398078789, -0.00153398078789, 0.00153398078789, 0.00306796157577, 0.00153398078789
0.076, 0.338251392638, -0.2, 0.0, 0.0, 0.0, 0.0, 0.0, 0.00306796157577, 0.0, 0.00153398078789, -0.00153398078789, 0.00153398078789, 0.00306796157577, 0.00153398078789
0.08, 0.356917827869, -0.2, 0.0, 0.0, 0.0, 0.0, 0.0, 0.00306796157577, 0.00153398078789, 0.0, 0.00306796157577, -0.00306796157577, 0.0, -0.00153398078789
0.084, 0.375563972802, -0.2, 0.0, 0.0, 0.0, 0.0, 0.0, -0.00153398078789, 0.00153398078789, -0.00306796157577, -0.00153398078789, 0.00306796157577, 0.0, 0.00306796157577
0.088, 0.39418876743, -0.2, 0.0, 0.0, 0.0, 0.0, 0.0, 0.00306796157577, 0.00306796157577, 0.00306796157577, 0.00153398078789, 0.00153398078789, -0.00306796157577, 0.0
0.092, 0.412791152957, -0.2, 0.0, 0.0, 0.0, 0.0, 0.0, -0.00153398078789, 0.0, 0.00153398078789, 0.00153398078789, -0.00153398078789, 0.0, 0.0
0.096, 0.431370071864, -0.2, 0.0, 0.0, 0.0, 0.0, 0.0, -0.00306796157577, 0.00306796157577, -0.00306796157577, -0.00153398078789, -0.00153398078789, -0.00306796157577, -0.00153398078789
0.1, 0.449924467964, -0.2, 0.0, 0.0, 0.0, 0.0, 0.0, 0.00306796157577, 0.00306796157577, 0.00153398078789, 0.00306796157577, 0.00153398078789, 0.00153398078789, 0.00306796157577
0.104, 0.468453286464, -0.2, 0.0, 0.0, 0.0, 0.0, 0.0, -0.00306796157577, -0.00306796157577, 0.00306796157577, 0.00153398078789, -0.00306796157577, -0.00153398078789, 0.0
0.108, 0.486955474027, -0.2, 0.0, 0.0, 0.0, 0.0, 0.0, -0.00306796157577, -0.00153398078789, 0.00153398078789, 0.00153398078789, -0.00306796157577, 0.0, 0.00306796157577
0.112, 0.505429978827, -0.2, 0.0, 0.0, 0.0, 0.0, 0.0, -0.00153398078789, -0.00306796157577, -0.00153398078789, -0.00306796157577, 0.0, 0.00153398078789, 0.0
0.116, 0.523875750614, -0.2, 0.0, 0.0, 0.0, 0.0, 0.0, 0.0, 0.00153398078789, -0.00306796157577, 0.0, -0.00153398078789, -0.00153398078789, -0.00153398078789
0.12, 0.542291740771, -0.2, 0.0, 0.0, 0.0, 0.0, 0.0, 0.00306796157577, 0.00306796157577, 0.0, -0.00306796157577, -0.00153398078789, 0.00153398078789, 0.00153398078789
0.124, 0.560676902373, -0.2, 0.0, 0.0, 0.0, 0.0, 0.0, 0.00306796157577, 0.00306796157577, 0.00153398078789, -0.00306796157577, 0.00306796157577, 0.0, 0.00306796157577
0.128, 0.57903019025, -0.2, 0.0, 0.0, 0.0, 0.0, 0.0, 0.00306796157577, -0.00306796157577, 0.00153398078789, 0.00153398078789, 0.0, -0.00153398078789, 0.00306796157577
0.132, 0.59735056104, -0.2, 0.0, 0.0, 0.0, 0.0, 0.0, -0.00153398078789, 0.00306796157577, -0.00153398078789, -0.00153398078789, 0.0, -0.00306796157577, 0.00153398078789
0.136, 0.615636973257, -0.2, 0.0, 0.0, 0.0, 0.0, 0.0, 0.00153398078789, 0.00306796157577, 0.00306796157577, -0.00153398078789, -0.00306796157577, -0.00306796157577, 0.0
0.14, 0.633888387341, -0.2, 0.0, 0.0, 0.0, 0.0, 0.0, 0.00306796157577, 0.0, 0.00306796157577, 0.00153398078789, -0.00306796157577, -0.00306796157577, 0.0
0.144, 0.652103765725, -0.2, 0.0, 0.0, 0.0, 0.0, 0.0, -0.00306796157577, -0.00306796157577, 0.00153398078789, 0.0, -0.00153398078789, -0.00153398078789, -0.00306796157577
0.148, 0.670282072889, -0.2, 0.0, 0.0, 0.0, 0.0, 0.0, 0.00306796157577, 0.0, 0.0, 0.00306796157577, 0.00153398078789, 0.00153398078789, 0.00306796157577
0.152, 0.68842227542, -0.2, 0.0, 0.0, 0.0, 0.0, 0.0, 0.00306796157577, 0.0, 0.0, 0.00153398078789, 0.00306796157577, 0.00306796157577, 0.00306796157577
0.156, 0.706523342073, -0.2, 0.0, 0.0, 0.0, 0.0, 0.0, 0.00306796157577, 0.00153398078789, -0.00153398078789, 0.00153398078789, 0.00306796157577, 0.00153398078789, 0.00153398078789
0.16, 0.724584243827, -0.2, 0.0, 0.0, 0.0, 0.0, 0.0, 0.00306796157577, 0.0, 0.0, -0.00306796157577, -0.00153398078789, -0.00153398078789, 0.00306796157577
0.164, 0.742603953943, -0.2, 0.0, 0.0, 0.0, 0.0, 0.0, 0.00153398078789, -0.00153398078789, -0.00306796157577, -0.00153398078789, 0.00153398078789, -0.00306796157577, 0.00153398078789
0.168, 0.760581448025, -0.2, 0.0, 0.0, 0.0, 0.0, 0.0, 0.00153398078789, -0.00153398078789, 0.00306796157577, -0.00153398078789, 0.0, -0.00306796157577, 0.00153398078789
0.172, 0.778515704077, -0.2, 0.0, 0.0, 0.0, 0.0, 0.0, 0.00306796157577, 0.0, 0.0, -0.00153398078789, 0.00153398078789, 0.00153398078789, -0.00153398078789
0.176, 0.796405702561, -0.2, 0.0, 0.0, 0.0, 0.0, 0.0, -0.00153398078789, 0.00153398078789, -0.00153398078789, 0.00306796157577, -0.00306796157577, 0.0, 0.00153398078789
0.18, 0.814250426454, -0.2, 0.0, 0.0, 0.0, 0.0, 0.0, 0.0, -0.00306796157577, -0.00306796157577, 0.00153398078789, -0.00153398078789, 0.0, -0.00153398078789
0.184, 0.832048861307, -0.2, 0.0, 0.0, 0.0, 0.0, 0.0, 0.00306796157577, -0.00153398078789, 0.00153398078789, 0.00306796157577, -0.00306796157577, 0.00306796157577, -0.00153398078789
0.188, 0.849799995305, -0.2, 0.0, 0.0, 0.0, 0.0, 0.0, 0.00306796157577, 0.00306796157577, 0.00306796157577, -0.00153398078789, -0.00306796157577, -0.00306796157577, 0.00306796157577
0.192, 0.867502819319, -0.2, 0.0, 0.0, 0.0, 0.0, 0.0, 0.00153398078789, -0.00153398078789, -0.00306796157577, 0.00306796157577, 0.00153398078789, 0.0, 0.00153398078789
0.196, 0.885156326966, -0.2, 0.0, 0.0, 0.0, 0.0, 0.0, -0.00153398078789, -0.00306796157577, 0.0, -0.00153398078789, -0.00153398078789, -0.00153398078789, 0.0
0.2, 0.90275951467, -0.2, 0.0, 0.0, 0.0, 0.0, 0.0, 0.00306796157577, 0.0, -0.00306796157577, -0.00306796157577, 0.0, 0.00306796157577, -0.00153398078789
0.204, 0.920311381712, -0.2, 0.0, 0.0, 0.0, 0.0, 0.0, 0.00306796157577, 0.0, 0.00153398078789, 0.00153398078789, 0.00306796157577, -0.00306796157577, -0.00306796157577
0.208, 0.937810930292, -0.2, 0.0, 0.0, 0.0, 0.0, 0.0, -0.00153398078789, -0.00153398078789, -0.00306796157577, 0.00306796157577, -0.00306796157577, 0.00306796157577, -0.00153398078789
0.212, 0.955257165585, -0.2, 0.0, 0.0, 0.0, 0.0, 0.0, 0.00306796157577, -0.00153398078789, -0.00153398078789, -0.00153398078789, 0.0, 0.00153398078789, 0.0
0.216, 0.972649095796, -0.2, 0.0, 0.0, 0.0, 0.0, 0.0, -0.00306796157577, -0.00306796157577, -0.00306796157577, 0.0, 0.00306796157577, -0.00153398078789, 0.00153398078789
0.22, 0.989985732218, -0.2, 0.0, 0.0, 0.0, 0.0, 0.0, 0.0, -0.00153398078789, -0.00153398078789, -0.00306796157577, 0.0, 0.00153398078789, 0.00306796157577
0.224, 1.00726608928, -0.2, 0.0, 0.0, 0.0, 0.0, 0.0, -0.00153398078789, -0.00306796157577, 0.00153398078789, 0.00306796157577, -0.00153398078789, 0.00306796157577, -0.00153398078789
0.228, 1.02448918463, -0.2, 0.0, 0.0, 0.0, 0.0, 0.0, -0.00153398078789, 0.00153398078789, 0.0, 0.00306796157577, 0.00306796157577, -0.00306796157577, -0.00306796157577
0.232, 1.04165403915, -0.2, 0.0, 0.0, 0.0, 0.0, 0.0, -0.00153398078789, 0.0, 0.0, 0.00153398078789, -0.00153398078789, -0.00153398078789, -0.00153398078789
0.236, 1.05875967704, -0.2, 0.0, 0.0, 0.0, 0.0, 0.0, 0.00306796157577, 0.00153398078789, -0.00153398078789, 0.00306796157577, 0.00306796157577, 0.00306796157577, -0.00153398078789
0.24, 1.07580512587, -0.2, 0.0, 0.0, 0.0, 0.0, 0.0, -0.00153398078789, 0.0, -0.00153398078789, -0.00153398078789, 0.0, -0.00306796157577, 0.00306796157577
0.244, 1.09278941663, -0.2, 0.0, 0.0, 0.0, 0.0, 0.0, -0.00153398078789, -0.00153398078789, -0.00153398078789, 0.00306796157577, 0.00306796157577, 0.00153398078789, 0.00306796157577
0.248, 1.10971158378, -0.2, 0.0, 0.0, 0.0, 0.0, 0.0, 0.00306796157577, 0.00306796157577, -0.00153398078789, 0.0, -0.00153398078789, -0.00306796157577, -0.00306796157577
0.252, 1.12657066533, -0.2, 0.0, 0.0, 0.0, 0.0, 0.0, -0.00153398078789, 0.00153398078789, -0.00153398078789, 0.00306796157577, 0.00306796157577, 0.00306796157577, 0.00153398078789
0.256, 1.14336570285, -0.2, 0.0, 0.0, 0.0, 0.0, 0.0, 0.00306796157577, 0.0, 0.00153398078789, 0.0, 0.00306796157577, 0.00153398078789, 0.00153398078789
0.26, 1.16009574157, -0.2, 0.0, 0.0, 0.0, 0.0, 0.0, -0.00153398078789, 0.0, 0.00306796157577, -0.00153398078789, 0.0, 0.0, 0.00153398078789
0.264, 1.17675983041, -0.2, 0.0, 0.0, 0.0, 0.0, 0.0, -0.00306796157577, -0.00306796157577, 0.00153398078789, -0.00153398078789, 0.00306796157577, -0.00306796157577, 0.00306796157577
0.268, 1.19335702205, -0.2, 0.0, 0.0, 0.0, 0.0, 0.0, 0.00153398078789, 0.00306796157577, -0.00153398078789, -0.00306796157577, -0.00153398078789, 0.00306796157577, -0.00153398078789
0.272, 1.20988637294, -0.2, 0.0, 0.0, 0.0, 0.0, 0.0, 0.0, 0.00153398078789, 0.00153398078789, 0.00306796157577, -0.00153398078789, -0.00153398078789, -0.00153398078789
0.276, 1.22634694343, -0.2, 0.0, 0.0, 0.0, 0.0, 0.0, 0.0, -0.00306796157577, -0.00153398078789, -0.00153398078789, -0.00153398078789, -0.00153398078789, -0.00306796157577
0.28, 1.24273779774, -0.2, 0.0, 0.0, 0.0, 0.0, 0.0, -0.00306796157577, 0.00153398078789, 0.00153398078789, -0.00306796157577, 0.00153398078789, -0.00306796157577, 0.00306796157577
0.284, 1.25905800409, -0.2, 0.0, 0.0, 0.0, 0.0, 0.0, -0.00306796157577, 0.00153398078789, -0.00153398078789, -0.00153398078789, 0.00306796157577, 0.00153398078789, -0.00306796157577
0.288, 1.27530663469, -0.2, 0.0, 0.0, 0.0, 0.0, 0.0, 0.00306796157577, 0.0, -0.00153398078789, -0.00306796157577, 0.00153398078789, -0.00153398078789, -0.00153398078789
0.292, 1.29148276582, -0.2, 0.0, 0.0, 0.0, 0.0, 0.0, -0.00153398078789, 0.00153398078789, 0.00153398078789, 0.0, 0.00306796157577, -0.00306796157577, 0.00153398078789
0.296, 1.3075854779, -0.2, 0.0, 0.0, 0.0, 0.0, 0.0, -0.00306796157577, 0.00306796157577, 0.00153398078789, 0.00153398078789, -0.00306796157577, 0.00306796157577, -0.00153398078789
0.3, 1.3236138555, -0.2, 0.0, 0.0, 0.0, 0.0, 0.0, 0.0, 0.00153398078789, 0.0, -0.00306796157577, -0.00153398078789, -0.00306796157577, 0.00306796157577
0.304, 1.33956698745, -0.2, 0.0, 0.0, 0.0, 0.0, 0.0, 0.0, -0.00153398078789, -0.00306796157577, -0.00306796157577, 0.0, -0.00306796157577, 0.00153398078789
0.308, 1.35544396681, -0.2, 0.0, 0.0, 0.0, 0.0, 0.0, 0.0, -0.00306796157577, 0.0, 0.00153398078789, 0.00153398078789, 0.00306796157577, -0.00306796157577
0.312, 1.37124389102, -0.2, 0.0, 0.0, 0.0, 0.0, 0.0, -0.00153398078789, 0.00153398078789, 0.00306796157577, 0.0, 0.00306796157577, -0.00306796157577, 0.00306796157577
0.316, 1.38696586185, -0.2, 0.0, 0.0, 0.0, 0.0, 0.0, -0.00153398078789, 0.00153398078789, -0.00153398078789, 0.00153398078789, 0.00153398078789, 0.0, 0.00153398078789
0.32, 1.40260898555, -0.2, 0.0, 0.0, 0.0, 0.0, 0.0, 0.00460194236366, -0.00153398078789, -0.00306796157577, -0.00460194236366, 0.0, 0.00153398078789, -0.00153398078789
0.324, 1.41817237282, -0.2, 0.0, 0.0, 0.0, 0.0, 0.0, 0.00460194236366, -0.00306796157577, -0.00306796157577, 0.0, 0.00153398078789, -0.00153398078789, 0.00306796157577
0.328, 1.4336551389, -0.2, 0.0, 0.0, 0.0, 0.0, 0.0, 0.0, -0.00306796157577, 0.00153398078789, -0.00153398078789, -0.00153398078789, -0.00153398078789, 0.00306796157577
0.332, 1.44905640361, -0.2, 0.0, 0.0, 0.0, 0.0, 0.0, 0.00306796157577, 0.00306796157577, 0.0, 0.0, 0.00306796157577, 0.00306796157577, 0.0
0.336, 1.46437529143, -0.2, 0.0, 0.0, 0.0, 0.0, 0.0, 0.00306796157577, 0.00153398078789, 0.00306796157577, 0.0, -0.00153398078789, -0.00306796157577, 0.00153398078789
0.34, 1.47961093148, -0.2, 0.0, 0.0, 0.0, 0.0, 0.0, 0.00460194236366, 0.0, -0.00306796157577, -0.00460194236366, -0.00306796157577, -0.00153398078789, 0.0
0.344, 1.49476245764, -0.2, 0.0, 0.0, 0.0, 0.0, 0.0, 0.00306796157577, -0.00153398078789, 0.00153398078789, -0.00306796157577, 0.00153398078789, 0.00153398078789, -0.00306796157577
0.348, 1.50982900858, -0.2, 0.0, 0.0, 0.0, 0.0, 0.0, 0.00153398078789, 0.00306796157577, 0.00306796157577, -0.00153398078789, -0.00153398078789, 0.0, -0.00153398078789
0.352, 1.52480972777, -0.2, 0.0, 0.0, 0.0, 0.0, 0.0, 0.00766990393943, 0.00306796157577, 0.0, -0.00153398078789, 0.00306796157577, -0.00153398078789, -0.00306796157577
0.356, 1.53970376358, -0.2, 0.0, 0.0, 0.0, 0.0, 0.0, 0.00306796157577, -0.00306796157577, 0.00153398078789, -0.00613592315154, 0.0, 0.00153398078789, -0.00306796157577
0.36, 1.55451026931, -0.2, 0.0, 0.0, 0.0, 0.0, 0.0, 0.00306796157577, 0.00306796157577, -0.00306796157577, -0.00153398078789, 0.00153398078789, 0.0, 0.0
0.364, 1.56922840323, -0.2, 0.0, 0.0, 0.0, 0.0, 0.0, 0.00766990393943, 0.00153398078789, 0.0, -0.00766990393943, 0.0, 0.00153398078789, 0.0
0.368, 1.58385732862, -0.2, 0.0, 0.0, 0.0, 0.0, 0.0, 0.00920388472731, 0.00153398078789, 0.0, -0.00920388472731, -0.00153398078789, 0.0, -0.00153398078789
0.372, 1.59839621387, -0.2, 0.0, 0.0, 0.0, 0.0, 0.0, 0.00613592315154, 0.00306796157577, 0.00153398078789, -0.00460194236366, 0.00306796157577, 0.00306796157577, -0.00153398078789
0.376, 1.61284423244, -0.2, 0.0, 0.0, 0.0, 0.0, 0.0, 0.00920388472731, -0.00306796157577, 0.0, -0.00306796157577, 0.00306796157577, -0.00306796157577, 0.00306796157577
0.38, 1.62720056299, -0.2, 0.0, 0.0, 0.0, 0.0, 0.0, 0.0107378655152, 0.00306796157577, 0.0, -0.00460194236366, 0.0, 0.00153398078789, 0.00306796157577
0.384, 1.64146438938, -0.2, 0.0, 0.0, 0.0, 0.0, 0.0, 0.0107378655152, -0.00153398078789, -0.00153398078789, -0.00460194236366, -0.00306796157577, 0.00306796157577, -0.00306796157577
0.388, 1.65563490074, -0.2, 0.0, 0.0, 0.0, 0.0, 0.0, 0.00920388472731, -0.00306796157577, -0.00153398078789, -0.00920388472731, -0.00153398078789, 0.00306796157577, -0.00306796157577
0.392, 1.66971129148, -0.2, 0.0, 0.0, 0.0, 0.0, 0.0, 0.0107378655152, -0.00153398078789, -0.00153398078789, -0.00920388472731, 0.00153398078789, 0.00153398078789, -0.00306796157577
0.396, 1.68369276139, -0.2, 0.0, 0.0, 0.0, 0.0, 0.0, 0.0122718463031, -0.00306796157577, 0.00306796157577, -0.0107378655152, -0.00153398078789, 0.0, -0.00306796157577
0.4, 1.69757851563, -0.2, 0.0, 0.0, 0.0, 0.0, 0.0, 0.0122718463031, -0.00460194236366, 0.0, -0.00613592315154, 0.00306796157577, -0.00306796157577, -0.00153398078789
0.404, 1.71136776482, -0.2, 0.0, 0.0, 0.0, 0.0, 0.0, 0.013805827091, -0.00306796157577, -0.00306796157577, -0.0107378655152, -0.00153398078789, 0.00306796157577, -0.00153398078789
0.408, 1.72505972506, -0.2, 0.0, 0.0, 0.0, 0.0, 0.0, 0.013805827091, -0.00306796157577, 0.00306796157577, -0.0107378655152, -0.00153398078789, 0.0, 0.00153398078789
0.412, 1.73865361799, -0.2, 0.0, 0.0, 0.0, 0.0, 0.0, 0.0153398078789, -0.00460194236366, -0.00306796157577, -0.00920388472731, 0.0, 0.00306796157577, 0.00306796157577
0.416, 1.75214867079, -0.2, 0.0, 0.0, 0.0, 0.0, 0.0, 0.013805827091, -0.00460194236366, -0.00306796157577, -0.0153398078789, 0.0, -0.00153398078789, -0.00306796157577
0.42, 1.76554411631, -0.2, 0.0, 0.0, 0.0, 0.0, 0.0, 0.0168737886667, -0.00460194236366, 0.00306796157577, -0.00920388472731, 0.00153398078789, 0.00153398078789, 0.0
0.424, 1.77883919302, -0.2, 0.0, 0.0, 0.0, 0.0, 0.0, 0.0107378655152, 0.0, 0.00153398078789, -0.0153398078789, 0.0, 0.00153398078789, 0.00153398078789
0.428, 1.79203314513, -0.2, 0.0, 0.0, 0.0, 0.0, 0.0, 0.0122718463031, -0.00460194236366, 0.00153398078789, -0.0153398078789, 0.0, -0.00153398078789, 0.0
0.432, 1.80512522256, -0.2, 0.0, 0.0, 0.0, 0.0, 0.0, 0.0122718463031, -0.00306796157577, -0.00153398078789, -0.0168737886667, -0.00306796157577, -0.00460194236366, 0.00306796157577
0.436, 1.81811468106, -0.2, 0.0, 0.0, 0.0, 0.0, 0.0, 0.0184077694546, -0.00153398078789, -0.00153398078789, -0.013805827091, -0.00153398078789, -0.00460194236366, 0.00153398078789
0.44, 1.83100078219, -0.2, 0.0, 0.0, 0.0, 0.0, 0.0, 0.0199417502425, -0.00306796157577, -0.00306796157577, -0.013805827091, 0.0, -0.00306796157577, 0.00306796157577
0.444, 1.8437827934, -0.2, 0.0, 0.0, 0.0, 0.0, 0.0, 0.0184077694546, -0.00153398078789, 0.00153398078789, -0.013805827091, 0.00153398078789, 0.0, -0.00153398078789
0.448, 1.85645998803, -0.2, 0.0, 0.0, 0.0, 0.0, 0.0, 0.0199417502425, -0.00153398078789, 0.00153398078789, -0.0168737886667, 0.00153398078789, -0.00153398078789, -0.00153398078789
0.452, 1.86903164542, -0.2, 0.0, 0.0, 0.0, 0.0, 0.0, 0.0214757310304, -0.00306796157577, 0.00306796157577, -0.0153398078789, 0.00153398078789, -0.00460194236366, 0.0
0.456, 1.88149705088, -0.2, 0.0, 0.0, 0.0, 0.0, 0.0, 0.0184077694546, 0.00153398078789, 0.0, -0.0168737886667, 0.0, -0.00306796157577, 0.00153398078789
0.46, 1.89385549577, -0.2, 0.0, 0.0, 0.0, 0.0, 0.0, 0.0199417502425, -0.00306796157577, -0.00153398078789, -0.0230097118183, 0.00153398078789, -0.00153398078789, 0.00153398078789
0.464, 1.90610627753, -0.2, 0.0, 0.0, 0.0, 0.0, 0.0, 0.0214757310304, 0.00153398078789, 0.00153398078789, -0.0199417502425, -0.00306796157577, 0.00153398078789, -0.00153398078789
0.468, 1.91824869971, -0.2, 0.0, 0.0, 0.0, 0.0, 0.0, 0.0199417502425, 0.0, -0.00153398078789, -0.0214757310304, 0.00306796157577, -0.00153398078789, 0.00306796157577
0.472, 1.93028207204, -0.2, 0.0, 0.0, 0.0, 0.0, 0.0, 0.0245436926062, -0.00153398078789, -0.00306796157577, -0.0214757310304, -0.00306796157577, 0.0, -0.00306796157577
0.476, 1.94220571044, -0.2, 0.0, 0.0, 0.0, 0.0, 0.0, 0.0260776733941, -0.00306796157577, 0.00306796157577, -0.0230097118183, -0.00153398078789, -0.00153398078789, -0.00306796157577
0.48, 1.95401893706, -0.2, 0.0, 0.0, 0.0, 0.0, 0.0, 0.0276116541819, -0.00306796157577, 0.00153398078789, -0.0214757310304, 0.00153398078789, -0.00153398078789, -0.00153398078789
0.484, 1.96572108034, -0.2, 0.0, 0.0, 0.0, 0.0, 0.0, 0.0306796157577, -0.00460194236366, -0.00153398078789, -0.0260776733941, 0.0, 0.0, -0.00306796157577
0.488, 1.97731147503, -0.2, 0.0, 0.0, 0.0, 0.0, 0.0, 0.0322135965456, 0.00153398078789, -0.00153398078789, -0.0230097118183, 0.00153398078789, -0.00460194236366, -0.00153398078789
0.492, 1.98878946222, -0.2, 0.0, 0.0, 0.0, 0.0, 0.0, 0.0276116541819, -0.00460194236366, 0.00153398078789, -0.0260776733941, 0.0, -0.00460194236366, -0.00153398078789
0.496, 2.00015438941, -0.2, 0.0, 0.0, 0.0, 0.0, 0.0, 0.0276116541819, -0.00613592315154, 0.00153398078789, -0.0291456349698, 0.0, -0.00306796157577, 0.00153398078789
0.5, 2.01140561052, -0.2, 0.0, 0.0, 0.0, 0.0, 0.0, 0.0337475773335, -0.00460194236366, -0.00153398078789, -0.0322135965456, 0.0, -0.00460194236366, 0.00306796157577
0.504, 2.02254248594, -0.2, 0.0, 0.0, 0.0, 0.0, 0.0, 0.0352815581214, -0.00460194236366, -0.00306796157577, -0.0306796157577, 0.00153398078789, -0.00153398078789, 0.0
0.508, 2.03356438254, -0.2, 0.0, 0.0, 0.0, 0.0, 0.0, 0.0337475773335, -0.00153398078789, -0.00153398078789, -0.0322135965456, 0.00153398078789, 0.0, 0.0
0.512, 2.04447067374, -0.2, 0.0, 0.0, 0.0, 0.0, 0.0, 0.0383495196971, -0.00306796157577, 0.00153398078789, -0.0306796157577, 0.0, -0.00613592315154, 0.00153398078789
0.516, 2.05526073955, -0.2, 0.0, 0.0, 0.0, 0.0, 0.0, 0.0383495196971, -0.00306796157577, 0.00153398078789, -0.0306796157577, 0.0, -0.00613592315154, 0.00153398078789
0.52, 2.06593396655, -0.2, 0.0, 0.0, 0.0, 0.0, 0.0, 0.0337475773335, -0.00460194236366, -0.00306796157577, -0.0322135965456, -0.00153398078789, -0.00766990393943, -0.00153398078789
0.524, 2.07648974799, -0.2, 0.0, 0.0, 0.0, 0.0, 0.0, 0.0352815581214, -0.00153398078789, 0.00306796157577, -0.0368155389093, 0.0, -0.00766990393943, 0.0
0.528, 2.08692748379, -0.2, 0.0, 0.0, 0.0, 0.0, 0.0, 0.0414174812729, -0.00460194236366, 0.00306796157577, -0.0322135965456, 0.0, -0.00306796157577, -0.00153398078789
0.532, 2.09724658057, -0.2, 0.0, 0.0, 0.0, 0.0, 0.0, 0.0444854428487, -0.00613592315154, -0.00153398078789, -0.0383495196971, 0.00153398078789, -0.00306796157577, -0.00306796157577
0.536, 2.10744645171, -0.2, 0.0, 0.0, 0.0, 0.0, 0.0, 0.0460194236366, -0.00153398078789, 0.0, -0.039883500485, -0.00153398078789, -0.00460194236366, 0.0
0.54, 2.11752651736, -0.2, 0.0, 0.0, 0.0, 0.0, 0.0, 0.0414174812729, 0.0, -0.00153398078789, -0.0383495196971, 0.00153398078789, -0.00613592315154, 0.00306796157577
0.544, 2.12748620449, -0.2, 0.0, 0.0, 0.0, 0.0, 0.0, 0.0444854428487, -0.00153398078789, 0.00153398078789, -0.0383495196971, -0.00306796157577, -0.00766990393943, 0.00153398078789
0.548, 2.13732494689, -0.2, 0.0, 0.0, 0.0, 0.0, 0.0, 0.0429514620608, -0.00460194236366, -0.00306796157577, -0.0429514620608, -0.00153398078789, -0.00766990393943, -0.00153398078789
0.552, 2.14704218525, -0.2, 0.0, 0.0, 0.0, 0.0, 0.0, 0.0490873852123, -0.00460194236366, 0.00306796157577, -0.0429514620608, 0.00153398078789, -0.00306796157577, 0.0
0.556, 2.15663736715, -0.2, 0.0, 0.0, 0.0, 0.0, 0.0, 0.0475534044245, -0.00460194236366, -0.00153398078789, -0.0460194236366, 0.00306796157577, -0.00766990393943, -0.00153398078789
0.56, 2.16610994713, -0.2, 0.0, 0.0, 0.0, 0.0, 0.0, 0.0475534044245, -0.00460194236366, -0.00306796157577, -0.039883500485, 0.0, -0.00613592315154, -0.00153398078789
0.564, 2.17545938667, -0.2, 0.0, 0.0, 0.0, 0.0, 0.0, 0.0521553467881, -0.00306796157577, -0.00306796157577, -0.0444854428487, 0.00306796157577, -0.00306796157577, 0.00306796157577
0.568, 2.18468515429, -0.2, 0.0, 0.0, 0.0, 0.0, 0.0, 0.0506213660002, -0.00460194236366, -0.00306796157577, -0.0475534044245, 0.0, -0.00306796157577, 0.0
0.572, 2.19378672549, -0.2, 0.0, 0.0, 0.0, 0.0, 0.0, 0.0521553467881, -0.00613592315154, 0.00306796157577, -0.0506213660002, 0.00153398078789, -0.00306796157577, -0.00306796157577
0.576, 2.20276358288, -0.2, 0.0, 0.0, 0.0, 0.0, 0.0, 0.0582912699397, -0.00613592315154, 0.0, -0.0506213660002, 0.00153398078789, -0.00613592315154, 0.00153398078789
0.58, 2.21161521613, -0.2, 0.0, 0.0, 0.0, 0.0, 0.0, 0.0552233083639, -0.00766990393943, 0.0, -0.0506213660002, 0.00306796157577, -0.00766990393943, 0.00306796157577
0.584, 2.22034112203, -0.2, 0.0, 0.0, 0.0, 0.0, 0.0, 0.0552233083639, -0.00153398078789, 0.00153398078789, -0.0490873852123, 0.00306796157577, -0.0107378655152, 0.0
0.588, 2.22894080454, -0.2, 0.0, 0.0, 0.0, 0.0, 0.0, 0.0628932123033, -0.00766990393943, -0.00306796157577, -0.053689327576, 0.0, -0.00460194236366, 0.00306796157577
0.592, 2.23741377476, -0.2, 0.0, 0.0, 0.0, 0.0, 0.0, 0.0598252507275, -0.00460194236366, -0.00306796157577, -0.0521553467881, 0.00153398078789, -0.00460194236366, 0.00153398078789
0.596, 2.24575955103, -0.2, 0.0, 0.0, 0.0, 0.0, 0.0, 0.0659611738791, -0.00766990393943, 0.00153398078789, -0.0552233083639, 0.0, -0.00613592315154, 0.00306796157577
0.6, 2.25397765889, -0.2, 0.0, 0.0, 0.0, 0.0, 0.0, 0.0613592315154, -0.00460194236366, -0.00306796157577, -0.0521553467881, 0.00306796157577, -0.00920388472731, 0.00306796157577
0.604, 2.26206763117, -0.2, 0.0, 0.0, 0.0, 0.0, 0.0, 0.0644271930912, -0.00460194236366, 0.0, -0.053689327576, 0.0, -0.00766990393943, 0.00153398078789
0.608, 2.27002900794, -0.2, 0.0, 0.0, 0.0, 0.0, 0.0, 0.0644271930912, -0.00766990393943, 0.00153398078789, -0.053689327576, 0.0, -0.0122718463031, 0.00153398078789
0.612, 2.27786133663, -0.2, 0.0, 0.0, 0.0, 0.0, 0.0, 0.0644271930912, -0.00766990393943, 0.00153398078789, -0.053689327576, 0.0, -0.0122718463031, 0.00153398078789
0.616, 2.28556417197, -0.2, 0.0, 0.0, 0.0, 0.0, 0.0, 0.0736310778185, -0.00613592315154, 0.00306796157577, -0.0613592315154, -0.00153398078789, -0.0122718463031, 0.00153398078789
0.62, 2.29313707607, -0.2, 0.0, 0.0, 0.0, 0.0, 0.0, 0.0751650586064, -0.00460194236366, -0.00306796157577, -0.0613592315154, 0.00306796157577, -0.0122718463031, 0.00306796157577
0.624, 2.30057961841, -0.2, 0.0, 0.0, 0.0, 0.0, 0.0, 0.0705631162427, -0.00306796157577, -0.00153398078789, -0.0613592315154, 0.00153398078789, -0.00920388472731, 0.00306796157577
0.628, 2.30789137591, -0.2, 0.0, 0.0, 0.0, 0.0, 0.0, 0.0782330201822, -0.00613592315154, 0.0, -0.0613592315154, 0.00153398078789, -0.013805827091, 0.00153398078789
0.632, 2.31507193289, -0.2, 0.0, 0.0, 0.0, 0.0, 0.0, 0.0797670009701, -0.00306796157577, -0.00153398078789, -0.0613592315154, 0.00306796157577, -0.00920388472731, 0.00306796157577
0.636, 2.32212088116, -0.2, 0.0, 0.0, 0.0, 0.0, 0.0, 0.0828349625458, -0.00920388472731, -0.00306796157577, -0.067495154667, -0.00153398078789, -0.00766990393943, 0.0
0.64, 2.32903781998, -0.2, 0.0, 0.0, 0.0, 0.0, 0.0, 0.0813009817579, -0.00920388472731, 0.0, -0.067495154667, 0.0, -0.0122718463031, -0.00306796157577
0.644, 2.33582235614, -0.2, 0.0, 0.0, 0.0, 0.0, 0.0, 0.0828349625458, -0.00920388472731, -0.00306796157577, -0.0705631162427, -0.00306796157577, -0.0122718463031, 0.00153398078789
0.648, 2.34247410395, -0.2, 0.0, 0.0, 0.0, 0.0, 0.0, 0.0828349625458, -0.00460194236366, -0.00306796157577, -0.0705631162427, 0.0, -0.013805827091, -0.00306796157577
0.652, 2.34899268526, -0.2, 0.0, 0.0, 0.0, 0.0, 0.0, 0.0828349625458, -0.00460194236366, -0.00153398078789, -0.0690291354549, -0.00306796157577, -0.00920388472731, 0.00153398078789
0.656, 2.35537772951, -0.2, 0.0, 0.0, 0.0, 0.0, 0.0, 0.0843689433337, -0.00613592315154, -0.00306796157577, -0.0720970970306, 0.00153398078789, -0.013805827091, -0.00153398078789
0.66, 2.36162887371, -0.2, 0.0, 0.0, 0.0, 0.0, 0.0, 0.0859029241216, -0.00613592315154, -0.00306796157577, -0.0720970970306, 0.00306796157577, -0.0153398078789, 0.0
0.664, 2.36774576249, -0.2, 0.0, 0.0, 0.0, 0.0, 0.0, 0.0905048664853, -0.00920388472731, -0.00306796157577, -0.0720970970306, 0.0, -0.0153398078789, -0.00306796157577
0.668, 2.37372804811, -0.2, 0.0, 0.0, 0.0, 0.0, 0.0, 0.0920388472731, -0.00920388472731, -0.00153398078789, -0.0736310778185, 0.00306796157577, -0.0122718463031, 0.00153398078789
0.672, 2.3795753905, -0.2, 0.0, 0.0, 0.0, 0.0, 0.0, 0.093572828061, -0.00460194236366, 0.0, -0.0782330201822, 0.0, -0.0122718463031, -0.00306796157577
0.676, 2.38528745723, -0.2, 0.0, 0.0, 0.0, 0.0, 0.0, 0.0997087512126, -0.00613592315154, 0.00306796157577, -0.0766990393943, 0.0, -0.0168737886667, 0.00153398078789
0.68, 2.39086392358, -0.2, 0.0, 0.0, 0.0, 0.0, 0.0, 0.0951068088489, -0.00613592315154, -0.00306796157577, -0.0782330201822, 0.00306796157577, -0.0153398078789, 0.00306796157577
0.684, 2.39630447254, -0.2, 0.0, 0.0, 0.0, 0.0, 0.0, 0.0997087512126, -0.0107378655152, 0.00306796157577, -0.0813009817579, -0.00153398078789, -0.013805827091, 0.00153398078789
0.688, 2.40160879483, -0.2, 0.0, 0.0, 0.0, 0.0, 0.0, 0.102776712788, -0.00766990393943, -0.00306796157577, -0.0797670009701, 0.00153398078789, -0.0153398078789, 0.0
0.692, 2.40677658889, -0.2, 0.0, 0.0, 0.0, 0.0, 0.0, 0.105844674364, -0.00460194236366, 0.00306796157577, -0.0859029241216, 0.00153398078789, -0.013805827091, 0.0
0.696, 2.41180756094, -0.2, 0.0, 0.0, 0.0, 0.0, 0.0, 0.107378655152, -0.0107378655152, 0.00306796157577, -0.0874369049095, 0.0, -0.013805827091, -0.00306796157577
0.7, 2.41670142499, -0.2, 0.0, 0.0, 0.0, 0.0, 0.0, 0.110446616728, -0.00460194236366, 0.00153398078789, -0.0843689433337, -0.00306796157577, -0.0199417502425, 0.00153398078789
0.704, 2.42145790282, -0.2, 0.0, 0.0, 0.0, 0.0, 0.0, 0.10891263594, -0.0107378655152, 0.0, -0.0920388472731, 0.00153398078789, -0.0184077694546, -0.00306796157577
0.708, 2.42607672403, -0.2, 0.0, 0.0, 0.0, 0.0, 0.0, 0.110446616728, -0.00766990393943, 0.00153398078789, -0.0874369049095, 0.0, -0.0214757310304, 0.00306796157577
0.712, 2.43055762605, -0.2, 0.0, 0.0, 0.0, 0.0, 0.0, 0.116582539879, -0.0122718463031, -0.00153398078789, -0.0889708856974, 0.00153398078789, -0.0214757310304, 0.0
0.716, 2.43490035415, -0.2, 0.0, 0.0, 0.0, 0.0, 0.0, 0.115048559091, -0.00920388472731, 0.00153398078789, -0.0905048664853, 0.00153398078789, -0.0184077694546, 0.00153398078789
0.72, 2.43910466144, -0.2, 0.0, 0.0, 0.0, 0.0, 0.0, 0.116582539879, -0.0122718463031, 0.00306796157577, -0.0905048664853, 0.0, -0.0199417502425, -0.00306796157577
0.724, 2.44317030892, -0.2, 0.0, 0.0, 0.0, 0.0, 0.0, 0.118116520667, -0.00613592315154, -0.00153398078789, -0.0951068088489, 0.00306796157577, -0.0184077694546, 0.00306796157577
0.728, 2.44709706546, -0.2, 0.0, 0.0, 0.0, 0.0, 0.0, 0.121184482243, -0.00766990393943, 0.00306796157577, -0.0951068088489, 0.00306796157577, -0.0214757310304, 0.0
0.732, 2.45088470783, -0.2, 0.0, 0.0, 0.0, 0.0, 0.0, 0.127320405395, -0.0122718463031, 0.00306796157577, -0.0981747704247, -0.00306796157577, -0.0214757310304, -0.00306796157577
0.736, 2.45453302071, -0.2, 0.0, 0.0, 0.0, 0.0, 0.0, 0.124252443819, -0.00920388472731, 0.00153398078789, -0.0966407896368, 0.0, -0.0245436926062, 0.00153398078789
0.74, 2.4580417967, -0.2, 0.0, 0.0, 0.0, 0.0, 0.0, 0.13038836697, -0.00766990393943, 0.00153398078789, -0.0981747704247, -0.00306796157577, -0.0214757310304, 0.0
0.744, 2.46141083632, -0.2, 0.0, 0.0, 0.0, 0.0, 0.0, 0.13038836697, -0.0107378655152, -0.00306796157577, -0.105844674364, 0.00153398078789, -0.0184077694546, -0.00153398078789
0.748, 2.46463994806, -0.2, 0.0, 0.0, 0.0, 0.0, 0.0, 0.134990309334, -0.00766990393943, -0.00306796157577, -0.104310693576, 0.00306796157577, -0.0199417502425, -0.00306796157577
0.752, 2.46772894833, -0.2, 0.0, 0.0, 0.0, 0.0, 0.0, 0.13038836697, -0.0122718463031, -0.00153398078789, -0.10891263594, 0.00306796157577, -0.0260776733941, 0.00306796157577
0.756, 2.47067766155, -0.2, 0.0, 0.0, 0.0, 0.0, 0.0, 0.134990309334, -0.0107378655152, 0.00153398078789, -0.110446616728, 0.00306796157577, -0.0230097118183, -0.00153398078789
0.76, 2.47348592006, -0.2, 0.0, 0.0, 0.0, 0.0, 0.0, 0.141126232485, -0.0107378655152, -0.00153398078789, -0.10891263594, 0.00306796157577, -0.0214757310304, 0.00153398078789
0.764, 2.47615356424, -0.2, 0.0, 0.0, 0.0, 0.0, 0.0, 0.142660213273, -0.00920388472731, 0.00153398078789, -0.10891263594, 0.00306796157577, -0.0260776733941, 0.00306796157577
0.768, 2.47868044243, -0.2, 0.0, 0.0, 0.0, 0.0, 0.0, 0.142660213273, -0.00766990393943, -0.00306796157577, -0.10891263594, -0.00306796157577, -0.0260776733941, 0.00306796157577
0.772, 2.48106641097, -0.2, 0.0, 0.0, 0.0, 0.0, 0.0, 0.141126232485, -0.00766990393943, -0.00306796157577, -0.111980597516, -0.00153398078789, -0.0214757310304, -0.00306796157577
0.776, 2.48331133423, -0.2, 0.0, 0.0, 0.0, 0.0, 0.0, 0.144194194061, -0.0107378655152, 0.00153398078789, -0.116582539879, 0.00306796157577, -0.0230097118183, -0.00306796157577
0.78, 2.48541508459, -0.2, 0.0, 0.0, 0.0, 0.0, 0.0, 0.148796136425, -0.0122718463031, 0.0, -0.111980597516, -0.00306796157577, -0.0260776733941, -0.00153398078789
0.784, 2.48737754245, -0.2, 0.0, 0.0, 0.0, 0.0, 0.0, 0.151864098001, -0.00766990393943, -0.00153398078789, -0.118116520667, 0.0, -0.0276116541819, 0.00153398078789
0.788, 2.48919859626, -0.2, 0.0, 0.0, 0.0, 0.0, 0.0, 0.151864098001, -0.013805827091, 0.0, -0.119650501455, -0.00153398078789, -0.0276116541819, 0.00306796157577
0.792, 2.49087814247, -0.2, 0.0, 0.0, 0.0, 0.0, 0.0, 0.151864098001, -0.0153398078789, -0.00153398078789, -0.116582539879, 0.00306796157577, -0.0260776733941, 0.0
0.796, 2.49241608563, -0.2, 0.0, 0.0, 0.0, 0.0, 0.0, 0.156466040364, -0.0107378655152, 0.0, -0.121184482243, 0.00460194236366, -0.0291456349698, 0.00153398078789
0.8, 2.49381233828, -0.2, 0.0, 0.0, 0.0, 0.0, 0.0, 0.162601963516, -0.013805827091, 0.00306796157577, -0.125786424607, -0.00153398078789, -0.0276116541819, 0.0
0.804, 2.49506682107, -0.2, 0.0, 0.0, 0.0, 0.0, 0.0, 0.162601963516, -0.013805827091, 0.0, -0.124252443819, 0.00153398078789, -0.0322135965456, 0.00153398078789
0.808, 2.49617946267, -0.2, 0.0, 0.0, 0.0, 0.0, 0.0, 0.165669925092, -0.0107378655152, -0.00153398078789, -0.125786424607, 0.00306796157577, -0.0276116541819, -0.00153398078789
0.812, 2.49715019984, -0.2, 0.0, 0.0, 0.0, 0.0, 0.0, 0.168737886667, -0.00920388472731, 0.00306796157577, -0.128854386182, 0.00153398078789, -0.0306796157577, 0.00153398078789
0.816, 2.49797897738, -0.2, 0.0, 0.0, 0.0, 0.0, 0.0, 0.171805848243, -0.0107378655152, 0.00460194236366, -0.131922347758, 0.0, -0.0337475773335, 0.00153398078789
0.82, 2.49866574818, -0.2, 0.0, 0.0, 0.0, 0.0, 0.0, 0.16720390588, -0.00920388472731, 0.00460194236366, -0.128854386182, 0.0, -0.0306796157577, 0.0
0.824, 2.49921047321, -0.2, 0.0, 0.0, 0.0, 0.0, 0.0, 0.170271867455, -0.0107378655152, 0.00153398078789, -0.133456328546, 0.00460194236366, -0.0291456349698, 0.00306796157577
0.828, 2.49961312149, -0.2, 0.0, 0.0, 0.0, 0.0, 0.0, 0.173339829031, -0.0107378655152, 0.0, -0.133456328546, 0.00460194236366, -0.0322135965456, 0.00306796157577
0.832, 2.49987367013, -0.2, 0.0, 0.0, 0.0, 0.0, 0.0, 0.174873809819, -0.0107378655152, -0.00153398078789, -0.136524290122, 0.00460194236366, -0.0306796157577, 0.0
0.836, 2.49999210432, -0.2, 0.0, 0.0, 0.0, 0.0, 0.0, 0.182543713758, -0.0107378655152, 0.00306796157577, -0.13805827091, 0.00460194236366, -0.0306796157577, -0.00153398078789
0.84, 2.49996841733, -0.2, 0.0, 0.0, 0.0, 0.0, 0.0, 0.179475752183, -0.013805827091, 0.00460194236366, -0.134990309334, 0.0, -0.0368155389093, 0.00306796157577
0.844, 2.49980261051, -0.2, 0.0, 0.0, 0.0, 0.0, 0.0, 0.182543713758, -0.0122718463031, 0.00460194236366, -0.141126232485, 0.00460194236366, -0.0352815581214, 0.00306796157577
0.848, 2.49949469328, -0.2, 0.0, 0.0, 0.0, 0.0, 0.0, 0.18867963691, -0.0107378655152, 0.0, -0.141126232485, 0.00306796157577, -0.0368155389093, -0.00153398078789
0.852, 2.49904468314, -0.2, 0.0, 0.0, 0.0, 0.0, 0.0, 0.190213617698, -0.0122718463031, 0.00153398078789, -0.141126232485, 0.00306796157577, -0.0337475773335, 0.00153398078789
0.856, 2.49845260568, -0.2, 0.0, 0.0, 0.0, 0.0, 0.0, 0.18867963691, -0.0107378655152, 0.0, -0.141126232485, 0.00306796157577, -0.0383495196971, 0.00153398078789
0.86, 2.49771849456, -0.2, 0.0, 0.0, 0.0, 0.0, 0.0, 0.191747598486, -0.0122718463031, 0.00306796157577, -0.142660213273, -0.00153398078789, -0.0368155389093, 0.0
0.864, 2.49684239152, -0.2, 0.0, 0.0, 0.0, 0.0, 0.0, 0.199417502425, -0.013805827091, 0.00460194236366, -0.147262155637, 0.0, -0.0368155389093, 0.0
0.868, 2.49582434634, -0.2, 0.0, 0.0, 0.0, 0.0, 0.0, 0.197883521637, -0.0122718463031, 0.0, -0.144194194061, 0.0, -0.0337475773335, 0.0
0.872, 2.49466441692, -0.2, 0.0, 0.0, 0.0, 0.0, 0.0, 0.204019444789, -0.0184077694546, 0.00306796157577, -0.147262155637, 0.00306796157577, -0.0368155389093, -0.00153398078789
0.876, 2.49336266918, -0.2, 0.0, 0.0, 0.0, 0.0, 0.0, 0.200951483213, -0.0153398078789, 0.00306796157577, -0.153398078789, 0.00460194236366, -0.0368155389093, -0.00306796157577
0.88, 2.49191917714, -0.2, 0.0, 0.0, 0.0, 0.0, 0.0, 0.205553425577, -0.013805827091, 0.0, -0.150330117213, 0.00460194236366, -0.0368155389093, -0.00306796157577
0.884, 2.49033402286, -0.2, 0.0, 0.0, 0.0, 0.0, 0.0, 0.205553425577, -0.013805827091, 0.0, -0.150330117213, 0.00460194236366, -0.0368155389093, -0.00306796157577
0.888, 2.48860729644, -0.2, 0.0, 0.0, 0.0, 0.0, 0.0, 0.208621387152, -0.0122718463031, -0.00153398078789, -0.153398078789, 0.00460194236366, -0.0368155389093, 0.0
0.892, 2.48673909605, -0.2, 0.0, 0.0, 0.0, 0.0, 0.0, 0.211689348728, -0.0122718463031, 0.00460194236366, -0.153398078789, 0.0, -0.0383495196971, 0.00306796157577
0.896, 2.4847295279, -0.2, 0.0, 0.0, 0.0, 0.0, 0.0, 0.21782527188, -0.013805827091, 0.00153398078789, -0.15953400194, -0.00153398078789, -0.039883500485, 0.0
0.9, 2.48257870622, -0.2, 0.0, 0.0, 0.0, 0.0, 0.0, 0.21782527188, -0.0168737886667, 0.00153398078789, -0.15953400194, 0.00153398078789, -0.0383495196971, 0.00306796157577
0.904, 2.48028675329, -0.2, 0.0, 0.0, 0.0, 0.0, 0.0, 0.219359252668, -0.0184077694546, 0.00460194236366, -0.15953400194, 0.0, -0.0383495196971, -0.00306796157577
0.908, 2.4778537994, -0.2, 0.0, 0.0, 0.0, 0.0, 0.0, 0.219359252668, -0.0184077694546, 0.00460194236366, -0.15953400194, 0.0, -0.0383495196971, -0.00306796157577
0.912, 2.47527998286, -0.2, 0.0, 0.0, 0.0, 0.0, 0.0, 0.222427214243, -0.0199417502425, 0.0, -0.16720390588, 0.00460194236366, -0.0460194236366, 0.00153398078789
0.916, 2.47256544999, -0.2, 0.0, 0.0, 0.0, 0.0, 0.0, 0.225495175819, -0.0199417502425, -0.00153398078789, -0.16720390588, 0.00460194236366, -0.0429514620608, -0.00153398078789
0.92, 2.46971035511, -0.2, 0.0, 0.0, 0.0, 0.0, 0.0, 0.230097118183, -0.0199417502425, 0.00460194236366, -0.16720390588, 0.0, -0.0429514620608, 0.00306796157577
0.924, 2.46671486052, -0.2, 0.0, 0.0, 0.0, 0.0, 0.0, 0.233165079759, -0.0184077694546, 0.00460194236366, -0.171805848243, 0.00306796157577, -0.0444854428487, 0.0
0.928, 2.46357913652, -0.2, 0.0, 0.0, 0.0, 0.0, 0.0, 0.234699060547, -0.013805827091, 0.00153398078789, -0.170271867455, 0.00460194236366, -0.0460194236366, -0.00306796157577
0.932, 2.46030336136, -0.2, 0.0, 0.0, 0.0, 0.0, 0.0, 0.234699060547, -0.0214757310304, -0.00153398078789, -0.173339829031, 0.0, -0.0490873852123, -0.00153398078789
0.936, 2.45688772128, -0.2, 0.0, 0.0, 0.0, 0.0, 0.0, 0.23930100291, -0.0168737886667, 0.00460194236366, -0.171805848243, 0.00306796157577, -0.0429514620608, -0.00153398078789
0.94, 2.45333241044, -0.2, 0.0, 0.0, 0.0, 0.0, 0.0, 0.242368964486, -0.0199417502425, 0.00460194236366, -0.173339829031, 0.00306796157577, -0.0475534044245, -0.00306796157577
0.944, 2.44963763096, -0.2, 0.0, 0.0, 0.0, 0.0, 0.0, 0.242368964486, -0.0184077694546, 0.00306796157577, -0.176407790607, -0.00153398078789, -0.0444854428487, 0.0
0.948, 2.44580359288, -0.2, 0.0, 0.0, 0.0, 0.0, 0.0, 0.245436926062, -0.0184077694546, 0.00460194236366, -0.177941771395, 0.00306796157577, -0.0444854428487, -0.00306796157577
0.952, 2.44183051417, -0.2, 0.0, 0.0, 0.0, 0.0, 0.0, 0.248504887637, -0.0168737886667, -0.00153398078789, -0.179475752183, 0.00460194236366, -0.0490873852123, 0.00306796157577
0.956, 2.43771862068, -0.2, 0.0, 0.0, 0.0, 0.0, 0.0, 0.248504887637, -0.0199417502425, 0.0, -0.182543713758, -0.00153398078789, -0.0506213660002, 0.00153398078789
0.96, 2.43346814618, -0.2, 0.0, 0.0, 0.0, 0.0, 0.0, 0.254640810789, -0.0214757310304, 0.00460194236366, -0.184077694546, 0.00460194236366, -0.0521553467881, 0.00306796157577
0.964, 2.42907933229, -0.2, 0.0, 0.0, 0.0, 0.0, 0.0, 0.259242753153, -0.0199417502425, 0.00153398078789, -0.185611675334, 0.00460194236366, -0.0475534044245, 0.0
0.968, 2.42455242851, -0.2, 0.0, 0.0, 0.0, 0.0, 0.0, 0.260776733941, -0.0184077694546, 0.00460194236366, -0.187145656122, -0.00153398078789, -0.0506213660002, -0.00153398078789
0.972, 2.4198876922, -0.2, 0.0, 0.0, 0.0, 0.0, 0.0, 0.260776733941, -0.0230097118183, 0.00153398078789, -0.182543713758, 0.00153398078789, -0.0490873852123, 0.0
0.976, 2.41508538853, -0.2, 0.0, 0.0, 0.0, 0.0, 0.0, 0.266912657092, -0.0214757310304, 0.00460194236366, -0.184077694546, 0.0, -0.053689327576, 0.00153398078789
0.98, 2.41014579052, -0.2, 0.0, 0.0, 0.0, 0.0, 0.0, 0.266912657092, -0.0214757310304, 0.00460194236366, -0.191747598486, -0.00153398078789, -0.053689327576, -0.00306796157577
0.984, 2.40506917897, -0.2, 0.0, 0.0, 0.0, 0.0, 0.0, 0.265378676304, -0.0199417502425, -0.00153398078789, -0.187145656122, 0.0, -0.053689327576, 0.00153398078789
0.988, 2.39985584247, -0.2, 0.0, 0.0, 0.0, 0.0, 0.0, 0.26844663788, -0.0199417502425, -0.00153398078789, -0.193281579274, 0.0, -0.0521553467881, 0.0
0.992, 2.39450607741, -0.2, 0.0, 0.0, 0.0, 0.0, 0.0, 0.273048580244, -0.0214757310304, 0.00306796157577, -0.191747598486, 0.0, -0.0552233083639, 0.00306796157577
0.996, 2.3890201879, -0.2, 0.0, 0.0, 0.0, 0.0, 0.0, 0.276116541819, -0.0199417502425, 0.00306796157577, -0.194815560061, 0.00460194236366, -0.053689327576, 0.00306796157577
1.0, 2.38339848581, -0.2, 0.0, 0.0, 0.0, 0.0, 0.0, 0.280718484183, -0.0214757310304, 0.00460194236366, -0.196349540849, -0.00153398078789, -0.0552233083639, -0.00306796157577
1.004, 2.37764129074, -0.2, 0.0, 0.0, 0.0, 0.0, 0.0, 0.280718484183, -0.0184077694546, 0.00460194236366, -0.194815560061, 0.00460194236366, -0.0567572891518, -0.00153398078789
1.008, 2.37174892996, -0.2, 0.0, 0.0, 0.0, 0.0, 0.0, 0.282252464971, -0.0184077694546, 0.00153398078789, -0.200951483213, 0.00460194236366, -0.053689327576, 0.0
1.012, 2.36572173845, -0.2, 0.0, 0.0, 0.0, 0.0, 0.0, 0.282252464971, -0.0199417502425, 0.00306796157577, -0.202485464001, 0.00153398078789, -0.0552233083639, -0.00153398078789
1.016, 2.35956005885, -0.2, 0.0, 0.0, 0.0, 0.0, 0.0, 0.285320426547, -0.0184077694546, 0.0, -0.202485464001, 0.0, -0.0552233083639, 0.00153398078789
1.02, 2.35326424144, -0.2, 0.0, 0.0, 0.0, 0.0, 0.0, 0.291456349698, -0.0245436926062, 0.0, -0.205553425577, 0.00460194236366, -0.0598252507275, -0.00306796157577
1.024, 2.34683464413, -0.2, 0.0, 0.0, 0.0, 0.0, 0.0, 0.296058292062, -0.0245436926062, 0.00153398078789, -0.205553425577, 0.00306796157577, -0.0567572891518, 0.00153398078789
1.028, 2.34027163244, -0.2, 0.0, 0.0, 0.0, 0.0, 0.0, 0.296058292062, -0.0260776733941, 0.00460194236366, -0.202485464001, 0.00153398078789, -0.0598252507275, -0.00153398078789
1.032, 2.33357557946, -0.2, 0.0, 0.0, 0.0, 0.0, 0.0, 0.29759227285, -0.0245436926062, 0.00460194236366, -0.207087406365, 0.00460194236366, -0.0613592315154, 0.0
1.036, 2.32674686585, -0.2, 0.0, 0.0, 0.0, 0.0, 0.0, 0.302194215213, -0.0245436926062, 0.00306796157577, -0.204019444789, 0.00613592315154, -0.0582912699397, 0.0
1.04, 2.31978587982, -0.2, 0.0, 0.0, 0.0, 0.0, 0.0, 0.300660234426, -0.0230097118183, 0.00306796157577, -0.21015536794, 0.0, -0.0598252507275, -0.00153398078789
1.044, 2.31269301709, -0.2, 0.0, 0.0, 0.0, 0.0, 0.0, 0.303728196001, -0.0230097118183, 0.00460194236366, -0.213223329516, 0.00306796157577, -0.0598252507275, -0.00306796157577
1.048, 2.30546868087, -0.2, 0.0, 0.0, 0.0, 0.0, 0.0, 0.309864119153, -0.0260776733941, 0.0, -0.211689348728, 0.0, -0.0598252507275, -0.00153398078789
1.052, 2.29811328187, -0.2, 0.0, 0.0, 0.0, 0.0, 0.0, 0.312932080729, -0.0199417502425, 0.00306796157577, -0.214757310304, 0.0, -0.0644271930912, -0.00153398078789
1.056, 2.29062723823, -0.2, 0.0, 0.0, 0.0, 0.0, 0.0, 0.309864119153, -0.0199417502425, 0.00306796157577, -0.213223329516, 0.00153398078789, -0.0598252507275, 0.00460194236366
1.06, 2.28301097552, -0.2, 0.0, 0.0, 0.0, 0.0, 0.0, 0.309864119153, -0.0199417502425, 0.00306796157577, -0.213223329516, 0.00153398078789, -0.0598252507275, 0.00460194236366
1.064, 2.27526492671, -0.2, 0.0, 0.0, 0.0, 0.0, 0.0, 0.316000042304, -0.0245436926062, 0.00460194236366, -0.220893233456, 0.00306796157577, -0.0628932123033, 0.0
1.068, 2.26738953216, -0.2, 0.0, 0.0, 0.0, 0.0, 0.0, 0.31906800388, -0.0260776733941, 0.0, -0.219359252668, 0.00153398078789, -0.0628932123033, -0.00153398078789
1.072, 2.25938523957, -0.2, 0.0, 0.0, 0.0, 0.0, 0.0, 0.325203927032, -0.0230097118183, 0.00153398078789, -0.216291291092, 0.00306796157577, -0.0628932123033, -0.00153398078789
1.076, 2.25125250397, -0.2, 0.0, 0.0, 0.0, 0.0, 0.0, 0.323669946244, -0.0245436926062, 0.00306796157577, -0.220893233456, 0.00460194236366, -0.0628932123033, -0.00153398078789
1.08, 2.2429917877, -0.2, 0.0, 0.0, 0.0, 0.0, 0.0, 0.32673790782, -0.0245436926062, 0.00153398078789, -0.222427214243, 0.0, -0.0690291354549, 0.00153398078789
1.084, 2.23460356038, -0.2, 0.0, 0.0, 0.0, 0.0, 0.0, 0.328271888608, -0.0245436926062, 0.00460194236366, -0.227029156607, 0.0, -0.0659611738791, 0.00460194236366
1.088, 2.22608829885, -0.2, 0.0, 0.0, 0.0, 0.0, 0.0, 0.334407811759, -0.0260776733941, 0.00306796157577, -0.225495175819, 0.00306796157577, -0.0644271930912, -0.00153398078789
1.092, 2.21744648721, -0.2, 0.0, 0.0, 0.0, 0.0, 0.0, 0.334407811759, -0.0260776733941, 0.00306796157577, -0.225495175819, 0.00306796157577, -0.0644271930912, -0.00153398078789
1.096, 2.20867861672, -0.2, 0.0, 0.0, 0.0, 0.0, 0.0, 0.339009754123, -0.0260776733941, 0.0, -0.225495175819, 0.00306796157577, -0.0705631162427, 0.00306796157577
1.1, 2.19978518582, -0.2, 0.0, 0.0, 0.0, 0.0, 0.0, 0.340543734911, -0.0245436926062, 0.00613592315154, -0.228563137395, 0.00613592315154, -0.067495154667, 0.00153398078789
1.104, 2.19076670011, -0.2, 0.0, 0.0, 0.0, 0.0, 0.0, 0.340543734911, -0.0260776733941, 0.00153398078789, -0.230097118183, 0.00613592315154, -0.0705631162427, 0.0
1.108, 2.18162367226, -0.2, 0.0, 0.0, 0.0, 0.0, 0.0, 0.343611696486, -0.0291456349698, 0.00306796157577, -0.231631098971, 0.00153398078789, -0.0720970970306, 0.0
1.112, 2.17235662205, -0.2, 0.0, 0.0, 0.0, 0.0, 0.0, 0.345145677274, -0.0276116541819, 0.0, -0.228563137395, 0.0, -0.0720970970306, 0.0
1.116, 2.16296607629, -0.2, 0.0, 0.0, 0.0, 0.0, 0.0, 0.346679658062, -0.0260776733941, 0.00306796157577, -0.233165079759, 0.00613592315154, -0.0705631162427, 0.00306796157577
1.12, 2.15345256882, -0.2, 0.0, 0.0, 0.0, 0.0, 0.0, 0.351281600426, -0.0276116541819, 0.00306796157577, -0.237767022122, 0.00306796157577, -0.0705631162427, -0.00153398078789
1.124, 2.14381664048, -0.2, 0.0, 0.0, 0.0, 0.0, 0.0, 0.351281600426, -0.0276116541819, 0.00306796157577, -0.237767022122, 0.00306796157577, -0.0705631162427, -0.00153398078789
1.128, 2.13405883906, -0.2, 0.0, 0.0, 0.0, 0.0, 0.0, 0.358951504365, -0.0306796157577, 0.00153398078789, -0.236233041334, 0.00460194236366, -0.0751650586064, 0.00460194236366
1.132, 2.12417971926, -0.2, 0.0, 0.0, 0.0, 0.0, 0.0, 0.358951504365, -0.0260776733941, 0.00766990393943, -0.236233041334, 0.00306796157577, -0.0736310778185, 0.0
1.136, 2.11417984271, -0.2, 0.0, 0.0, 0.0, 0.0, 0.0, 0.362019465941, -0.0260776733941, 0.00306796157577, -0.242368964486, 0.00153398078789, -0.0782330201822, 0.00153398078789
1.14, 2.10405977789, -0.2, 0.0, 0.0, 0.0, 0.0, 0.0, 0.362019465941, -0.0260776733941, 0.00153398078789, -0.240834983698, 0.00613592315154, -0.0751650586064, 0.00460194236366
1.144, 2.09382010011, -0.2, 0.0, 0.0, 0.0, 0.0, 0.0, 0.365087427517, -0.0306796157577, 0.00153398078789, -0.240834983698, 0.00460194236366, -0.0736310778185, 0.00153398078789
1.148, 2.08346139147, -0.2, 0.0, 0.0, 0.0, 0.0, 0.0, 0.36968936988, -0.0245436926062, 0.00306796157577, -0.23930100291, 0.00460194236366, -0.0736310778185, 0.0
1.152, 2.07298424086, -0.2, 0.0, 0.0, 0.0, 0.0, 0.0, 0.36968936988, -0.0260776733941, 0.00613592315154, -0.24697090685, 0.0, -0.0766990393943, -0.00153398078789
1.156, 2.0623892439, -0.2, 0.0, 0.0, 0.0, 0.0, 0.0, 0.372757331456, -0.0276116541819, 0.00766990393943, -0.243902945274, 0.00766990393943, -0.0797670009701, -0.00153398078789
1.16, 2.05167700288, -0.2, 0.0, 0.0, 0.0, 0.0, 0.0, 0.378893254608, -0.0306796157577, 0.00766990393943, -0.248504887637, 0.00153398078789, -0.0813009817579, -0.00153398078789
1.164, 2.04084812679, -0.2, 0.0, 0.0, 0.0, 0.0, 0.0, 0.375825293032, -0.0322135965456, 0.00766990393943, -0.245436926062, 0.00613592315154, -0.0813009817579, 0.00460194236366
1.168, 2.02990323124, -0.2, 0.0, 0.0, 0.0, 0.0, 0.0, 0.380427235396, -0.0260776733941, 0.00460194236366, -0.245436926062, 0.00766990393943, -0.0766990393943, -0.00153398078789
1.172, 2.01884293843, -0.2, 0.0, 0.0, 0.0, 0.0, 0.0, 0.381961216184, -0.0322135965456, 0.00153398078789, -0.253106830001, 0.00766990393943, -0.0828349625458, -0.00153398078789
1.176, 2.00766787711, -0.2, 0.0, 0.0, 0.0, 0.0, 0.0, 0.389631120123, -0.0276116541819, 0.00766990393943, -0.254640810789, 0.00613592315154, -0.0813009817579, 0.0
1.18, 1.99637868258, -0.2, 0.0, 0.0, 0.0, 0.0, 0.0, 0.391165100911, -0.0291456349698, 0.00766990393943, -0.248504887637, 0.00460194236366, -0.0782330201822, 0.00306796157577
1.184, 1.98497599662, -0.2, 0.0, 0.0, 0.0, 0.0, 0.0, 0.392699081699, -0.0291456349698, 0.00460194236366, -0.256174791577, 0.00613592315154, -0.0797670009701, 0.0
1.188, 1.97346046745, -0.2, 0.0, 0.0, 0.0, 0.0, 0.0, 0.389631120123, -0.0322135965456, 0.00306796157577, -0.253106830001, 0.00153398078789, -0.0782330201822, -0.00153398078789
1.192, 1.9618327497, -0.2, 0.0, 0.0, 0.0, 0.0, 0.0, 0.392699081699, -0.0322135965456, 0.00766990393943, -0.251572849213, 0.00153398078789, -0.0828349625458, 0.0
1.196, 1.95009350442, -0.2, 0.0, 0.0, 0.0, 0.0, 0.0, 0.394233062487, -0.0306796157577, 0.00460194236366, -0.254640810789, 0.00766990393943, -0.0843689433337, 0.00306796157577
1.2, 1.93824339894, -0.2, 0.0, 0.0, 0.0, 0.0, 0.0, 0.403436947214, -0.0337475773335, 0.00766990393943, -0.259242753153, 0.00613592315154, -0.0843689433337, 0.00460194236366
1.204, 1.92628310694, -0.2, 0.0, 0.0, 0.0, 0.0, 0.0, 0.400368985638, -0.0306796157577, 0.00613592315154, -0.257708772365, 0.00613592315154, -0.0828349625458, 0.00153398078789
1.208, 1.91421330834, -0.2, 0.0, 0.0, 0.0, 0.0, 0.0, 0.404970928002, -0.0322135965456, 0.00153398078789, -0.259242753153, 0.00306796157577, -0.0859029241216, 0.00460194236366
1.212, 1.9020346893, -0.2, 0.0, 0.0, 0.0, 0.0, 0.0, 0.409572870365, -0.0291456349698, 0.00766990393943, -0.259242753153, 0.00460194236366, -0.0859029241216, 0.0
1.216, 1.88974794214, -0.2, 0.0, 0.0, 0.0, 0.0, 0.0, 0.408038889578, -0.0337475773335, 0.00460194236366, -0.259242753153, 0.00766990393943, -0.0828349625458, 0.00460194236366
1.22, 1.87735376537, -0.2, 0.0, 0.0, 0.0, 0.0, 0.0, 0.411106851153, -0.0306796157577, 0.00460194236366, -0.265378676304, 0.00766990393943, -0.0874369049095, 0.00306796157577
1.224, 1.86485286356, -0.2, 0.0, 0.0, 0.0, 0.0, 0.0, 0.411106851153, -0.0306796157577, 0.00613592315154, -0.265378676304, 0.00613592315154, -0.0843689433337, -0.00153398078789
1.228, 1.85224594738, -0.2, 0.0, 0.0, 0.0, 0.0, 0.0, 0.412640831941, -0.0291456349698, 0.00460194236366, -0.263844695516, 0.00306796157577, -0.0859029241216, 0.00460194236366
1.232, 1.83953373352, -0.2, 0.0, 0.0, 0.0, 0.0, 0.0, 0.415708793517, -0.0306796157577, 0.00613592315154, -0.26844663788, 0.00766990393943, -0.0843689433337, 0.00306796157577
1.236, 1.82671694464, -0.2, 0.0, 0.0, 0.0, 0.0, 0.0, 0.420310735881, -0.0322135965456, 0.00153398078789, -0.262310714728, 0.00153398078789, -0.0889708856974, 0.00460194236366
1.24, 1.81379630937, -0.2, 0.0, 0.0, 0.0, 0.0, 0.0, 0.420310735881, -0.0352815581214, 0.00613592315154, -0.269980618668, 0.00766990393943, -0.0905048664853, 0.00460194236366
1.244, 1.80077256222, -0.2, 0.0, 0.0, 0.0, 0.0, 0.0, 0.42798063982, -0.0337475773335, 0.00766990393943, -0.266912657092, 0.00460194236366, -0.0859029241216, 0.00460194236366
1.248, 1.78764644358, -0.2, 0.0, 0.0, 0.0, 0.0, 0.0, 0.42798063982, -0.0337475773335, 0.00766990393943, -0.266912657092, 0.00460194236366, -0.0859029241216, 0.00460194236366
1.252, 1.77441869965, -0.2, 0.0, 0.0, 0.0, 0.0, 0.0, 0.42798063982, -0.0337475773335, 0.00766990393943, -0.266912657092, 0.00460194236366, -0.0859029241216, 0.00460194236366
1.256, 1.7610900824, -0.2, 0.0, 0.0, 0.0, 0.0, 0.0, 0.426446659032, -0.0306796157577, 0.00766990393943, -0.271514599456, 0.00613592315154, -0.0905048664853, 0.0
1.26, 1.74766134956, -0.2, 0.0, 0.0, 0.0, 0.0, 0.0, 0.432582582184, -0.0352815581214, 0.00153398078789, -0.271514599456, 0.00766990393943, -0.0874369049095, 0.00460194236366
1.264, 1.73413326453, -0.2, 0.0, 0.0, 0.0, 0.0, 0.0, 0.432582582184, -0.0306796157577, 0.00460194236366, -0.269980618668, 0.00153398078789, -0.0905048664853, 0.00153398078789
1.268, 1.72050659636, -0.2, 0.0, 0.0, 0.0, 0.0, 0.0, 0.43565054376, -0.0322135965456, 0.00766990393943, -0.273048580244, 0.00306796157577, -0.0905048664853, 0.0
1.272, 1.70678211971, -0.2, 0.0, 0.0, 0.0, 0.0, 0.0, 0.43565054376, -0.0368155389093, 0.00306796157577, -0.274582561032, 0.00153398078789, -0.0920388472731, 0.00460194236366
1.276, 1.6929606148, -0.2, 0.0, 0.0, 0.0, 0.0, 0.0, 0.443320447699, -0.0368155389093, 0.00766990393943, -0.271514599456, 0.00613592315154, -0.093572828061, 0.00460194236366
1.28, 1.67904286735, -0.2, 0.0, 0.0, 0.0, 0.0, 0.0, 0.443320447699, -0.0383495196971, 0.00613592315154, -0.271514599456, 0.00920388472731, -0.0889708856974, 0.00153398078789
1.284, 1.66502966859, -0.2, 0.0, 0.0, 0.0, 0.0, 0.0, 0.447922390063, -0.0352815581214, 0.00306796157577, -0.277650522607, 0.00460194236366, -0.0889708856974, 0.00153398078789
1.288, 1.65092181513, -0.2, 0.0, 0.0, 0.0, 0.0, 0.0, 0.446388409275, -0.0352815581214, 0.00766990393943, -0.277650522607, 0.00613592315154, -0.0905048664853, 0.00306796157577
1.292, 1.63672010899, -0.2, 0.0, 0.0, 0.0, 0.0, 0.0, 0.450990351638, -0.0383495196971, 0.00306796157577, -0.277650522607, 0.00306796157577, -0.0951068088489, -0.00153398078789
1.296, 1.62242535752, -0.2, 0.0, 0.0, 0.0, 0.0, 0.0, 0.454058313214, -0.0337475773335, 0.00306796157577, -0.276116541819, 0.00613592315154, -0.0920388472731, 0.00153398078789
1.3, 1.60803837335, -0.2, 0.0, 0.0, 0.0, 0.0, 0.0, 0.44945637085, -0.0337475773335, 0.00613592315154, -0.280718484183, 0.00306796157577, -0.093572828061, -0.00153398078789
1.304, 1.59355997437, -0.2, 0.0, 0.0, 0.0, 0.0, 0.0, 0.452524332426, -0.0383495196971, 0.00306796157577, -0.282252464971, 0.00306796157577, -0.093572828061, -0.00153398078789
1.308, 1.57899098366, -0.2, 0.0, 0.0, 0.0, 0.0, 0.0, 0.454058313214, -0.0337475773335, 0.00306796157577, -0.283786445759, 0.00306796157577, -0.093572828061, 0.00153398078789
1.312, 1.56433222943, -0.2, 0.0, 0.0, 0.0, 0.0, 0.0, 0.455592294002, -0.039883500485, 0.00306796157577, -0.280718484183, 0.00766990393943, -0.093572828061, 0.00306796157577
1.316, 1.54958454503, -0.2, 0.0, 0.0, 0.0, 0.0, 0.0, 0.460194236366, -0.0368155389093, 0.00613592315154, -0.285320426547, 0.00460194236366, -0.093572828061, 0.0
1.32, 1.53474876883, -0.2, 0.0, 0.0, 0.0, 0.0, 0.0, 0.463262197941, -0.0337475773335, 0.00920388472731, -0.282252464971, 0.00460194236366, -0.0997087512126, 0.0
1.324, 1.51982574424, -0.2, 0.0, 0.0, 0.0, 0.0, 0.0, 0.467864140305, -0.0337475773335, 0.00306796157577, -0.285320426547, 0.00460194236366, -0.0966407896368, 0.00153398078789
1.328, 1.5048163196, -0.2, 0.0, 0.0, 0.0, 0.0, 0.0, 0.464796178729, -0.039883500485, 0.00460194236366, -0.280718484183, 0.00460194236366, -0.0997087512126, 0.00153398078789
1.332, 1.48972134818, -0.2, 0.0, 0.0, 0.0, 0.0, 0.0, 0.464796178729, -0.0337475773335, 0.00460194236366, -0.283786445759, 0.00920388472731, -0.093572828061, 0.00306796157577
1.336, 1.47454168811, -0.2, 0.0, 0.0, 0.0, 0.0, 0.0, 0.472466082669, -0.0414174812729, 0.00460194236366, -0.285320426547, 0.00920388472731, -0.0951068088489, -0.00153398078789
1.34, 1.45927820233, -0.2, 0.0, 0.0, 0.0, 0.0, 0.0, 0.472466082669, -0.039883500485, 0.00306796157577, -0.282252464971, 0.00306796157577, -0.0981747704247, 0.00460194236366
1.344, 1.44393175856, -0.2, 0.0, 0.0, 0.0, 0.0, 0.0, 0.474000063457, -0.0368155389093, 0.00460194236366, -0.285320426547, 0.00766990393943, -0.101242732, -0.00153398078789
1.348, 1.42850322921, -0.2, 0.0, 0.0, 0.0, 0.0, 0.0, 0.475534044245, -0.0383495196971, 0.00613592315154, -0.288388388123, 0.00613592315154, -0.0997087512126, 0.00306796157577
1.352, 1.41299349137, -0.2, 0.0, 0.0, 0.0, 0.0, 0.0, 0.47860200582, -0.039883500485, 0.00613592315154, -0.291456349698, 0.00613592315154, -0.0966407896368, 0.0
1.356, 1.39740342677, -0.2, 0.0, 0.0, 0.0, 0.0, 0.0, 0.477068025032, -0.0414174812729, 0.00306796157577, -0.286854407335, 0.00920388472731, -0.0981747704247, -0.00153398078789
1.36, 1.38173392166, -0.2, 0.0, 0.0, 0.0, 0.0, 0.0, 0.47860200582, -0.0383495196971, 0.00613592315154, -0.285320426547, 0.00613592315154, -0.0997087512126, -0.00153398078789
1.364, 1.36598586684, -0.2, 0.0, 0.0, 0.0, 0.0, 0.0, 0.483203948184, -0.0414174812729, 0.00306796157577, -0.291456349698, 0.00306796157577, -0.0981747704247, 0.00153398078789
1.368, 1.35016015756, -0.2, 0.0, 0.0, 0.0, 0.0, 0.0, 0.483203948184, -0.0414174812729, 0.00613592315154, -0.288388388123, 0.00306796157577, -0.0981747704247, -0.00153398078789
1.372, 1.3342576935, -0.2, 0.0, 0.0, 0.0, 0.0, 0.0, 0.490873852123, -0.0429514620608, 0.00920388472731, -0.28992236891, 0.00460194236366, -0.0997087512126, 0.00460194236366
1.376, 1.31827937869, -0.2, 0.0, 0.0, 0.0, 0.0, 0.0, 0.48627190976, -0.0414174812729, 0.00920388472731, -0.291456349698, 0.00460194236366, -0.104310693576, 0.0
1.38, 1.30222612147, -0.2, 0.0, 0.0, 0.0, 0.0, 0.0, 0.487805890548, -0.0414174812729, 0.00920388472731, -0.28992236891, 0.00613592315154, -0.104310693576, 0.00153398078789
1.384, 1.28609883445, -0.2, 0.0, 0.0, 0.0, 0.0, 0.0, 0.492407832911, -0.0368155389093, 0.00306796157577, -0.296058292062, 0.00460194236366, -0.102776712788, 0.00460194236366
1.388, 1.26989843445, -0.2, 0.0, 0.0, 0.0, 0.0, 0.0, 0.493941813699, -0.039883500485, 0.00613592315154, -0.296058292062, 0.00306796157577, -0.101242732, 0.00153398078789
1.392, 1.25362584244, -0.2, 0.0, 0.0, 0.0, 0.0, 0.0, 0.493941813699, -0.0368155389093, 0.00766990393943, -0.292990330486, 0.00613592315154, -0.0997087512126, 0.0
1.396, 1.23728198348, -0.2, 0.0, 0.0, 0.0, 0.0, 0.0, 0.498543756063, -0.0383495196971, 0.00920388472731, -0.294524311274, 0.00460194236366, -0.104310693576, 0.00460194236366
1.4, 1.22086778671, -0.2, 0.0, 0.0, 0.0, 0.0, 0.0, 0.495475794487, -0.0444854428487, 0.00613592315154, -0.291456349698, 0.00613592315154, -0.102776712788, -0.00153398078789
1.404, 1.20438418525, -0.2, 0.0, 0.0, 0.0, 0.0, 0.0, 0.504679679214, -0.0429514620608, 0.00766990393943, -0.29759227285, 0.00766990393943, -0.105844674364, 0.0
1.408, 1.18783211618, -0.2, 0.0, 0.0, 0.0, 0.0, 0.0, 0.504679679214, -0.039883500485, 0.00766990393943, -0.292990330486, 0.0107378655152, -0.101242732, 0.00153398078789
1.412, 1.17121252045, -0.2, 0.0, 0.0, 0.0, 0.0, 0.0, 0.501611717639, -0.0414174812729, 0.0107378655152, -0.292990330486, 0.00766990393943, -0.102776712788, 0.00306796157577
1.416, 1.15452634287, -0.2, 0.0, 0.0, 0.0, 0.0, 0.0, 0.506213660002, -0.0414174812729, 0.00460194236366, -0.299126253638, 0.00920388472731, -0.101242732, 0.00306796157577
1.42, 1.13777453202, -0.2, 0.0, 0.0, 0.0, 0.0, 0.0, 0.510815602366, -0.0383495196971, 0.00613592315154, -0.29759227285, 0.00766990393943, -0.105844674364, 0.00153398078789
1.424, 1.12095804023, -0.2, 0.0, 0.0, 0.0, 0.0, 0.0, 0.512349583154, -0.0460194236366, 0.00460194236366, -0.29759227285, 0.00766990393943, -0.101242732, 0.0
1.428, 1.10407782347, -0.2, 0.0, 0.0, 0.0, 0.0, 0.0, 0.512349583154, -0.0444854428487, 0.00613592315154, -0.29759227285, 0.00920388472731, -0.101242732, 0.00460194236366
1.432, 1.08713484139, -0.2, 0.0, 0.0, 0.0, 0.0, 0.0, 0.510815602366, -0.0429514620608, 0.00460194236366, -0.29759227285, 0.00766990393943, -0.104310693576, 0.00153398078789
1.436, 1.07013005715, -0.2, 0.0, 0.0, 0.0, 0.0, 0.0, 0.516951525517, -0.0460194236366, 0.00460194236366, -0.296058292062, 0.00920388472731, -0.101242732, 0.00153398078789
1.44, 1.05306443746, -0.2, 0.0, 0.0, 0.0, 0.0, 0.0, 0.513883563942, -0.0414174812729, 0.00766990393943, -0.294524311274, 0.0107378655152, -0.104310693576, 0.00460194236366
1.444, 1.03593895248, -0.2, 0.0, 0.0, 0.0, 0.0, 0.0, 0.518485506305, -0.0414174812729, 0.00766990393943, -0.294524311274, 0.00920388472731, -0.104310693576, 0.00306796157577
1.448, 1.01875457577, -0.2, 0.0, 0.0, 0.0, 0.0, 0.0, 0.516951525517, -0.0460194236366, 0.0107378655152, -0.300660234426, 0.0107378655152, -0.102776712788, 0.00613592315154
1.452, 1.00151228423, -0.2, 0.0, 0.0, 0.0, 0.0, 0.0, 0.523087448669, -0.0444854428487, 0.00920388472731, -0.296058292062, 0.00920388472731, -0.102776712788, 0.0
1.456, 0.984213058068, -0.2, 0.0, 0.0, 0.0, 0.0, 0.0, 0.520019487093, -0.0460194236366, 0.00920388472731, -0.299126253638, 0.0107378655152, -0.10891263594, 0.00460194236366
1.46, 0.96685788072, -0.2, 0.0, 0.0, 0.0, 0.0, 0.0, 0.520019487093, -0.0444854428487, 0.0107378655152, -0.299126253638, 0.00613592315154, -0.10891263594, 0.0
1.464, 0.949447738804, -0.2, 0.0, 0.0, 0.0, 0.0, 0.0, 0.527689391033, -0.0429514620608, 0.00766990393943, -0.300660234426, 0.00613592315154, -0.107378655152, 0.00153398078789
1.468, 0.931983622065, -0.2, 0.0, 0.0, 0.0, 0.0, 0.0, 0.521553467881, -0.0444854428487, 0.00460194236366, -0.300660234426, 0.00920388472731, -0.10891263594, 0.00613592315154
1.472, 0.914466523313, -0.2, 0.0, 0.0, 0.0, 0.0, 0.0, 0.526155410245, -0.0475534044245, 0.00920388472731, -0.300660234426, 0.00613592315154, -0.107378655152, 0.00306796157577
1.476, 0.896897438372, -0.2, 0.0, 0.0, 0.0, 0.0, 0.0, 0.526155410245, -0.0444854428487, 0.00766990393943, -0.302194215213, 0.00460194236366, -0.107378655152, 0.00306796157577
1.48, 0.879277366021, -0.2, 0.0, 0.0, 0.0, 0.0, 0.0, 0.530757352608, -0.0444854428487, 0.00460194236366, -0.302194215213, 0.00766990393943, -0.110446616728, 0.00460194236366
1.484, 0.861607307936, -0.2, 0.0, 0.0, 0.0, 0.0, 0.0, 0.533825314184, -0.0490873852123, 0.0107378655152, -0.29759227285, 0.00766990393943, -0.104310693576, 0.0
1.488, 0.843888268638, -0.2, 0.0, 0.0, 0.0, 0.0, 0.0, 0.533825314184, -0.0460194236366, 0.00766990393943, -0.303728196001, 0.00613592315154, -0.107378655152, 0.00306796157577
1.492, 0.826121255429, -0.2, 0.0, 0.0, 0.0, 0.0, 0.0, 0.533825314184, -0.0490873852123, 0.00920388472731, -0.300660234426, 0.00920388472731, -0.104310693576, 0.00153398078789
1.496, 0.80830727834, -0.2, 0.0, 0.0, 0.0, 0.0, 0.0, 0.532291333396, -0.0490873852123, 0.00920388472731, -0.302194215213, 0.00460194236366, -0.110446616728, 0.00460194236366
1.5, 0.790447350072, -0.2, 0.0, 0.0, 0.0, 0.0, 0.0, 0.535359294972, -0.0490873852123, 0.00613592315154, -0.29759227285, 0.00766990393943, -0.104310693576, 0.00306796157577
1.504, 0.772542485937, -0.2, 0.0, 0.0, 0.0, 0.0, 0.0, 0.535359294972, -0.0429514620608, 0.00920388472731, -0.303728196001, 0.00613592315154, -0.10891263594, 0.00306796157577
1.508, 0.754593703804, -0.2, 0.0, 0.0, 0.0, 0.0, 0.0, 0.535359294972, -0.0444854428487, 0.0107378655152, -0.302194215213, 0.0107378655152, -0.10891263594, 0.00153398078789
1.512, 0.736602024036, -0.2, 0.0, 0.0, 0.0, 0.0, 0.0, 0.541495218124, -0.0429514620608, 0.00766990393943, -0.300660234426, 0.00460194236366, -0.10891263594, 0.00460194236366
1.516, 0.718568469435, -0.2, 0.0, 0.0, 0.0, 0.0, 0.0, 0.539961237336, -0.0475534044245, 0.00460194236366, -0.29759227285, 0.00460194236366, -0.10891263594, 0.00613592315154
1.52, 0.700494065186, -0.2, 0.0, 0.0, 0.0, 0.0, 0.0, 0.544563179699, -0.0460194236366, 0.0107378655152, -0.29759227285, 0.00920388472731, -0.111980597516, 0.00460194236366
1.524, 0.682379838793, -0.2, 0.0, 0.0, 0.0, 0.0, 0.0, 0.541495218124, -0.0444854428487, 0.00613592315154, -0.300660234426, 0.0107378655152, -0.105844674364, 0.00460194236366
1.528, 0.664226820027, -0.2, 0.0, 0.0, 0.0, 0.0, 0.0, 0.544563179699, -0.0444854428487, 0.00766990393943, -0.29759227285, 0.00613592315154, -0.111980597516, 0.0
1.532, 0.646036040861, -0.2, 0.0, 0.0, 0.0, 0.0, 0.0, 0.543029198912, -0.0490873852123, 0.0107378655152, -0.29759227285, 0.0122718463031, -0.10891263594, 0.00613592315154
1.536, 0.627808535416, -0.2, 0.0, 0.0, 0.0, 0.0, 0.0, 0.544563179699, -0.0460194236366, 0.0107378655152, -0.302194215213, 0.0122718463031, -0.107378655152, 0.0
1.54, 0.609545339903, -0.2, 0.0, 0.0, 0.0, 0.0, 0.0, 0.549165122063, -0.0444854428487, 0.00920388472731, -0.29759227285, 0.0122718463031, -0.105844674364, 0.00460194236366
1.544, 0.591247492559, -0.2, 0.0, 0.0, 0.0, 0.0, 0.0, 0.544563179699, -0.0444854428487, 0.00920388472731, -0.299126253638, 0.00766990393943, -0.10891263594, 0.00153398078789
1.548, 0.572916033592, -0.2, 0.0, 0.0, 0.0, 0.0, 0.0, 0.546097160487, -0.0490873852123, 0.00613592315154, -0.299126253638, 0.00613592315154, -0.10891263594, 0.00460194236366
1.552, 0.554552005121, -0.2, 0.0, 0.0, 0.0, 0.0, 0.0, 0.546097160487, -0.0475534044245, 0.0107378655152, -0.299126253638, 0.0122718463031, -0.111980597516, 0.0
1.556, 0.536156451116, -0.2, 0.0, 0.0, 0.0, 0.0, 0.0, 0.552233083639, -0.0506213660002, 0.00613592315154, -0.29759227285, 0.00766990393943, -0.10891263594, 0.00306796157577
1.56, 0.517730417339, -0.2, 0.0, 0.0, 0.0, 0.0, 0.0, 0.552233083639, -0.0506213660002, 0.00613592315154, -0.300660234426, 0.0107378655152, -0.111980597516, 0.00460194236366
1.564, 0.499274951286, -0.2, 0.0, 0.0, 0.0, 0.0, 0.0, 0.549165122063, -0.0506213660002, 0.00920388472731, -0.302194215213, 0.00920388472731, -0.105844674364, 0.00613592315154
1.568, 0.480791102125, -0.2, 0.0, 0.0, 0.0, 0.0, 0.0, 0.556835026002, -0.0475534044245, 0.00460194236366, -0.303728196001, 0.00920388472731, -0.10891263594, 0.00153398078789
1.572, 0.462279920638, -0.2, 0.0, 0.0, 0.0, 0.0, 0.0, 0.550699102851, -0.0521553467881, 0.00920388472731, -0.302194215213, 0.0107378655152, -0.105844674364, 0.0
1.576, 0.44374245916, -0.2, 0.0, 0.0, 0.0, 0.0, 0.0, 0.556835026002, -0.0521553467881, 0.00613592315154, -0.299126253638, 0.0122718463031, -0.107378655152, 0.0
1.58, 0.425179771522, -0.2, 0.0, 0.0, 0.0, 0.0, 0.0, 0.55836900679, -0.0521553467881, 0.00613592315154, -0.302194215213, 0.00613592315154, -0.10891263594, 0.00306796157577
1.584, 0.406592912987, -0.2, 0.0, 0.0, 0.0, 0.0, 0.0, 0.55836900679, -0.0475534044245, 0.00766990393943, -0.296058292062, 0.0107378655152, -0.107378655152, 0.00460194236366
1.588, 0.387982940193, -0.2, 0.0, 0.0, 0.0, 0.0, 0.0, 0.553767064427, -0.053689327576, 0.00920388472731, -0.300660234426, 0.00920388472731, -0.110446616728, 0.00613592315154
1.592, 0.369350911092, -0.2, 0.0, 0.0, 0.0, 0.0, 0.0, 0.555301045215, -0.0475534044245, 0.00920388472731, -0.299126253638, 0.00766990393943, -0.111980597516, 0.00460194236366
1.596, 0.350697884889, -0.2, 0.0, 0.0, 0.0, 0.0, 0.0, 0.559902987578, -0.0490873852123, 0.00460194236366, -0.302194215213, 0.0122718463031, -0.10891263594, 0.00153398078789
1.6, 0.332024921985, -0.2, 0.0, 0.0, 0.0, 0.0, 0.0, 0.561436968366, -0.0506213660002, 0.0107378655152, -0.302194215213, 0.0107378655152, -0.110446616728, 0.00460194236366
1.604, 0.313333083911, -0.2, 0.0, 0.0, 0.0, 0.0, 0.0, 0.561436968366, -0.0521553467881, 0.00460194236366, -0.300660234426, 0.0122718463031, -0.111980597516, 0.00306796157577
1.608, 0.294623433273, -0.2, 0.0, 0.0, 0.0, 0.0, 0.0, 0.564504929942, -0.0552233083639, 0.00613592315154, -0.300660234426, 0.00613592315154, -0.110446616728, 0.00460194236366
1.612, 0.275897033691, -0.2, 0.0, 0.0, 0.0, 0.0, 0.0, 0.561436968366, -0.0552233083639, 0.00460194236366, -0.294524311274, 0.0122718463031, -0.107378655152, 0.0
1.616, 0.257154949734, -0.2, 0.0, 0.0, 0.0, 0.0, 0.0, 0.564504929942, -0.0521553467881, 0.0107378655152, -0.300660234426, 0.00920388472731, -0.105844674364, 0.0
1.62, 0.238398246865, -0.2, 0.0, 0.0, 0.0, 0.0, 0.0, 0.562970949154, -0.0552233083639, 0.00766990393943, -0.294524311274, 0.00613592315154, -0.110446616728, 0.00613592315154
1.624, 0.219627991377, -0.2, 0.0, 0.0, 0.0, 0.0, 0.0, 0.564504929942, -0.053689327576, 0.00460194236366, -0.29759227285, 0.00766990393943, -0.105844674364, 0.00306796157577
1.628, 0.200845250333, -0.2, 0.0, 0.0, 0.0, 0.0, 0.0, 0.56603891073, -0.0552233083639, 0.00613592315154, -0.29759227285, 0.0122718463031, -0.105844674364, 0.00306796157577
1.632, 0.182051091508, -0.2, 0.0, 0.0, 0.0, 0.0, 0.0, 0.561436968366, -0.053689327576, 0.00460194236366, -0.29759227285, 0.0107378655152, -0.110446616728, 0.00460194236366
1.636, 0.163246583324, -0.2, 0.0, 0.0, 0.0, 0.0, 0.0, 0.56603891073, -0.0490873852123, 0.0107378655152, -0.294524311274, 0.00613592315154, -0.104310693576, 0.00613592315154
1.64, 0.144432794792, -0.2, 0.0, 0.0, 0.0, 0.0, 0.0, 0.562970949154, -0.0506213660002, 0.00613592315154, -0.291456349698, 0.00920388472731, -0.110446616728, 0.0
1.644, 0.125610795449, -0.2, 0.0, 0.0, 0.0, 0.0, 0.0, 0.56603891073, -0.053689327576, 0.00460194236366, -0.291456349698, 0.0107378655152, -0.105844674364, 0.00613592315154
1.648, 0.106781655303, -0.2, 0.0, 0.0, 0.0, 0.0, 0.0, 0.567572891518, -0.053689327576, 0.0107378655152, -0.294524311274, 0.0122718463031, -0.104310693576, 0.0
1.652, 0.0879464447631, -0.2, 0.0, 0.0, 0.0, 0.0, 0.0, 0.562970949154, -0.053689327576, 0.0107378655152, -0.292990330486, 0.00766990393943, -0.10891263594, 0.00613592315154
1.656, 0.0691062345865, -0.2, 0.0, 0.0, 0.0, 0.0, 0.0, 0.564504929942, -0.053689327576, 0.00766990393943, -0.296058292062, 0.00766990393943, -0.105844674364, 0.00306796157577
1.66, 0.0502620958136, -0.2, 0.0, 0.0, 0.0, 0.0, 0.0, 0.564504929942, -0.0567572891518, 0.0107378655152, -0.28992236891, 0.00766990393943, -0.107378655152, 0.0
1.664, 0.0314150997084, -0.2, 0.0, 0.0, 0.0, 0.0, 0.0, 0.56603891073, -0.0567572891518, 0.0107378655152, -0.294524311274, 0.00766990393943, -0.107378655152, 0.00306796157577
1.668, 0.012566317697, -0.2, 0.0, 0.0, 0.0, 0.0, 0.0, 0.564504929942, -0.0567572891518, 0.00920388472731, -0.291456349698, 0.00920388472731, -0.110446616728, 0.00613592315154
1.672, -0.00628317869251, -0.2, 0.0, 0.0, 0.0, 0.0, 0.0, 0.570640853093, -0.0567572891518, 0.00460194236366, -0.294524311274, 0.0107378655152, -0.104310693576, 0.00460194236366
1.676, -0.0251323178918, -0.2, 0.0, 0.0, 0.0, 0.0, 0.0, 0.569106872306, -0.0552233083639, 0.00460194236366, -0.294524311274, 0.00766990393943, -0.102776712788, 0.00460194236366
1.68, -0.0439800283528, -0.2, 0.0, 0.0, 0.0, 0.0, 0.0, 0.572174833881, -0.0521553467881, 0.00766990393943, -0.286854407335, 0.00920388472731, -0.105844674364, 0.00306796157577
1.684, -0.0628252386083, -0.2, 0.0, 0.0, 0.0, 0.0, 0.0, 0.56603891073, -0.0521553467881, 0.00766990393943, -0.286854407335, 0.0107378655152, -0.102776712788, 0.00306796157577
1.688, -0.0816668773338, -0.2, 0.0, 0.0, 0.0, 0.0, 0.0, 0.56603891073, -0.053689327576, 0.0107378655152, -0.286854407335, 0.00613592315154, -0.105844674364, 0.00306796157577
1.692, -0.100503873407, -0.2, 0.0, 0.0, 0.0, 0.0, 0.0, 0.569106872306, -0.0521553467881, 0.00766990393943, -0.288388388123, 0.0107378655152, -0.10891263594, 0.00153398078789
1.696, -0.119335155971, -0.2, 0.0, 0.0, 0.0, 0.0, 0.0, 0.569106872306, -0.0521553467881, 0.00766990393943, -0.288388388123, 0.00920388472731, -0.102776712788, 0.00460194236366
1.7, -0.138159654492, -0.2, 0.0, 0.0, 0.0, 0.0, 0.0, 0.572174833881, -0.053689327576, 0.00920388472731, -0.283786445759, 0.0122718463031, -0.105844674364, 0.00306796157577
1.704, -0.156976298823, -0.2, 0.0, 0.0, 0.0, 0.0, 0.0, 0.569106872306, -0.0582912699397, 0.0107378655152, -0.28992236891, 0.00766990393943, -0.105844674364, 0.00613592315154
1.708, -0.175784019263, -0.2, 0.0, 0.0, 0.0, 0.0, 0.0, 0.572174833881, -0.053689327576, 0.00766990393943, -0.285320426547, 0.00766990393943, -0.102776712788, 0.00613592315154
1.712, -0.194581746619, -0.2, 0.0, 0.0, 0.0, 0.0, 0.0, 0.572174833881, -0.0567572891518, 0.0107378655152, -0.282252464971, 0.0107378655152, -0.102776712788, 0.0
1.716, -0.213368412264, -0.2, 0.0, 0.0, 0.0, 0.0, 0.0, 0.572174833881, -0.0598252507275, 0.0107378655152, -0.280718484183, 0.0107378655152, -0.107378655152, 0.0
1.72, -0.232142948203, -0.2, 0.0, 0.0, 0.0, 0.0, 0.0, 0.570640853093, -0.0598252507275, 0.00613592315154, -0.282252464971, 0.00766990393943, -0.102776712788, 0.0
1.724, -0.250904287128, -0.2, 0.0, 0.0, 0.0, 0.0, 0.0, 0.572174833881, -0.0567572891518, 0.00460194236366, -0.283786445759, 0.0107378655152, -0.105844674364, 0.00460194236366
1.728, -0.269651362483, -0.2, 0.0, 0.0, 0.0, 0.0, 0.0, 0.569106872306, -0.0598252507275, 0.00460194236366, -0.280718484183, 0.0107378655152, -0.107378655152, 0.00153398078789
1.732, -0.288383108521, -0.2, 0.0, 0.0, 0.0, 0.0, 0.0, 0.56603891073, -0.0598252507275, 0.0107378655152, -0.279184503395, 0.00920388472731, -0.104310693576, 0.00460194236366
1.736, -0.307098460368, -0.2, 0.0, 0.0, 0.0, 0.0, 0.0, 0.570640853093, -0.0567572891518, 0.00460194236366, -0.280718484183, 0.0107378655152, -0.104310693576, 0.00613592315154
1.74, -0.325796354082, -0.2, 0.0, 0.0, 0.0, 0.0, 0.0, 0.56603891073, -0.0613592315154, 0.0107378655152, -0.282252464971, 0.00766990393943, -0.104310693576, 0.00613592315154
1.744, -0.344475726712, -0.2, 0.0, 0.0, 0.0, 0.0, 0.0, 0.572174833881, -0.0552233083639, 0.00766990393943, -0.282252464971, 0.0122718463031, -0.0997087512126, 0.00306796157577
1.748, -0.363135516361, -0.2, 0.0, 0.0, 0.0, 0.0, 0.0, 0.564504929942, -0.0613592315154, 0.00460194236366, -0.280718484183, 0.0122718463031, -0.0997087512126, 0.00306796157577
1.752, -0.381774662246, -0.2, 0.0, 0.0, 0.0, 0.0, 0.0, 0.567572891518, -0.0598252507275, 0.00460194236366, -0.277650522607, 0.00766990393943, -0.0997087512126, 0.0
1.756, -0.400392104755, -0.2, 0.0, 0.0, 0.0, 0.0, 0.0, 0.56603891073, -0.0613592315154, 0.00766990393943, -0.277650522607, 0.00920388472731, -0.104310693576, 0.0
1.76, -0.418986785514, -0.2, 0.0, 0.0, 0.0, 0.0, 0.0, 0.56603891073, -0.0613592315154, 0.00613592315154, -0.276116541819, 0.00766990393943, -0.0981747704247, 0.00153398078789
1.764, -0.437557647438, -0.2, 0.0, 0.0, 0.0, 0.0, 0.0, 0.56603891073, -0.0613592315154, 0.0107378655152, -0.276116541819, 0.00766990393943, -0.104310693576, 0.00306796157577
1.768, -0.4561036348, -0.2, 0.0, 0.0, 0.0, 0.0, 0.0, 0.56603891073, -0.0613592315154, 0.0107378655152, -0.276116541819, 0.00766990393943, -0.104310693576, 0.00306796157577
1.772, -0.474623693285, -0.2, 0.0, 0.0, 0.0, 0.0, 0.0, 0.569106872306, -0.0628932123033, 0.00920388472731, -0.274582561032, 0.0122718463031, -0.101242732, 0.00613592315154
1.776, -0.493116770053, -0.2, 0.0, 0.0, 0.0, 0.0, 0.0, 0.562970949154, -0.0613592315154, 0.00766990393943, -0.274582561032, 0.0107378655152, -0.101242732, 0.00613592315154
1.78, -0.511581813797, -0.2, 0.0, 0.0, 0.0, 0.0, 0.0, 0.562970949154, -0.0628932123033, 0.00306796157577, -0.269980618668, 0.0122718463031, -0.0981747704247, 0.00306796157577
1.784, -0.530017774805, -0.2, 0.0, 0.0, 0.0, 0.0, 0.0, 0.567572891518, -0.0582912699397, 0.00766990393943, -0.266912657092, 0.013805827091, -0.0981747704247, 0.00306796157577
1.788, -0.548423605017, -0.2, 0.0, 0.0, 0.0, 0.0, 0.0, 0.562970949154, -0.0613592315154, 0.00920388472731, -0.273048580244, 0.0122718463031, -0.0966407896368, 0.00153398078789
1.792, -0.566798258086, -0.2, 0.0, 0.0, 0.0, 0.0, 0.0, 0.562970949154, -0.0628932123033, 0.00460194236366, -0.269980618668, 0.00920388472731, -0.0981747704247, 0.0
1.796, -0.585140689438, -0.2, 0.0, 0.0, 0.0, 0.0, 0.0, 0.561436968366, -0.0582912699397, 0.00460194236366, -0.263844695516, 0.00920388472731, -0.0951068088489, 0.00460194236366
1.8, -0.60344985633, -0.2, 0.0, 0.0, 0.0, 0.0, 0.0, 0.559902987578, -0.0644271930912, 0.00766990393943, -0.26844663788, 0.00920388472731, -0.0966407896368, 0.00306796157577
1.804, -0.621724717912, -0.2, 0.0, 0.0, 0.0, 0.0, 0.0, 0.564504929942, -0.0628932123033, 0.00306796157577, -0.263844695516, 0.00920388472731, -0.0966407896368, 0.00460194236366
1.808, -0.639964235282, -0.2, 0.0, 0.0, 0.0, 0.0, 0.0, 0.559902987578, -0.0582912699397, 0.00920388472731, -0.266912657092, 0.0107378655152, -0.0966407896368, 0.0
1.812, -0.658167371547, -0.2, 0.0, 0.0, 0.0, 0.0, 0.0, 0.562970949154, -0.0582912699397, 0.00920388472731, -0.266912657092, 0.013805827091, -0.0997087512126, 0.00306796157577
1.816, -0.676333091885, -0.2, 0.0, 0.0, 0.0, 0.0, 0.0, 0.561436968366, -0.0628932123033, 0.00306796157577, -0.259242753153, 0.00766990393943, -0.0981747704247, 0.00153398078789
1.82, -0.694460363598, -0.2, 0.0, 0.0, 0.0, 0.0, 0.0, 0.55836900679, -0.0628932123033, 0.00460194236366, -0.262310714728, 0.013805827091, -0.0920388472731, 0.00613592315154
1.824, -0.712548156175, -0.2, 0.0, 0.0, 0.0, 0.0, 0.0, 0.556835026002, -0.0644271930912, 0.00920388472731, -0.260776733941, 0.0122718463031, -0.0981747704247, 0.00153398078789
1.828, -0.73059544135, -0.2, 0.0, 0.0, 0.0, 0.0, 0.0, 0.561436968366, -0.0644271930912, 0.00306796157577, -0.262310714728, 0.0107378655152, -0.093572828061, 0.00306796157577
1.832, -0.748601193159, -0.2, 0.0, 0.0, 0.0, 0.0, 0.0, 0.561436968366, -0.0613592315154, 0.00920388472731, -0.259242753153, 0.0107378655152, -0.0905048664853, 0.00460194236366
1.836, -0.766564388, -0.2, 0.0, 0.0, 0.0, 0.0, 0.0, 0.55836900679, -0.0628932123033, 0.00306796157577, -0.256174791577, 0.0107378655152, -0.0905048664853, 0.00306796157577
1.84, -0.784484004688, -0.2, 0.0, 0.0, 0.0, 0.0, 0.0, 0.55836900679, -0.0659611738791, 0.00613592315154, -0.257708772365, 0.00920388472731, -0.0905048664853, 0.00153398078789
1.844, -0.802359024518, -0.2, 0.0, 0.0, 0.0, 0.0, 0.0, 0.553767064427, -0.0598252507275, 0.00766990393943, -0.256174791577, 0.013805827091, -0.093572828061, 0.00460194236366
1.848, -0.820188431319, -0.2, 0.0, 0.0, 0.0, 0.0, 0.0, 0.552233083639, -0.0628932123033, 0.00920388472731, -0.253106830001, 0.00766990393943, -0.0889708856974, 0.00306796157577
1.852, -0.837971211513, -0.2, 0.0, 0.0, 0.0, 0.0, 0.0, 0.552233083639, -0.0628932123033, 0.00306796157577, -0.254640810789, 0.00920388472731, -0.0874369049095, 0.00306796157577
1.856, -0.855706354174, -0.2, 0.0, 0.0, 0.0, 0.0, 0.0, 0.553767064427, -0.0613592315154, 0.00613592315154, -0.254640810789, 0.00766990393943, -0.0889708856974, 0.00613592315154
1.86, -0.873392851082, -0.2, 0.0, 0.0, 0.0, 0.0, 0.0, 0.550699102851, -0.0598252507275, 0.00460194236366, -0.251572849213, 0.0107378655152, -0.0889708856974, 0.0
1.864, -0.891029696783, -0.2, 0.0, 0.0, 0.0, 0.0, 0.0, 0.547631141275, -0.0644271930912, 0.00153398078789, -0.251572849213, 0.0107378655152, -0.0920388472731, 0.00153398078789
1.868, -0.908615888647, -0.2, 0.0, 0.0, 0.0, 0.0, 0.0, 0.547631141275, -0.0659611738791, 0.00153398078789, -0.250038868425, 0.00766990393943, -0.0920388472731, 0.00460194236366
1.872, -0.926150426923, -0.2, 0.0, 0.0, 0.0, 0.0, 0.0, 0.552233083639, -0.0628932123033, 0.00153398078789, -0.245436926062, 0.00766990393943, -0.0920388472731, 0.00306796157577
1.876, -0.943632314796, -0.2, 0.0, 0.0, 0.0, 0.0, 0.0, 0.544563179699, -0.067495154667, 0.00153398078789, -0.243902945274, 0.013805827091, -0.0843689433337, 0.00306796157577
1.88, -0.961060558443, -0.2, 0.0, 0.0, 0.0, 0.0, 0.0, 0.546097160487, -0.0613592315154, 0.00460194236366, -0.240834983698, 0.0107378655152, -0.0859029241216, 0.00306796157577
1.884, -0.978434167093, -0.2, 0.0, 0.0, 0.0, 0.0, 0.0, 0.546097160487, -0.0613592315154, 0.00460194236366, -0.23930100291, 0.013805827091, -0.0889708856974, 0.00613592315154
1.888, -0.99575215308, -0.2, 0.0, 0.0, 0.0, 0.0, 0.0, 0.544563179699, -0.0659611738791, 0.00153398078789, -0.237767022122, 0.0107378655152, -0.0828349625458, 0.00460194236366
1.892, -1.0130135319, -0.2, 0.0, 0.0, 0.0, 0.0, 0.0, 0.544563179699, -0.0659611738791, 0.00153398078789, -0.237767022122, 0.0107378655152, -0.0828349625458, 0.00460194236366
1.896, -1.03021732226, -0.2, 0.0, 0.0, 0.0, 0.0, 0.0, 0.538427256548, -0.067495154667, 0.00460194236366, -0.23930100291, 0.00766990393943, -0.0843689433337, 0.0
1.9, -1.04736254616, -0.2, 0.0, 0.0, 0.0, 0.0, 0.0, 0.539961237336, -0.067495154667, 0.00460194236366, -0.240834983698, 0.0107378655152, -0.0843689433337, 0.0
1.904, -1.06444822891, -0.2, 0.0, 0.0, 0.0, 0.0, 0.0, 0.543029198912, -0.0613592315154, 0.00460194236366, -0.236233041334, 0.013805827091, -0.0874369049095, 0.00306796157577
1.908, -1.08147339922, -0.2, 0.0, 0.0, 0.0, 0.0, 0.0, 0.538427256548, -0.067495154667, 0.00766990393943, -0.231631098971, 0.0107378655152, -0.0859029241216, 0.00460194236366
1.912, -1.09843708921, -0.2, 0.0, 0.0, 0.0, 0.0, 0.0, 0.533825314184, -0.0659611738791, 0.00460194236366, -0.231631098971, 0.013805827091, -0.0859029241216, 0.0
1.916, -1.11533833454, -0.2, 0.0, 0.0, 0.0, 0.0, 0.0, 0.535359294972, -0.0690291354549, 0.00613592315154, -0.230097118183, 0.00766990393943, -0.0797670009701, 0.00306796157577
1.92, -1.13217617439, -0.2, 0.0, 0.0, 0.0, 0.0, 0.0, 0.53689327576, -0.0659611738791, 0.00766990393943, -0.228563137395, 0.013805827091, -0.0797670009701, 0.00306796157577
1.924, -1.14894965155, -0.2, 0.0, 0.0, 0.0, 0.0, 0.0, 0.53689327576, -0.0659611738791, 0.00766990393943, -0.228563137395, 0.013805827091, -0.0797670009701, 0.00306796157577
1.928, -1.16565781247, -0.2, 0.0, 0.0, 0.0, 0.0, 0.0, 0.532291333396, -0.067495154667, 0.00613592315154, -0.231631098971, 0.00920388472731, -0.0766990393943, 0.0
1.932, -1.18229970732, -0.2, 0.0, 0.0, 0.0, 0.0, 0.0, 0.526155410245, -0.0690291354549, 0.0, -0.228563137395, 0.00920388472731, -0.0766990393943, 0.00460194236366
1.936, -1.19887439002, -0.2, 0.0, 0.0, 0.0, 0.0, 0.0, 0.532291333396, -0.0659611738791, 0.00613592315154, -0.228563137395, 0.013805827091, -0.0782330201822, 0.00153398078789
1.94, -1.21538091833, -0.2, 0.0, 0.0, 0.0, 0.0, 0.0, 0.529223371821, -0.0690291354549, 0.00153398078789, -0.227029156607, 0.013805827091, -0.0782330201822, 0.00460194236366
1.944, -1.23181835387, -0.2, 0.0, 0.0, 0.0, 0.0, 0.0, 0.529223371821, -0.0644271930912, 0.00306796157577, -0.222427214243, 0.0122718463031, -0.0782330201822, 0.00613592315154
1.948, -1.2481857622, -0.2, 0.0, 0.0, 0.0, 0.0, 0.0, 0.521553467881, -0.0705631162427, 0.00460194236366, -0.21782527188, 0.0122718463031, -0.0797670009701, 0.00153398078789
1.952, -1.26448221285, -0.2, 0.0, 0.0, 0.0, 0.0, 0.0, 0.523087448669, -0.0705631162427, 0.00306796157577, -0.222427214243, 0.013805827091, -0.0766990393943, 0.00153398078789
1.956, -1.28070677939, -0.2, 0.0, 0.0, 0.0, 0.0, 0.0, 0.523087448669, -0.0705631162427, 0.00153398078789, -0.21782527188, 0.013805827091, -0.0736310778185, 0.0
1.96, -1.29685853948, -0.2, 0.0, 0.0, 0.0, 0.0, 0.0, 0.518485506305, -0.0690291354549, 0.00460194236366, -0.216291291092, 0.00920388472731, -0.0766990393943, 0.00613592315154
1.964, -1.3129365749, -0.2, 0.0, 0.0, 0.0, 0.0, 0.0, 0.513883563942, -0.0690291354549, 0.00306796157577, -0.21782527188, 0.00920388472731, -0.0705631162427, 0.00153398078789
1.968, -1.32893997166, -0.2, 0.0, 0.0, 0.0, 0.0, 0.0, 0.513883563942, -0.0705631162427, 0.00460194236366, -0.211689348728, 0.013805827091, -0.0751650586064, 0.00153398078789
1.972, -1.34486781996, -0.2, 0.0, 0.0, 0.0, 0.0, 0.0, 0.510815602366, -0.067495154667, 0.00153398078789, -0.213223329516, 0.0107378655152, -0.0720970970306, 0.0
1.976, -1.36071921435, -0.2, 0.0, 0.0, 0.0, 0.0, 0.0, 0.509281621578, -0.067495154667, 0.00153398078789, -0.213223329516, 0.013805827091, -0.0705631162427, 0.00153398078789
1.98, -1.37649325368, -0.2, 0.0, 0.0, 0.0, 0.0, 0.0, 0.509281621578, -0.0644271930912, -0.00153398078789, -0.21015536794, 0.00920388472731, -0.0690291354549, 0.00613592315154
1.984, -1.39218904122, -0.2, 0.0, 0.0, 0.0, 0.0, 0.0, 0.50774764079, -0.0659611738791, 0.00153398078789, -0.207087406365, 0.0107378655152, -0.0720970970306, 0.00306796157577
1.988, -1.40780568469, -0.2, 0.0, 0.0, 0.0, 0.0, 0.0, 0.510815602366, -0.0690291354549, 0.00153398078789, -0.208621387152, 0.0107378655152, -0.067495154667, 0.00613592315154
1.992, -1.42334229631, -0.2, 0.0, 0.0, 0.0, 0.0, 0.0, 0.50774764079, -0.0720970970306, -0.00153398078789, -0.204019444789, 0.013805827091, -0.0720970970306, 0.00613592315154
1.996, -1.43879799284, -0.2, 0.0, 0.0, 0.0, 0.0, 0.0, 0.500077736851, -0.067495154667, 0.00460194236366, -0.202485464001, 0.0122718463031, -0.0644271930912, 0.00153398078789
2.0, -1.45417189564, -0.2, 0.0, 0.0, 0.0, 0.0, 0.0, 0.501611717639, -0.067495154667, 0.00306796157577, -0.202485464001, 0.0122718463031, -0.0690291354549, 0.00613592315154
2.004, -1.46946313073, -0.2, 0.0, 0.0, 0.0, 0.0, 0.0, 0.503145698426, -0.0720970970306, -0.00153398078789, -0.199417502425, 0.0122718463031, -0.0690291354549, 0.00153398078789
2.008, -1.48467082882, -0.2, 0.0, 0.0, 0.0, 0.0, 0.0, 0.501611717639, -0.0659611738791, 0.00306796157577, -0.199417502425, 0.00766990393943, -0.067495154667, 0.00613592315154
2.012, -1.49979412538, -0.2, 0.0, 0.0, 0.0, 0.0, 0.0, 0.495475794487, -0.067495154667, 0.00306796157577, -0.193281579274, 0.00613592315154, -0.0628932123033, 0.0
2.016, -1.51483216066, -0.2, 0.0, 0.0, 0.0, 0.0, 0.0, 0.495475794487, -0.0720970970306, 0.00306796157577, -0.196349540849, 0.00920388472731, -0.067495154667, 0.00306796157577
2.02, -1.52978407977, -0.2, 0.0, 0.0, 0.0, 0.0, 0.0, 0.489339871336, -0.067495154667, -0.00153398078789, -0.194815560061, 0.00766990393943, -0.0613592315154, 0.00153398078789
2.024, -1.54464903273, -0.2, 0.0, 0.0, 0.0, 0.0, 0.0, 0.48627190976, -0.067495154667, -0.00306796157577, -0.187145656122, 0.00920388472731, -0.0644271930912, 0.00306796157577
2.028, -1.55942617446, -0.2, 0.0, 0.0, 0.0, 0.0, 0.0, 0.489339871336, -0.0690291354549, 0.00153398078789, -0.191747598486, 0.00766990393943, -0.0644271930912, 0.0
2.032, -1.57411466492, -0.2, 0.0, 0.0, 0.0, 0.0, 0.0, 0.487805890548, -0.0720970970306, -0.00306796157577, -0.187145656122, 0.00920388472731, -0.0598252507275, 0.00460194236366
2.036, -1.58871366909, -0.2, 0.0, 0.0, 0.0, 0.0, 0.0, 0.483203948184, -0.0720970970306, -0.00153398078789, -0.18867963691, 0.0122718463031, -0.0598252507275, 0.00153398078789
2.04, -1.60322235702, -0.2, 0.0, 0.0, 0.0, 0.0, 0.0, 0.47860200582, -0.0705631162427, -0.00306796157577, -0.187145656122, 0.0122718463031, -0.0567572891518, 0.00306796157577
2.044, -1.61763990392, -0.2, 0.0, 0.0, 0.0, 0.0, 0.0, 0.47860200582, -0.0705631162427, 0.00153398078789, -0.181009732971, 0.00920388472731, -0.0613592315154, 0.00306796157577
2.048, -1.63196549018, -0.2, 0.0, 0.0, 0.0, 0.0, 0.0, 0.477068025032, -0.0720970970306, 0.00306796157577, -0.184077694546, 0.0107378655152, -0.0582912699397, 0.00306796157577
2.052, -1.6461983014, -0.2, 0.0, 0.0, 0.0, 0.0, 0.0, 0.477068025032, -0.0720970970306, -0.00153398078789, -0.182543713758, 0.00613592315154, -0.053689327576, 0.00613592315154
2.056, -1.66033752846, -0.2, 0.0, 0.0, 0.0, 0.0, 0.0, 0.470932101881, -0.0705631162427, 0.0, -0.177941771395, 0.00766990393943, -0.053689327576, 0.0
2.06, -1.67438236757, -0.2, 0.0, 0.0, 0.0, 0.0, 0.0, 0.470932101881, -0.0720970970306, -0.00153398078789, -0.171805848243, 0.0122718463031, -0.0521553467881, 0.00306796157577
2.064, -1.6883320203, -0.2, 0.0, 0.0, 0.0, 0.0, 0.0, 0.466330159517, -0.067495154667, 0.00306796157577, -0.171805848243, 0.0107378655152, -0.0521553467881, 0.00613592315154
2.068, -1.70218569363, -0.2, 0.0, 0.0, 0.0, 0.0, 0.0, 0.464796178729, -0.0720970970306, 0.00153398078789, -0.171805848243, 0.00766990393943, -0.0521553467881, 0.00460194236366
2.072, -1.7159426, -0.2, 0.0, 0.0, 0.0, 0.0, 0.0, 0.461728217154, -0.0736310778185, -0.00306796157577, -0.173339829031, 0.00613592315154, -0.0521553467881, 0.0
2.076, -1.72960195735, -0.2, 0.0, 0.0, 0.0, 0.0, 0.0, 0.458660255578, -0.0751650586064, 0.00153398078789, -0.16720390588, 0.00613592315154, -0.0552233083639, 0.00306796157577
2.08, -1.74316298916, -0.2, 0.0, 0.0, 0.0, 0.0, 0.0, 0.458660255578, -0.0751650586064, 0.00153398078789, -0.16720390588, 0.00613592315154, -0.0552233083639, 0.00306796157577
2.084, -1.7566249245, -0.2, 0.0, 0.0, 0.0, 0.0, 0.0, 0.45712627479, -0.0751650586064, -0.00306796157577, -0.16720390588, 0.00766990393943, -0.0521553467881, 0.00613592315154
2.088, -1.76998699808, -0.2, 0.0, 0.0, 0.0, 0.0, 0.0, 0.450990351638, -0.0751650586064, 0.00153398078789, -0.164135944304, 0.0107378655152, -0.0475534044245, 0.00306796157577
2.092, -1.78324845028, -0.2, 0.0, 0.0, 0.0, 0.0, 0.0, 0.44945637085, -0.0736310778185, -0.00306796157577, -0.164135944304, 0.00766990393943, -0.0490873852123, 0.0
2.096, -1.79640852722, -0.2, 0.0, 0.0, 0.0, 0.0, 0.0, 0.450990351638, -0.0690291354549, -0.00460194236366, -0.161067982728, 0.00920388472731, -0.0506213660002, 0.00613592315154
2.1, -1.80946648075, -0.2, 0.0, 0.0, 0.0, 0.0, 0.0, 0.444854428487, -0.0751650586064, -0.00306796157577, -0.158000021152, 0.00766990393943, -0.0475534044245, 0.0
2.104, -1.82242156855, -0.2, 0.0, 0.0, 0.0, 0.0, 0.0, 0.447922390063, -0.0751650586064, -0.00460194236366, -0.156466040364, 0.00920388472731, -0.0475534044245, 0.00613592315154
2.108, -1.83527305415, -0.2, 0.0, 0.0, 0.0, 0.0, 0.0, 0.444854428487, -0.0751650586064, -0.00613592315154, -0.154932059576, 0.00766990393943, -0.0429514620608, 0.00153398078789
2.112, -1.84802020694, -0.2, 0.0, 0.0, 0.0, 0.0, 0.0, 0.441786466911, -0.0690291354549, -0.00153398078789, -0.150330117213, 0.00613592315154, -0.0444854428487, 0.00613592315154
2.116, -1.86066230227, -0.2, 0.0, 0.0, 0.0, 0.0, 0.0, 0.43565054376, -0.0720970970306, -0.00613592315154, -0.148796136425, 0.0107378655152, -0.0429514620608, 0.00306796157577
2.12, -1.87319862147, -0.2, 0.0, 0.0, 0.0, 0.0, 0.0, 0.432582582184, -0.0751650586064, 0.0, -0.150330117213, 0.00766990393943, -0.0444854428487, 0.00460194236366
2.124, -1.88562845184, -0.2, 0.0, 0.0, 0.0, 0.0, 0.0, 0.434116562972, -0.0720970970306, -0.00613592315154, -0.142660213273, 0.0107378655152, -0.0429514620608, 0.0
2.128, -1.89795108678, -0.2, 0.0, 0.0, 0.0, 0.0, 0.0, 0.432582582184, -0.0766990393943, 0.0, -0.147262155637, 0.00613592315154, -0.0368155389093, 0.00306796157577
2.132, -1.91016582576, -0.2, 0.0, 0.0, 0.0, 0.0, 0.0, 0.426446659032, -0.0720970970306, -0.00306796157577, -0.142660213273, 0.0122718463031, -0.0414174812729, 0.0
2.136, -1.92227197438, -0.2, 0.0, 0.0, 0.0, 0.0, 0.0, 0.421844716669, -0.0766990393943, 0.0, -0.139592251698, 0.0122718463031, -0.0383495196971, 0.00613592315154
2.14, -1.93426884444, -0.2, 0.0, 0.0, 0.0, 0.0, 0.0, 0.418776755093, -0.0705631162427, -0.00613592315154, -0.134990309334, 0.00613592315154, -0.0337475773335, 0.00613592315154
2.144, -1.94615575392, -0.2, 0.0, 0.0, 0.0, 0.0, 0.0, 0.418776755093, -0.0705631162427, -0.00766990393943, -0.139592251698, 0.0122718463031, -0.0368155389093, 0.00460194236366
2.148, -1.95793202707, -0.2, 0.0, 0.0, 0.0, 0.0, 0.0, 0.418776755093, -0.0705631162427, -0.00460194236366, -0.131922347758, 0.00920388472731, -0.0352815581214, 0.00460194236366
2.152, -1.96959699442, -0.2, 0.0, 0.0, 0.0, 0.0, 0.0, 0.412640831941, -0.0751650586064, -0.00460194236366, -0.131922347758, 0.0107378655152, -0.0322135965456, 0.0
2.156, -1.98114999283, -0.2, 0.0, 0.0, 0.0, 0.0, 0.0, 0.411106851153, -0.0705631162427, -0.00306796157577, -0.133456328546, 0.00613592315154, -0.0352815581214, 0.00460194236366
2.16, -1.99259036554, -0.2, 0.0, 0.0, 0.0, 0.0, 0.0, 0.409572870365, -0.0720970970306, -0.00306796157577, -0.128854386182, 0.00920388472731, -0.0337475773335, 0.00460194236366
2.164, -2.00391746218, -0.2, 0.0, 0.0, 0.0, 0.0, 0.0, 0.403436947214, -0.0720970970306, -0.00153398078789, -0.124252443819, 0.0107378655152, -0.0276116541819, 0.00153398078789
2.168, -2.0151306388, -0.2, 0.0, 0.0, 0.0, 0.0, 0.0, 0.404970928002, -0.0705631162427, -0.00153398078789, -0.124252443819, 0.00460194236366, -0.0306796157577, 0.0
2.172, -2.02622925797, -0.2, 0.0, 0.0, 0.0, 0.0, 0.0, 0.395767043274, -0.0751650586064, -0.00153398078789, -0.121184482243, 0.00766990393943, -0.0322135965456, 0.00460194236366
2.176, -2.03721268874, -0.2, 0.0, 0.0, 0.0, 0.0, 0.0, 0.39883500485, -0.0736310778185, -0.00766990393943, -0.124252443819, 0.0107378655152, -0.0306796157577, 0.00613592315154
2.18, -2.04808030671, -0.2, 0.0, 0.0, 0.0, 0.0, 0.0, 0.389631120123, -0.0720970970306, -0.00460194236366, -0.122718463031, 0.00920388472731, -0.0260776733941, 0.00153398078789
2.184, -2.05883149407, -0.2, 0.0, 0.0, 0.0, 0.0, 0.0, 0.386563158547, -0.0782330201822, -0.00306796157577, -0.115048559091, 0.00613592315154, -0.0260776733941, 0.00153398078789
2.188, -2.06946563964, -0.2, 0.0, 0.0, 0.0, 0.0, 0.0, 0.385029177759, -0.0766990393943, -0.00460194236366, -0.116582539879, 0.00460194236366, -0.0214757310304, 0.00460194236366
2.192, -2.07998213888, -0.2, 0.0, 0.0, 0.0, 0.0, 0.0, 0.383495196971, -0.0766990393943, -0.00460194236366, -0.115048559091, 0.00920388472731, -0.0214757310304, 0.00306796157577
2.196, -2.09038039394, -0.2, 0.0, 0.0, 0.0, 0.0, 0.0, 0.378893254608, -0.0782330201822, -0.00460194236366, -0.111980597516, 0.00766990393943, -0.0245436926062, 0.00306796157577
2.2, -2.10065981368, -0.2, 0.0, 0.0, 0.0, 0.0, 0.0, 0.380427235396, -0.0766990393943, -0.00766990393943, -0.105844674364, 0.0107378655152, -0.0214757310304, 0.00306796157577
2.204, -2.11081981376, -0.2, 0.0, 0.0, 0.0, 0.0, 0.0, 0.371223350668, -0.0751650586064, -0.00306796157577, -0.105844674364, 0.0107378655152, -0.0184077694546, 0.00306796157577
2.208, -2.12085981656, -0.2, 0.0, 0.0, 0.0, 0.0, 0.0, 0.368155389093, -0.0720970970306, -0.00766990393943, -0.104310693576, 0.00766990393943, -0.0199417502425, 0.00613592315154
2.212, -2.13077925135, -0.2, 0.0, 0.0, 0.0, 0.0, 0.0, 0.365087427517, -0.0782330201822, -0.00460194236366, -0.0997087512126, 0.00613592315154, -0.0153398078789, 0.00460194236366
2.216, -2.14057755421, -0.2, 0.0, 0.0, 0.0, 0.0, 0.0, 0.366621408305, -0.0736310778185, -0.00613592315154, -0.101242732, 0.00920388472731, -0.0153398078789, 0.00153398078789
2.22, -2.15025416812, -0.2, 0.0, 0.0, 0.0, 0.0, 0.0, 0.363553446729, -0.0720970970306, -0.00920388472731, -0.101242732, 0.00613592315154, -0.0184077694546, 0.0
2.224, -2.15980854298, -0.2, 0.0, 0.0, 0.0, 0.0, 0.0, 0.358951504365, -0.0751650586064, -0.00920388472731, -0.093572828061, 0.00613592315154, -0.0153398078789, 0.00613592315154
2.228, -2.16924013564, -0.2, 0.0, 0.0, 0.0, 0.0, 0.0, 0.357417523577, -0.0736310778185, -0.00613592315154, -0.0920388472731, 0.00613592315154, -0.0107378655152, 0.00613592315154
2.232, -2.17854840992, -0.2, 0.0, 0.0, 0.0, 0.0, 0.0, 0.349747619638, -0.0751650586064, -0.00766990393943, -0.093572828061, 0.0107378655152, -0.0153398078789, 0.0
2.236, -2.18773283665, -0.2, 0.0, 0.0, 0.0, 0.0, 0.0, 0.34821363885, -0.0782330201822, -0.00920388472731, -0.0905048664853, 0.00460194236366, -0.00920388472731, 0.00460194236366
2.24, -2.19679289373, -0.2, 0.0, 0.0, 0.0, 0.0, 0.0, 0.34821363885, -0.0782330201822, -0.00920388472731, -0.0874369049095, 0.00766990393943, -0.013805827091, 0.00613592315154
2.244, -2.20572806609, -0.2, 0.0, 0.0, 0.0, 0.0, 0.0, 0.342077715698, -0.0782330201822, -0.00920388472731, -0.0874369049095, 0.00306796157577, -0.00920388472731, 0.00306796157577
2.248, -2.21453784578, -0.2, 0.0, 0.0, 0.0, 0.0, 0.0, 0.339009754123, -0.0751650586064, -0.00766990393943, -0.0843689433337, 0.00306796157577, -0.0107378655152, 0.00153398078789
2.252, -2.22322173198, -0.2, 0.0, 0.0, 0.0, 0.0, 0.0, 0.334407811759, -0.0736310778185, -0.0107378655152, -0.0859029241216, 0.00306796157577, -0.00613592315154, 0.00613592315154
2.256, -2.23177923102, -0.2, 0.0, 0.0, 0.0, 0.0, 0.0, 0.335941792547, -0.0797670009701, -0.00613592315154, -0.0828349625458, 0.00766990393943, -0.00613592315154, 0.00613592315154
2.26, -2.24020985643, -0.2, 0.0, 0.0, 0.0, 0.0, 0.0, 0.331339850183, -0.0736310778185, -0.0107378655152, -0.0813009817579, 0.00920388472731, -0.00460194236366, 0.00153398078789
2.264, -2.24851312892, -0.2, 0.0, 0.0, 0.0, 0.0, 0.0, 0.325203927032, -0.0736310778185, -0.00766990393943, -0.0797670009701, 0.00460194236366, -0.00460194236366, 0.00460194236366
2.268, -2.25668857647, -0.2, 0.0, 0.0, 0.0, 0.0, 0.0, 0.322135965456, -0.0782330201822, -0.00766990393943, -0.0720970970306, 0.00766990393943, 0.0, 0.00460194236366
2.272, -2.26473573431, -0.2, 0.0, 0.0, 0.0, 0.0, 0.0, 0.31906800388, -0.0766990393943, -0.00766990393943, -0.0690291354549, 0.00460194236366, -0.00153398078789, 0.00460194236366
2.276, -2.27265414499, -0.2, 0.0, 0.0, 0.0, 0.0, 0.0, 0.314466061517, -0.0797670009701, -0.00766990393943, -0.0720970970306, 0.00920388472731, -0.00460194236366, 0.00460194236366
2.28, -2.28044335833, -0.2, 0.0, 0.0, 0.0, 0.0, 0.0, 0.309864119153, -0.0736310778185, -0.013805827091, -0.0644271930912, 0.00306796157577, -0.00306796157577, 0.0
2.284, -2.28810293155, -0.2, 0.0, 0.0, 0.0, 0.0, 0.0, 0.312932080729, -0.0766990393943, -0.0122718463031, -0.0628932123033, 0.00460194236366, 0.0, 0.00153398078789
2.288, -2.2956324292, -0.2, 0.0, 0.0, 0.0, 0.0, 0.0, 0.308330138365, -0.0797670009701, -0.00766990393943, -0.0613592315154, 0.00766990393943, 0.00460194236366, 0.00306796157577
2.292, -2.30303142324, -0.2, 0.0, 0.0, 0.0, 0.0, 0.0, 0.303728196001, -0.0736310778185, -0.013805827091, -0.0613592315154, 0.00766990393943, 0.00306796157577, 0.00306796157577
2.296, -2.31029949305, -0.2, 0.0, 0.0, 0.0, 0.0, 0.0, 0.300660234426, -0.0736310778185, -0.00920388472731, -0.0582912699397, 0.00613592315154, 0.00613592315154, 0.0
2.3, -2.31743622545, -0.2, 0.0, 0.0, 0.0, 0.0, 0.0, 0.29759227285, -0.0766990393943, -0.00920388472731, -0.0582912699397, 0.00613592315154, 0.00460194236366, 0.00460194236366
2.304, -2.32444121472, -0.2, 0.0, 0.0, 0.0, 0.0, 0.0, 0.292990330486, -0.0751650586064, -0.0153398078789, -0.0521553467881, 0.00766990393943, 0.00306796157577, 0.00460194236366
2.308, -2.33131406264, -0.2, 0.0, 0.0, 0.0, 0.0, 0.0, 0.286854407335, -0.0766990393943, -0.0107378655152, -0.0506213660002, 0.00460194236366, 0.00613592315154, 0.00306796157577
2.312, -2.3380543785, -0.2, 0.0, 0.0, 0.0, 0.0, 0.0, 0.282252464971, -0.0766990393943, -0.013805827091, -0.0506213660002, 0.00460194236366, 0.00920388472731, 0.00153398078789
2.316, -2.34466177912, -0.2, 0.0, 0.0, 0.0, 0.0, 0.0, 0.282252464971, -0.0736310778185, -0.00920388472731, -0.0475534044245, 0.00460194236366, 0.0122718463031, 0.00613592315154
2.32, -2.35113588888, -0.2, 0.0, 0.0, 0.0, 0.0, 0.0, 0.276116541819, -0.0782330201822, -0.013805827091, -0.0475534044245, 0.00766990393943, 0.0107378655152, 0.00153398078789
2.324, -2.35747633973, -0.2, 0.0, 0.0, 0.0, 0.0, 0.0, 0.274582561032, -0.0736310778185, -0.0107378655152, -0.0475534044245, 0.00766990393943, 0.013805827091, 0.00153398078789
2.328, -2.36368277123, -0.2, 0.0, 0.0, 0.0, 0.0, 0.0, 0.273048580244, -0.0797670009701, -0.0122718463031, -0.0429514620608, 0.00613592315154, 0.0107378655152, 0.00460194236366
2.332, -2.36975483055, -0.2, 0.0, 0.0, 0.0, 0.0, 0.0, 0.266912657092, -0.0751650586064, -0.0122718463031, -0.039883500485, 0.00460194236366, 0.0122718463031, 0.00613592315154
2.336, -2.37569217251, -0.2, 0.0, 0.0, 0.0, 0.0, 0.0, 0.263844695516, -0.0736310778185, -0.0153398078789, -0.0352815581214, 0.00153398078789, 0.0184077694546, 0.00306796157577
2.34, -2.38149445956, -0.2, 0.0, 0.0, 0.0, 0.0, 0.0, 0.256174791577, -0.0797670009701, -0.013805827091, -0.039883500485, 0.00766990393943, 0.0199417502425, 0.0
2.344, -2.38716136187, -0.2, 0.0, 0.0, 0.0, 0.0, 0.0, 0.254640810789, -0.0782330201822, -0.0107378655152, -0.0368155389093, 0.00460194236366, 0.0168737886667, 0.00306796157577
2.348, -2.39269255727, -0.2, 0.0, 0.0, 0.0, 0.0, 0.0, 0.248504887637, -0.0782330201822, -0.0122718463031, -0.0337475773335, 0.00460194236366, 0.0199417502425, 0.00613592315154
2.352, -2.39808773132, -0.2, 0.0, 0.0, 0.0, 0.0, 0.0, 0.245436926062, -0.0766990393943, -0.0168737886667, -0.0306796157577, 0.00613592315154, 0.0199417502425, 0.00153398078789
