mnegretev/MathWorks2020/catkin_ws/src/persistent_signal_gen/dataset/000g_1.csv
t, torque1, torque2, torque3, torque4, torque5, torque6, torque7, q1, q2, q3, q4, q5, q6, q7
0, 0, 0, 0, 0, 0, 0, 0, 0, 0, 0, 0, 0, 0, 0
0.004, 0.0, -0.2, 0.0, 0.0, 0.0, 0.0, 0.0, 0, 0, 0, 0, 0, 0, 0
0.008, 0.00376987546518, -0.2, 0.0, 0.0, 0.0, 0.0, 0.0, -0.00153398078789, 0.00306796157577, 0.00153398078789, -0.00153398078789, 0.0, -0.00306796157577, -0.00306796157577
0.012, 0.00753953661802, -0.2, 0.0, 0.0, 0.0, 0.0, 0.0, 0.00306796157577, -0.00153398078789, -0.00306796157577, -0.00306796157577, -0.00153398078789, 0.00306796157577, -0.00153398078789
0.016, 0.0113087691584, -0.2, 0.0, 0.0, 0.0, 0.0, 0.0, -0.00153398078789, 0.00306796157577, 0.00306796157577, 0.0, -0.00153398078789, 0.00153398078789, -0.00306796157577
0.02, 0.0150773588104, -0.2, 0.0, 0.0, 0.0, 0.0, 0.0, 0.0, -0.00306796157577, 0.0, -0.00153398078789, 0.00153398078789, 0.0, 0.00306796157577
0.024, 0.018845091335, -0.2, 0.0, 0.0, 0.0, 0.0, 0.0, 0.00153398078789, 0.00153398078789, 0.00153398078789, -0.00306796157577, 0.00306796157577, 0.00153398078789, -0.00153398078789
0.028, 0.0226117525415, -0.2, 0.0, 0.0, 0.0, 0.0, 0.0, 0.00153398078789, 0.00306796157577, 0.0, 0.0, -0.00306796157577, -0.00153398078789, 0.00306796157577
0.032, 0.0263771283003, -0.2, 0.0, 0.0, 0.0, 0.0, 0.0, 0.00153398078789, -0.00153398078789, -0.00153398078789, 0.00153398078789, -0.00153398078789, 0.0, 0.00153398078789
0.036, 0.030141004555, -0.2, 0.0, 0.0, 0.0, 0.0, 0.0, 0.0, 0.00306796157577, 0.0, 0.00153398078789, -0.00153398078789, 0.0, 0.00153398078789
0.04, 0.0339031673342, -0.2, 0.0, 0.0, 0.0, 0.0, 0.0, -0.00153398078789, 0.0, -0.00153398078789, 0.00153398078789, -0.00153398078789, 0.00153398078789, -0.00306796157577
0.044, 0.037663402764, -0.2, 0.0, 0.0, 0.0, 0.0, 0.0, 0.00153398078789, -0.00306796157577, 0.00153398078789, 0.00153398078789, -0.00153398078789, 0.00153398078789, -0.00153398078789
0.048, 0.0414214970801, -0.2, 0.0, 0.0, 0.0, 0.0, 0.0, -0.00153398078789, 0.00306796157577, -0.00153398078789, 0.00153398078789, 0.00306796157577, 0.00153398078789, -0.00153398078789
0.052, 0.04517723664, -0.2, 0.0, 0.0, 0.0, 0.0, 0.0, -0.00306796157577, 0.00306796157577, 0.00306796157577, 0.00153398078789, 0.00306796157577, -0.00306796157577, 0.0
0.056, 0.0489304079348, -0.2, 0.0, 0.0, 0.0, 0.0, 0.0, -0.00153398078789, -0.00306796157577, -0.00306796157577, 0.00153398078789, 0.00306796157577, 0.00153398078789, -0.00153398078789
0.06, 0.0526807976019, -0.2, 0.0, 0.0, 0.0, 0.0, 0.0, 0.00153398078789, 0.00306796157577, -0.00153398078789, 0.0, 0.00306796157577, -0.00306796157577, -0.00153398078789
0.064, 0.0564281924367, -0.2, 0.0, 0.0, 0.0, 0.0, 0.0, 0.00306796157577, -0.00153398078789, -0.00153398078789, 0.00153398078789, -0.00153398078789, -0.00153398078789, -0.00153398078789
0.068, 0.0601723794049, -0.2, 0.0, 0.0, 0.0, 0.0, 0.0, -0.00153398078789, 0.0, 0.00306796157577, 0.0, -0.00306796157577, 0.00153398078789, 0.0
0.072, 0.0639131456543, -0.2, 0.0, 0.0, 0.0, 0.0, 0.0, 0.00306796157577, 0.00306796157577, 0.00306796157577, 0.00306796157577, 0.00153398078789, -0.00153398078789, 0.00153398078789
0.076, 0.0676502785276, -0.2, 0.0, 0.0, 0.0, 0.0, 0.0, -0.00306796157577, 0.00153398078789, 0.0, 0.00153398078789, 0.00153398078789, 0.00306796157577, 0.00153398078789
0.08, 0.0713835655737, -0.2, 0.0, 0.0, 0.0, 0.0, 0.0, -0.00306796157577, 0.00306796157577, -0.00153398078789, 0.0, -0.00153398078789, 0.00306796157577, 0.0
0.084, 0.0751127945604, -0.2, 0.0, 0.0, 0.0, 0.0, 0.0, 0.0, 0.00306796157577, 0.0, 0.0, -0.00306796157577, 0.00153398078789, -0.00153398078789
0.088, 0.0788377534859, -0.2, 0.0, 0.0, 0.0, 0.0, 0.0, 0.00153398078789, 0.0, 0.00306796157577, 0.00153398078789, -0.00153398078789, 0.00153398078789, -0.00153398078789
0.092, 0.0825582305914, -0.2, 0.0, 0.0, 0.0, 0.0, 0.0, -0.00153398078789, -0.00153398078789, 0.00153398078789, 0.0, -0.00306796157577, 0.0, -0.00153398078789
0.096, 0.0862740143728, -0.2, 0.0, 0.0, 0.0, 0.0, 0.0, 0.0, 0.00306796157577, 0.00153398078789, -0.00153398078789, 0.00153398078789, 0.0, 0.0
0.1, 0.0899848935928, -0.2, 0.0, 0.0, 0.0, 0.0, 0.0, -0.00306796157577, 0.0, 0.00153398078789, 0.0, 0.00306796157577, 0.00153398078789, 0.0
0.104, 0.0936906572929, -0.2, 0.0, 0.0, 0.0, 0.0, 0.0, 0.0, -0.00306796157577, 0.00306796157577, 0.00153398078789, 0.00153398078789, -0.00153398078789, -0.00306796157577
0.108, 0.0973910948054, -0.2, 0.0, 0.0, 0.0, 0.0, 0.0, 0.0, 0.00306796157577, 0.00306796157577, -0.00153398078789, 0.0, 0.00306796157577, 0.00306796157577
0.112, 0.101085995765, -0.2, 0.0, 0.0, 0.0, 0.0, 0.0, -0.00153398078789, 0.00306796157577, -0.00153398078789, -0.00153398078789, -0.00306796157577, 0.00153398078789, 0.00153398078789
0.116, 0.104775150123, -0.2, 0.0, 0.0, 0.0, 0.0, 0.0, 0.00153398078789, -0.00306796157577, -0.00306796157577, -0.00306796157577, 0.00153398078789, -0.00153398078789, -0.00306796157577
0.12, 0.108458348154, -0.2, 0.0, 0.0, 0.0, 0.0, 0.0, -0.00306796157577, -0.00153398078789, -0.00153398078789, 0.0, 0.00306796157577, 0.00306796157577, 0.00306796157577
0.124, 0.112135380475, -0.2, 0.0, 0.0, 0.0, 0.0, 0.0, -0.00306796157577, 0.00306796157577, -0.00306796157577, 0.0, -0.00306796157577, 0.00306796157577, 0.00153398078789
0.128, 0.11580603805, -0.2, 0.0, 0.0, 0.0, 0.0, 0.0, 0.00153398078789, -0.00153398078789, 0.00306796157577, 0.00306796157577, -0.00153398078789, 0.00306796157577, 0.0
0.132, 0.119470112208, -0.2, 0.0, 0.0, 0.0, 0.0, 0.0, -0.00306796157577, 0.00153398078789, 0.00306796157577, 0.00153398078789, 0.00306796157577, 0.0, 0.00306796157577
0.136, 0.123127394651, -0.2, 0.0, 0.0, 0.0, 0.0, 0.0, -0.00153398078789, 0.00153398078789, 0.00153398078789, 0.00153398078789, 0.00306796157577, 0.0, -0.00306796157577
0.14, 0.126777677468, -0.2, 0.0, 0.0, 0.0, 0.0, 0.0, -0.00153398078789, -0.00153398078789, 0.00306796157577, 0.00153398078789, -0.00306796157577, -0.00306796157577, 0.0
0.144, 0.130420753145, -0.2, 0.0, 0.0, 0.0, 0.0, 0.0, 0.00306796157577, 0.00306796157577, -0.00306796157577, 0.00153398078789, -0.00306796157577, 0.00153398078789, 0.00153398078789
0.148, 0.134056414578, -0.2, 0.0, 0.0, 0.0, 0.0, 0.0, -0.00306796157577, -0.00153398078789, -0.00306796157577, 0.00306796157577, -0.00306796157577, -0.00153398078789, -0.00306796157577
0.152, 0.137684455084, -0.2, 0.0, 0.0, 0.0, 0.0, 0.0, 0.00153398078789, 0.00153398078789, 0.00306796157577, 0.00153398078789, 0.0, 0.0, 0.00153398078789
0.156, 0.141304668415, -0.2, 0.0, 0.0, 0.0, 0.0, 0.0, 0.00306796157577, 0.00153398078789, -0.00306796157577, -0.00153398078789, -0.00306796157577, -0.00153398078789, 0.00153398078789
0.16, 0.144916848765, -0.2, 0.0, 0.0, 0.0, 0.0, 0.0, 0.00306796157577, -0.00306796157577, -0.00153398078789, 0.00306796157577, 0.00153398078789, -0.00153398078789, 0.0
0.164, 0.148520790789, -0.2, 0.0, 0.0, 0.0, 0.0, 0.0, 0.00306796157577, 0.0, 0.0, 0.00306796157577, 0.0, -0.00153398078789, -0.00153398078789
0.168, 0.152116289605, -0.2, 0.0, 0.0, 0.0, 0.0, 0.0, 0.0, -0.00306796157577, 0.00306796157577, 0.00153398078789, 0.00306796157577, 0.00306796157577, -0.00306796157577
0.172, 0.155703140815, -0.2, 0.0, 0.0, 0.0, 0.0, 0.0, -0.00153398078789, 0.00153398078789, 0.00306796157577, 0.00153398078789, 0.00153398078789, 0.00306796157577, 0.00153398078789
0.176, 0.159281140512, -0.2, 0.0, 0.0, 0.0, 0.0, 0.0, -0.00153398078789, 0.00153398078789, -0.00306796157577, 0.00306796157577, 0.00153398078789, 0.00306796157577, -0.00306796157577
0.18, 0.162850085291, -0.2, 0.0, 0.0, 0.0, 0.0, 0.0, -0.00306796157577, 0.0, 0.00306796157577, 0.00306796157577, 0.00306796157577, -0.00153398078789, -0.00153398078789
0.184, 0.166409772261, -0.2, 0.0, 0.0, 0.0, 0.0, 0.0, 0.0, -0.00306796157577, -0.00153398078789, -0.00153398078789, 0.0, 0.0, 0.00306796157577
0.188, 0.169959999061, -0.2, 0.0, 0.0, 0.0, 0.0, 0.0, -0.00153398078789, -0.00306796157577, 0.00153398078789, 0.0, 0.00153398078789, 0.00153398078789, -0.00153398078789
0.192, 0.173500563864, -0.2, 0.0, 0.0, 0.0, 0.0, 0.0, -0.00306796157577, -0.00306796157577, -0.00306796157577, 0.0, -0.00306796157577, 0.00306796157577, 0.00153398078789
0.196, 0.177031265393, -0.2, 0.0, 0.0, 0.0, 0.0, 0.0, -0.00306796157577, 0.00153398078789, -0.00306796157577, 0.0, -0.00153398078789, -0.00306796157577, -0.00153398078789
0.2, 0.180551902934, -0.2, 0.0, 0.0, 0.0, 0.0, 0.0, -0.00306796157577, -0.00306796157577, 0.00306796157577, 0.00153398078789, 0.00153398078789, 0.00153398078789, 0.00153398078789
0.204, 0.184062276342, -0.2, 0.0, 0.0, 0.0, 0.0, 0.0, 0.00153398078789, 0.0, 0.00153398078789, 0.00306796157577, -0.00153398078789, -0.00153398078789, -0.00306796157577
0.208, 0.187562186058, -0.2, 0.0, 0.0, 0.0, 0.0, 0.0, -0.00153398078789, -0.00306796157577, -0.00153398078789, -0.00306796157577, -0.00306796157577, 0.00153398078789, -0.00153398078789
0.212, 0.191051433117, -0.2, 0.0, 0.0, 0.0, 0.0, 0.0, 0.00306796157577, 0.00306796157577, 0.0, -0.00306796157577, 0.00153398078789, 0.0, 0.00306796157577
0.216, 0.194529819159, -0.2, 0.0, 0.0, 0.0, 0.0, 0.0, -0.00306796157577, 0.00153398078789, 0.0, -0.00153398078789, 0.0, -0.00153398078789, 0.00306796157577
0.22, 0.197997146444, -0.2, 0.0, 0.0, 0.0, 0.0, 0.0, -0.00153398078789, -0.00306796157577, -0.00306796157577, -0.00153398078789, 0.00153398078789, -0.00153398078789, 0.00153398078789
0.224, 0.201453217857, -0.2, 0.0, 0.0, 0.0, 0.0, 0.0, -0.00306796157577, 0.00153398078789, 0.00153398078789, 0.00306796157577, 0.00306796157577, 0.0, 0.0
0.228, 0.204897836926, -0.2, 0.0, 0.0, 0.0, 0.0, 0.0, 0.00306796157577, 0.0, 0.0, 0.00153398078789, 0.00153398078789, 0.00153398078789, 0.00153398078789
0.232, 0.20833080783, -0.2, 0.0, 0.0, 0.0, 0.0, 0.0, -0.00306796157577, 0.0, 0.0, -0.00306796157577, 0.0, -0.00306796157577, -0.00153398078789
0.236, 0.211751935408, -0.2, 0.0, 0.0, 0.0, 0.0, 0.0, 0.00306796157577, -0.00306796157577, 0.0, 0.00306796157577, 0.0, 0.0, 0.00153398078789
0.24, 0.215161025174, -0.2, 0.0, 0.0, 0.0, 0.0, 0.0, 0.0, 0.0, -0.00306796157577, 0.00306796157577, 0.00153398078789, -0.00153398078789, 0.00153398078789
0.244, 0.218557883325, -0.2, 0.0, 0.0, 0.0, 0.0, 0.0, 0.0, -0.00153398078789, 0.00153398078789, -0.00306796157577, 0.0, -0.00153398078789, -0.00153398078789
0.248, 0.221942316756, -0.2, 0.0, 0.0, 0.0, 0.0, 0.0, -0.00153398078789, -0.00153398078789, -0.00153398078789, 0.00153398078789, 0.0, 0.00153398078789, 0.00153398078789
0.252, 0.225314133065, -0.2, 0.0, 0.0, 0.0, 0.0, 0.0, 0.00306796157577, 0.00306796157577, 0.00306796157577, -0.00306796157577, 0.00153398078789, 0.00306796157577, -0.00153398078789
0.256, 0.228673140569, -0.2, 0.0, 0.0, 0.0, 0.0, 0.0, 0.00153398078789, 0.00306796157577, -0.00306796157577, 0.00306796157577, 0.00153398078789, 0.00306796157577, 0.0
0.26, 0.232019148314, -0.2, 0.0, 0.0, 0.0, 0.0, 0.0, 0.0, 0.00153398078789, 0.00153398078789, -0.00153398078789, 0.0, 0.00306796157577, 0.00153398078789
0.264, 0.235351966083, -0.2, 0.0, 0.0, 0.0, 0.0, 0.0, 0.00153398078789, -0.00306796157577, 0.00306796157577, -0.00153398078789, 0.00306796157577, -0.00153398078789, -0.00153398078789
0.268, 0.238671404409, -0.2, 0.0, 0.0, 0.0, 0.0, 0.0, -0.00306796157577, 0.00306796157577, 0.00153398078789, -0.00306796157577, 0.00153398078789, -0.00306796157577, -0.00153398078789
0.272, 0.241977274588, -0.2, 0.0, 0.0, 0.0, 0.0, 0.0, 0.00306796157577, -0.00306796157577, -0.00306796157577, 0.0, 0.00153398078789, -0.00306796157577, -0.00153398078789
0.276, 0.245269388686, -0.2, 0.0, 0.0, 0.0, 0.0, 0.0, 0.0, 0.0, -0.00306796157577, 0.00153398078789, 0.00153398078789, 0.00153398078789, -0.00306796157577
0.28, 0.248547559549, -0.2, 0.0, 0.0, 0.0, 0.0, 0.0, 0.0, 0.00153398078789, 0.00153398078789, 0.0, -0.00306796157577, 0.00153398078789, 0.00153398078789
0.284, 0.251811600818, -0.2, 0.0, 0.0, 0.0, 0.0, 0.0, -0.00306796157577, 0.00153398078789, 0.0, -0.00306796157577, 0.0, -0.00153398078789, 0.00306796157577
0.288, 0.255061326937, -0.2, 0.0, 0.0, 0.0, 0.0, 0.0, -0.00306796157577, 0.00306796157577, 0.00153398078789, -0.00153398078789, -0.00306796157577, -0.00153398078789, -0.00306796157577
0.292, 0.258296553164, -0.2, 0.0, 0.0, 0.0, 0.0, 0.0, -0.00306796157577, 0.00306796157577, -0.00153398078789, -0.00306796157577, 0.00306796157577, -0.00306796157577, 0.00153398078789
0.296, 0.261517095579, -0.2, 0.0, 0.0, 0.0, 0.0, 0.0, 0.0, 0.0, -0.00153398078789, 0.00153398078789, 0.00306796157577, -0.00306796157577, 0.0
0.3, 0.264722771101, -0.2, 0.0, 0.0, 0.0, 0.0, 0.0, -0.00153398078789, 0.0, -0.00306796157577, 0.0, -0.00153398078789, -0.00306796157577, 0.00153398078789
0.304, 0.267913397489, -0.2, 0.0, 0.0, 0.0, 0.0, 0.0, 0.0, 0.00153398078789, 0.0, 0.0, 0.00153398078789, 0.00153398078789, 0.00306796157577
0.308, 0.271088793363, -0.2, 0.0, 0.0, 0.0, 0.0, 0.0, 0.0, 0.00306796157577, 0.00153398078789, 0.00306796157577, -0.00153398078789, -0.00153398078789, 0.00153398078789
0.312, 0.274248778203, -0.2, 0.0, 0.0, 0.0, 0.0, 0.0, 0.00153398078789, -0.00306796157577, -0.00153398078789, 0.00153398078789, 0.00306796157577, -0.00306796157577, -0.00153398078789
0.316, 0.277393172371, -0.2, 0.0, 0.0, 0.0, 0.0, 0.0, -0.00306796157577, 0.00153398078789, 0.0, -0.00153398078789, -0.00153398078789, -0.00306796157577, 0.0
0.32, 0.28052179711, -0.2, 0.0, 0.0, 0.0, 0.0, 0.0, -0.00306796157577, -0.00153398078789, 0.00153398078789, -0.00153398078789, 0.00153398078789, -0.00306796157577, 0.0
0.324, 0.283634474563, -0.2, 0.0, 0.0, 0.0, 0.0, 0.0, 0.0, 0.00306796157577, -0.00306796157577, 0.00153398078789, 0.00153398078789, 0.0, 0.0
0.328, 0.286731027779, -0.2, 0.0, 0.0, 0.0, 0.0, 0.0, -0.00153398078789, 0.00306796157577, 0.00306796157577, 0.00306796157577, 0.00306796157577, 0.0, 0.00153398078789
0.332, 0.289811280723, -0.2, 0.0, 0.0, 0.0, 0.0, 0.0, 0.00306796157577, -0.00153398078789, 0.00306796157577, 0.00153398078789, 0.00306796157577, -0.00306796157577, -0.00153398078789
0.336, 0.292875058285, -0.2, 0.0, 0.0, 0.0, 0.0, 0.0, -0.00306796157577, 0.0, 0.0, 0.0, 0.00306796157577, -0.00306796157577, -0.00306796157577
0.34, 0.295922186296, -0.2, 0.0, 0.0, 0.0, 0.0, 0.0, -0.00306796157577, -0.00306796157577, 0.00153398078789, 0.00306796157577, 0.00306796157577, -0.00306796157577, 0.00153398078789
0.344, 0.298952491529, -0.2, 0.0, 0.0, 0.0, 0.0, 0.0, 0.00153398078789, 0.00153398078789, 0.00306796157577, -0.00153398078789, 0.00306796157577, 0.00153398078789, 0.00153398078789
0.348, 0.301965801716, -0.2, 0.0, 0.0, 0.0, 0.0, 0.0, -0.00153398078789, -0.00153398078789, -0.00153398078789, -0.00306796157577, -0.00306796157577, -0.00153398078789, 0.00306796157577
0.352, 0.304961945554, -0.2, 0.0, 0.0, 0.0, 0.0, 0.0, 0.0, -0.00153398078789, 0.00306796157577, 0.00153398078789, 0.00306796157577, 0.00306796157577, 0.0
0.356, 0.307940752716, -0.2, 0.0, 0.0, 0.0, 0.0, 0.0, 0.00153398078789, 0.0, -0.00153398078789, 0.00306796157577, -0.00306796157577, 0.00306796157577, 0.00306796157577
0.36, 0.310902053862, -0.2, 0.0, 0.0, 0.0, 0.0, 0.0, 0.0, -0.00153398078789, 0.0, 0.00306796157577, -0.00153398078789, -0.00153398078789, 0.00153398078789
0.364, 0.313845680645, -0.2, 0.0, 0.0, 0.0, 0.0, 0.0, 0.00460194236366, 0.00153398078789, -0.00306796157577, 0.00153398078789, 0.00153398078789, 0.0, -0.00153398078789
0.368, 0.316771465725, -0.2, 0.0, 0.0, 0.0, 0.0, 0.0, 0.00460194236366, 0.00153398078789, 0.00153398078789, 0.0, 0.00306796157577, 0.0, 0.0
0.372, 0.319679242773, -0.2, 0.0, 0.0, 0.0, 0.0, 0.0, -0.00153398078789, 0.00153398078789, -0.00153398078789, 0.00153398078789, 0.00306796157577, -0.00153398078789, -0.00306796157577
0.376, 0.322568846488, -0.2, 0.0, 0.0, 0.0, 0.0, 0.0, 0.00306796157577, -0.00306796157577, 0.00306796157577, 0.0, 0.00306796157577, 0.00153398078789, 0.00153398078789
0.38, 0.325440112598, -0.2, 0.0, 0.0, 0.0, 0.0, 0.0, 0.00153398078789, 0.0, 0.00153398078789, -0.00306796157577, 0.00306796157577, 0.0, -0.00306796157577
0.384, 0.328292877876, -0.2, 0.0, 0.0, 0.0, 0.0, 0.0, 0.00460194236366, -0.00153398078789, 0.00153398078789, -0.00306796157577, -0.00153398078789, -0.00306796157577, 0.0
0.388, 0.331126980148, -0.2, 0.0, 0.0, 0.0, 0.0, 0.0, -0.00153398078789, 0.00306796157577, 0.00306796157577, -0.00153398078789, -0.00153398078789, 0.00153398078789, 0.0
0.392, 0.333942258296, -0.2, 0.0, 0.0, 0.0, 0.0, 0.0, 0.00306796157577, -0.00153398078789, 0.00306796157577, 0.00153398078789, -0.00153398078789, -0.00306796157577, -0.00153398078789
0.396, 0.336738552277, -0.2, 0.0, 0.0, 0.0, 0.0, 0.0, -0.00153398078789, 0.00153398078789, 0.00153398078789, 0.00153398078789, 0.00153398078789, 0.0, -0.00153398078789
0.4, 0.339515703126, -0.2, 0.0, 0.0, 0.0, 0.0, 0.0, 0.00153398078789, 0.00153398078789, -0.00306796157577, 0.0, -0.00153398078789, 0.00306796157577, 0.0
0.404, 0.342273552964, -0.2, 0.0, 0.0, 0.0, 0.0, 0.0, 0.00306796157577, -0.00306796157577, 0.0, -0.00153398078789, 0.00153398078789, 0.00153398078789, -0.00306796157577
0.408, 0.345011945013, -0.2, 0.0, 0.0, 0.0, 0.0, 0.0, -0.00153398078789, 0.0, -0.00306796157577, 0.0, -0.00306796157577, -0.00306796157577, -0.00306796157577
0.412, 0.347730723597, -0.2, 0.0, 0.0, 0.0, 0.0, 0.0, 0.00460194236366, -0.00306796157577, -0.00306796157577, 0.00153398078789, 0.0, 0.0, -0.00306796157577
0.416, 0.350429734158, -0.2, 0.0, 0.0, 0.0, 0.0, 0.0, 0.00153398078789, -0.00153398078789, 0.0, -0.00460194236366, 0.0, 0.00306796157577, 0.00153398078789
0.42, 0.353108823262, -0.2, 0.0, 0.0, 0.0, 0.0, 0.0, 0.00306796157577, 0.00153398078789, -0.00306796157577, -0.00153398078789, 0.0, -0.00306796157577, -0.00306796157577
0.424, 0.355767838605, -0.2, 0.0, 0.0, 0.0, 0.0, 0.0, 0.00613592315154, -0.00306796157577, 0.00153398078789, 0.0, 0.0, -0.00153398078789, -0.00153398078789
0.428, 0.358406629025, -0.2, 0.0, 0.0, 0.0, 0.0, 0.0, 0.0, -0.00460194236366, 0.0, -0.00306796157577, 0.0, -0.00153398078789, 0.0
0.432, 0.361025044512, -0.2, 0.0, 0.0, 0.0, 0.0, 0.0, 0.00460194236366, 0.0, -0.00306796157577, -0.00306796157577, 0.0, 0.00306796157577, 0.00153398078789
0.436, 0.363622936212, -0.2, 0.0, 0.0, 0.0, 0.0, 0.0, 0.00153398078789, -0.00460194236366, -0.00153398078789, -0.00153398078789, 0.0, -0.00306796157577, -0.00153398078789
0.44, 0.366200156438, -0.2, 0.0, 0.0, 0.0, 0.0, 0.0, 0.0, -0.00306796157577, 0.00153398078789, -0.00613592315154, -0.00306796157577, 0.00153398078789, -0.00153398078789
0.444, 0.368756558679, -0.2, 0.0, 0.0, 0.0, 0.0, 0.0, 0.00460194236366, -0.00153398078789, 0.00153398078789, -0.00153398078789, -0.00153398078789, -0.00306796157577, -0.00306796157577
0.448, 0.371291997607, -0.2, 0.0, 0.0, 0.0, 0.0, 0.0, 0.00613592315154, -0.00153398078789, 0.0, -0.00460194236366, 0.0, 0.00153398078789, 0.00153398078789
0.452, 0.373806329085, -0.2, 0.0, 0.0, 0.0, 0.0, 0.0, 0.00153398078789, -0.00306796157577, -0.00153398078789, -0.00306796157577, 0.00153398078789, -0.00153398078789, 0.00306796157577
0.456, 0.376299410177, -0.2, 0.0, 0.0, 0.0, 0.0, 0.0, 0.0, 0.0, -0.00306796157577, -0.00613592315154, 0.00153398078789, 0.0, -0.00306796157577
0.46, 0.378771099154, -0.2, 0.0, 0.0, 0.0, 0.0, 0.0, 0.00153398078789, -0.00306796157577, 0.00153398078789, -0.00306796157577, -0.00306796157577, -0.00306796157577, 0.0
0.464, 0.381221255506, -0.2, 0.0, 0.0, 0.0, 0.0, 0.0, 0.00766990393943, -0.00153398078789, -0.00306796157577, -0.00153398078789, 0.0, 0.00153398078789, 0.00306796157577
0.468, 0.383649739943, -0.2, 0.0, 0.0, 0.0, 0.0, 0.0, 0.00766990393943, -0.00153398078789, -0.00306796157577, -0.00306796157577, 0.00153398078789, -0.00306796157577, 0.0
0.472, 0.386056414409, -0.2, 0.0, 0.0, 0.0, 0.0, 0.0, 0.00613592315154, -0.00460194236366, 0.00153398078789, -0.00153398078789, -0.00153398078789, 0.0, 0.00153398078789
0.476, 0.388441142088, -0.2, 0.0, 0.0, 0.0, 0.0, 0.0, 0.00306796157577, -0.00306796157577, -0.00153398078789, -0.00766990393943, -0.00306796157577, 0.00153398078789, -0.00306796157577
0.48, 0.390803787413, -0.2, 0.0, 0.0, 0.0, 0.0, 0.0, 0.00613592315154, 0.0, 0.0, -0.00460194236366, -0.00306796157577, -0.00153398078789, -0.00153398078789
0.484, 0.393144216068, -0.2, 0.0, 0.0, 0.0, 0.0, 0.0, 0.00460194236366, 0.0, 0.00306796157577, -0.00460194236366, 0.00153398078789, 0.00153398078789, 0.0
0.488, 0.395462295005, -0.2, 0.0, 0.0, 0.0, 0.0, 0.0, 0.00153398078789, -0.00306796157577, -0.00306796157577, -0.00153398078789, 0.0, -0.00306796157577, -0.00306796157577
0.492, 0.397757892444, -0.2, 0.0, 0.0, 0.0, 0.0, 0.0, 0.00920388472731, 0.0, 0.00153398078789, -0.00153398078789, 0.00153398078789, 0.00153398078789, -0.00153398078789
0.496, 0.400030877882, -0.2, 0.0, 0.0, 0.0, 0.0, 0.0, 0.00920388472731, -0.00153398078789, -0.00153398078789, -0.00153398078789, 0.0, 0.00306796157577, 0.0
0.5, 0.402281122105, -0.2, 0.0, 0.0, 0.0, 0.0, 0.0, 0.00766990393943, -0.00460194236366, -0.00153398078789, -0.00153398078789, 0.00306796157577, -0.00306796157577, -0.00153398078789
0.504, 0.404508497187, -0.2, 0.0, 0.0, 0.0, 0.0, 0.0, 0.00613592315154, -0.00306796157577, 0.0, -0.00306796157577, 0.00153398078789, 0.00153398078789, 0.00153398078789
0.508, 0.406712876507, -0.2, 0.0, 0.0, 0.0, 0.0, 0.0, 0.00460194236366, -0.00460194236366, -0.00153398078789, -0.00460194236366, 0.00306796157577, 0.0, 0.00153398078789
0.512, 0.408894134749, -0.2, 0.0, 0.0, 0.0, 0.0, 0.0, 0.00306796157577, 0.0, 0.0, -0.00920388472731, 0.00306796157577, -0.00306796157577, 0.00306796157577
0.516, 0.41105214791, -0.2, 0.0, 0.0, 0.0, 0.0, 0.0, 0.00613592315154, -0.00306796157577, 0.00306796157577, -0.00920388472731, -0.00306796157577, 0.0, 0.0
0.52, 0.41318679331, -0.2, 0.0, 0.0, 0.0, 0.0, 0.0, 0.0107378655152, 0.0, -0.00153398078789, -0.00920388472731, 0.0, 0.00153398078789, 0.00306796157577
0.524, 0.415297949598, -0.2, 0.0, 0.0, 0.0, 0.0, 0.0, 0.0107378655152, 0.0, 0.00153398078789, -0.00613592315154, 0.00153398078789, 0.00306796157577, -0.00153398078789
0.528, 0.417385496757, -0.2, 0.0, 0.0, 0.0, 0.0, 0.0, 0.0107378655152, -0.00613592315154, 0.00153398078789, -0.00306796157577, 0.0, 0.00153398078789, 0.00306796157577
0.532, 0.419449316114, -0.2, 0.0, 0.0, 0.0, 0.0, 0.0, 0.00766990393943, -0.00613592315154, 0.00153398078789, -0.00613592315154, 0.00153398078789, -0.00153398078789, -0.00306796157577
0.536, 0.421489290342, -0.2, 0.0, 0.0, 0.0, 0.0, 0.0, 0.00460194236366, 0.0, -0.00306796157577, -0.00460194236366, 0.0, -0.00153398078789, -0.00306796157577
0.54, 0.423505303473, -0.2, 0.0, 0.0, 0.0, 0.0, 0.0, 0.00920388472731, -0.00613592315154, 0.00306796157577, -0.00766990393943, -0.00306796157577, -0.00306796157577, -0.00306796157577
0.544, 0.425497240897, -0.2, 0.0, 0.0, 0.0, 0.0, 0.0, 0.00613592315154, -0.00306796157577, -0.00153398078789, -0.0107378655152, 0.0, -0.00306796157577, 0.00153398078789
0.548, 0.427464989377, -0.2, 0.0, 0.0, 0.0, 0.0, 0.0, 0.00766990393943, -0.00613592315154, -0.00153398078789, -0.00613592315154, 0.0, 0.00153398078789, -0.00306796157577
0.552, 0.429408437049, -0.2, 0.0, 0.0, 0.0, 0.0, 0.0, 0.00766990393943, -0.00153398078789, -0.00306796157577, -0.00766990393943, 0.0, -0.00460194236366, 0.00306796157577
0.556, 0.43132747343, -0.2, 0.0, 0.0, 0.0, 0.0, 0.0, 0.00613592315154, 0.0, -0.00306796157577, -0.00460194236366, -0.00306796157577, -0.00306796157577, -0.00306796157577
0.56, 0.433221989425, -0.2, 0.0, 0.0, 0.0, 0.0, 0.0, 0.00613592315154, -0.00306796157577, 0.0, -0.00920388472731, 0.0, -0.00153398078789, 0.00306796157577
0.564, 0.435091877335, -0.2, 0.0, 0.0, 0.0, 0.0, 0.0, 0.00613592315154, -0.00306796157577, 0.00306796157577, -0.0107378655152, 0.0, 0.00153398078789, 0.00153398078789
0.568, 0.436937030857, -0.2, 0.0, 0.0, 0.0, 0.0, 0.0, 0.0107378655152, -0.00460194236366, 0.0, -0.0107378655152, 0.00153398078789, 0.0, -0.00153398078789
0.572, 0.438757345099, -0.2, 0.0, 0.0, 0.0, 0.0, 0.0, 0.0107378655152, -0.00153398078789, 0.00306796157577, -0.0122718463031, -0.00306796157577, 0.00153398078789, -0.00306796157577
0.576, 0.440552716576, -0.2, 0.0, 0.0, 0.0, 0.0, 0.0, 0.00766990393943, -0.00306796157577, 0.00306796157577, -0.00920388472731, 0.00153398078789, -0.00306796157577, 0.00306796157577
0.58, 0.442323043226, -0.2, 0.0, 0.0, 0.0, 0.0, 0.0, 0.0107378655152, -0.00613592315154, 0.0, -0.00766990393943, -0.00306796157577, -0.00460194236366, 0.00306796157577
0.584, 0.444068224407, -0.2, 0.0, 0.0, 0.0, 0.0, 0.0, 0.013805827091, -0.00306796157577, -0.00306796157577, -0.00920388472731, 0.0, 0.00153398078789, -0.00306796157577
0.588, 0.445788160908, -0.2, 0.0, 0.0, 0.0, 0.0, 0.0, 0.0122718463031, -0.00460194236366, -0.00153398078789, -0.00613592315154, 0.0, -0.00460194236366, -0.00153398078789
0.592, 0.447482754952, -0.2, 0.0, 0.0, 0.0, 0.0, 0.0, 0.013805827091, -0.00306796157577, -0.00306796157577, -0.00766990393943, -0.00153398078789, 0.00153398078789, 0.00306796157577
0.596, 0.449151910206, -0.2, 0.0, 0.0, 0.0, 0.0, 0.0, 0.0122718463031, -0.00766990393943, 0.0, -0.00766990393943, 0.00306796157577, 0.00153398078789, 0.0
0.6, 0.450795531779, -0.2, 0.0, 0.0, 0.0, 0.0, 0.0, 0.013805827091, -0.00460194236366, -0.00153398078789, -0.00766990393943, 0.00306796157577, 0.0, 0.00306796157577
0.604, 0.452413526233, -0.2, 0.0, 0.0, 0.0, 0.0, 0.0, 0.00920388472731, -0.00460194236366, 0.00306796157577, -0.00920388472731, 0.00153398078789, -0.00153398078789, 0.0
0.608, 0.454005801588, -0.2, 0.0, 0.0, 0.0, 0.0, 0.0, 0.00920388472731, -0.00306796157577, 0.00306796157577, -0.00920388472731, 0.00153398078789, 0.0, 0.00153398078789
0.612, 0.455572267326, -0.2, 0.0, 0.0, 0.0, 0.0, 0.0, 0.013805827091, -0.00153398078789, 0.00306796157577, -0.013805827091, 0.00153398078789, 0.00153398078789, 0.0
0.616, 0.457112834394, -0.2, 0.0, 0.0, 0.0, 0.0, 0.0, 0.0107378655152, -0.00766990393943, 0.00153398078789, -0.0122718463031, -0.00153398078789, -0.00460194236366, 0.00153398078789
0.62, 0.458627415214, -0.2, 0.0, 0.0, 0.0, 0.0, 0.0, 0.0107378655152, -0.00766990393943, 0.00306796157577, -0.0153398078789, 0.00153398078789, -0.00306796157577, -0.00306796157577
0.624, 0.460115923683, -0.2, 0.0, 0.0, 0.0, 0.0, 0.0, 0.0122718463031, -0.00460194236366, 0.00153398078789, -0.0153398078789, -0.00306796157577, -0.00460194236366, 0.00306796157577
0.628, 0.461578275182, -0.2, 0.0, 0.0, 0.0, 0.0, 0.0, 0.0153398078789, -0.00766990393943, 0.00153398078789, -0.00920388472731, 0.00306796157577, -0.00306796157577, -0.00153398078789
0.632, 0.463014386579, -0.2, 0.0, 0.0, 0.0, 0.0, 0.0, 0.013805827091, -0.00920388472731, -0.00153398078789, -0.013805827091, 0.00306796157577, -0.00306796157577, 0.00306796157577
0.636, 0.464424176232, -0.2, 0.0, 0.0, 0.0, 0.0, 0.0, 0.0153398078789, -0.00613592315154, -0.00153398078789, -0.0122718463031, 0.00153398078789, -0.00153398078789, -0.00306796157577
0.64, 0.465807563996, -0.2, 0.0, 0.0, 0.0, 0.0, 0.0, 0.0168737886667, -0.00306796157577, 0.00306796157577, -0.0153398078789, -0.00153398078789, 0.00153398078789, 0.00153398078789
0.644, 0.467164471228, -0.2, 0.0, 0.0, 0.0, 0.0, 0.0, 0.0153398078789, -0.00766990393943, 0.0, -0.0122718463031, 0.00306796157577, 0.00153398078789, 0.00153398078789
0.648, 0.46849482079, -0.2, 0.0, 0.0, 0.0, 0.0, 0.0, 0.0153398078789, -0.00613592315154, 0.0, -0.0153398078789, -0.00153398078789, -0.00460194236366, 0.00306796157577
0.652, 0.469798537053, -0.2, 0.0, 0.0, 0.0, 0.0, 0.0, 0.0199417502425, -0.00613592315154, 0.0, -0.0153398078789, 0.0, -0.00153398078789, 0.0
0.656, 0.471075545902, -0.2, 0.0, 0.0, 0.0, 0.0, 0.0, 0.0168737886667, -0.00460194236366, -0.00306796157577, -0.0107378655152, 0.0, -0.00153398078789, -0.00153398078789
0.66, 0.472325774742, -0.2, 0.0, 0.0, 0.0, 0.0, 0.0, 0.0153398078789, -0.00613592315154, -0.00153398078789, -0.013805827091, 0.0, -0.00153398078789, 0.00306796157577
0.664, 0.473549152497, -0.2, 0.0, 0.0, 0.0, 0.0, 0.0, 0.0168737886667, -0.00460194236366, 0.0, -0.0122718463031, 0.0, -0.00460194236366, 0.0
0.668, 0.474745609622, -0.2, 0.0, 0.0, 0.0, 0.0, 0.0, 0.0168737886667, -0.00613592315154, -0.00306796157577, -0.013805827091, 0.00153398078789, 0.0, -0.00306796157577
0.672, 0.475915078099, -0.2, 0.0, 0.0, 0.0, 0.0, 0.0, 0.0214757310304, -0.00766990393943, 0.00153398078789, -0.0168737886667, 0.0, 0.0, 0.00153398078789
0.676, 0.477057491445, -0.2, 0.0, 0.0, 0.0, 0.0, 0.0, 0.0168737886667, -0.0107378655152, 0.0, -0.0168737886667, -0.00153398078789, 0.0, 0.0
0.68, 0.478172784716, -0.2, 0.0, 0.0, 0.0, 0.0, 0.0, 0.0168737886667, -0.0107378655152, 0.0, -0.0168737886667, -0.00153398078789, 0.0, 0.0
0.684, 0.479260894509, -0.2, 0.0, 0.0, 0.0, 0.0, 0.0, 0.0184077694546, -0.00613592315154, 0.00306796157577, -0.013805827091, -0.00306796157577, 0.0, 0.00153398078789
0.688, 0.480321758965, -0.2, 0.0, 0.0, 0.0, 0.0, 0.0, 0.0199417502425, -0.00766990393943, -0.00153398078789, -0.0153398078789, -0.00153398078789, 0.0, 0.00306796157577
0.692, 0.481355317778, -0.2, 0.0, 0.0, 0.0, 0.0, 0.0, 0.0214757310304, -0.00920388472731, 0.00153398078789, -0.013805827091, 0.0, -0.00153398078789, 0.0
0.696, 0.482361512189, -0.2, 0.0, 0.0, 0.0, 0.0, 0.0, 0.0230097118183, -0.00460194236366, -0.00306796157577, -0.0168737886667, -0.00153398078789, -0.00153398078789, 0.00306796157577
0.7, 0.483340284998, -0.2, 0.0, 0.0, 0.0, 0.0, 0.0, 0.0230097118183, -0.0107378655152, -0.00153398078789, -0.0168737886667, 0.0, 0.0, -0.00306796157577
0.704, 0.484291580564, -0.2, 0.0, 0.0, 0.0, 0.0, 0.0, 0.0214757310304, -0.00460194236366, 0.00306796157577, -0.0153398078789, -0.00153398078789, -0.00460194236366, -0.00306796157577
0.708, 0.485215344807, -0.2, 0.0, 0.0, 0.0, 0.0, 0.0, 0.0199417502425, -0.00460194236366, 0.00306796157577, -0.0184077694546, -0.00306796157577, -0.00460194236366, 0.0
0.712, 0.486111525211, -0.2, 0.0, 0.0, 0.0, 0.0, 0.0, 0.0199417502425, -0.00766990393943, 0.00153398078789, -0.0153398078789, 0.00306796157577, -0.00306796157577, -0.00153398078789
0.716, 0.48698007083, -0.2, 0.0, 0.0, 0.0, 0.0, 0.0, 0.0230097118183, -0.00920388472731, 0.00153398078789, -0.0199417502425, -0.00306796157577, -0.00460194236366, 0.0
0.72, 0.487820932288, -0.2, 0.0, 0.0, 0.0, 0.0, 0.0, 0.0260776733941, -0.0107378655152, 0.00306796157577, -0.0153398078789, 0.00306796157577, -0.00613592315154, 0.00153398078789
0.724, 0.488634061784, -0.2, 0.0, 0.0, 0.0, 0.0, 0.0, 0.0199417502425, -0.0107378655152, 0.00306796157577, -0.0168737886667, 0.00306796157577, 0.0, 0.00153398078789
0.728, 0.489419413092, -0.2, 0.0, 0.0, 0.0, 0.0, 0.0, 0.0230097118183, -0.00920388472731, 0.0, -0.0153398078789, 0.00153398078789, -0.00306796157577, -0.00153398078789
0.732, 0.490176941567, -0.2, 0.0, 0.0, 0.0, 0.0, 0.0, 0.0230097118183, -0.0107378655152, 0.00153398078789, -0.0184077694546, 0.0, -0.00613592315154, 0.00153398078789
0.736, 0.490906604143, -0.2, 0.0, 0.0, 0.0, 0.0, 0.0, 0.0245436926062, -0.00766990393943, -0.00306796157577, -0.0168737886667, 0.00153398078789, -0.00766990393943, -0.00153398078789
0.74, 0.49160835934, -0.2, 0.0, 0.0, 0.0, 0.0, 0.0, 0.0230097118183, -0.0122718463031, 0.00153398078789, -0.0214757310304, 0.0, -0.00766990393943, 0.0
0.744, 0.492282167265, -0.2, 0.0, 0.0, 0.0, 0.0, 0.0, 0.0230097118183, -0.00613592315154, -0.00153398078789, -0.0199417502425, 0.0, -0.00153398078789, 0.0
0.748, 0.492927989612, -0.2, 0.0, 0.0, 0.0, 0.0, 0.0, 0.0230097118183, -0.0122718463031, -0.00153398078789, -0.0214757310304, 0.00306796157577, -0.00460194236366, 0.00153398078789
0.752, 0.493545789667, -0.2, 0.0, 0.0, 0.0, 0.0, 0.0, 0.0276116541819, -0.00766990393943, -0.00153398078789, -0.0199417502425, -0.00306796157577, -0.00153398078789, 0.0
0.756, 0.494135532309, -0.2, 0.0, 0.0, 0.0, 0.0, 0.0, 0.0276116541819, -0.0122718463031, -0.00306796157577, -0.0214757310304, 0.00306796157577, -0.00613592315154, -0.00153398078789
0.76, 0.494697184013, -0.2, 0.0, 0.0, 0.0, 0.0, 0.0, 0.0276116541819, -0.0107378655152, -0.00153398078789, -0.0214757310304, -0.00153398078789, -0.00613592315154, 0.0
0.764, 0.495230712848, -0.2, 0.0, 0.0, 0.0, 0.0, 0.0, 0.0306796157577, -0.0107378655152, -0.00306796157577, -0.0184077694546, 0.0, -0.00460194236366, -0.00153398078789
0.768, 0.495736088485, -0.2, 0.0, 0.0, 0.0, 0.0, 0.0, 0.0291456349698, -0.0107378655152, -0.00306796157577, -0.0245436926062, -0.00306796157577, -0.00460194236366, 0.00153398078789
0.772, 0.496213282194, -0.2, 0.0, 0.0, 0.0, 0.0, 0.0, 0.0245436926062, -0.0122718463031, 0.00153398078789, -0.0199417502425, 0.00153398078789, -0.00766990393943, -0.00306796157577
0.776, 0.496662266846, -0.2, 0.0, 0.0, 0.0, 0.0, 0.0, 0.0306796157577, -0.0122718463031, -0.00306796157577, -0.0199417502425, -0.00306796157577, -0.00460194236366, 0.00306796157577
0.78, 0.497083016918, -0.2, 0.0, 0.0, 0.0, 0.0, 0.0, 0.0306796157577, -0.0107378655152, 0.00153398078789, -0.0214757310304, 0.00306796157577, -0.00766990393943, 0.00306796157577
0.784, 0.497475508491, -0.2, 0.0, 0.0, 0.0, 0.0, 0.0, 0.0291456349698, -0.0107378655152, -0.00306796157577, -0.0214757310304, -0.00153398078789, -0.00613592315154, 0.0
0.788, 0.497839719251, -0.2, 0.0, 0.0, 0.0, 0.0, 0.0, 0.0291456349698, -0.013805827091, 0.00306796157577, -0.0260776733941, 0.0, -0.00613592315154, 0.00306796157577
0.792, 0.498175628495, -0.2, 0.0, 0.0, 0.0, 0.0, 0.0, 0.0260776733941, -0.0107378655152, -0.00153398078789, -0.0230097118183, 0.0, -0.00766990393943, 0.00306796157577
0.796, 0.498483217125, -0.2, 0.0, 0.0, 0.0, 0.0, 0.0, 0.0291456349698, -0.00920388472731, -0.00153398078789, -0.0199417502425, 0.0, -0.00766990393943, 0.00153398078789
0.8, 0.498762467657, -0.2, 0.0, 0.0, 0.0, 0.0, 0.0, 0.0276116541819, -0.0107378655152, 0.00153398078789, -0.0245436926062, -0.00306796157577, -0.00306796157577, -0.00306796157577
0.804, 0.499013364214, -0.2, 0.0, 0.0, 0.0, 0.0, 0.0, 0.0337475773335, -0.00920388472731, -0.00153398078789, -0.0214757310304, 0.00153398078789, -0.00920388472731, -0.00306796157577
0.808, 0.499235892535, -0.2, 0.0, 0.0, 0.0, 0.0, 0.0, 0.0291456349698, -0.00920388472731, -0.00306796157577, -0.0276116541819, -0.00306796157577, -0.00460194236366, 0.0
0.812, 0.499430039968, -0.2, 0.0, 0.0, 0.0, 0.0, 0.0, 0.0352815581214, -0.013805827091, 0.00153398078789, -0.0230097118183, -0.00153398078789, -0.00460194236366, -0.00306796157577
0.816, 0.499595795476, -0.2, 0.0, 0.0, 0.0, 0.0, 0.0, 0.0291456349698, -0.0107378655152, 0.00306796157577, -0.0276116541819, 0.0, -0.00306796157577, 0.00306796157577
0.82, 0.499733149637, -0.2, 0.0, 0.0, 0.0, 0.0, 0.0, 0.0306796157577, -0.0122718463031, 0.0, -0.0276116541819, -0.00306796157577, -0.00766990393943, 0.0
0.824, 0.499842094642, -0.2, 0.0, 0.0, 0.0, 0.0, 0.0, 0.0306796157577, -0.0153398078789, -0.00153398078789, -0.0260776733941, 0.0, -0.00766990393943, 0.0
0.828, 0.499922624297, -0.2, 0.0, 0.0, 0.0, 0.0, 0.0, 0.0306796157577, -0.0122718463031, 0.00306796157577, -0.0291456349698, 0.00153398078789, -0.00766990393943, 0.00153398078789
0.832, 0.499974734026, -0.2, 0.0, 0.0, 0.0, 0.0, 0.0, 0.0368155389093, -0.0153398078789, 0.0, -0.0276116541819, 0.00306796157577, -0.00613592315154, 0.00153398078789
0.836, 0.499998420864, -0.2, 0.0, 0.0, 0.0, 0.0, 0.0, 0.0352815581214, -0.0153398078789, 0.0, -0.0260776733941, -0.00306796157577, -0.00766990393943, -0.00153398078789
0.84, 0.499993683466, -0.2, 0.0, 0.0, 0.0, 0.0, 0.0, 0.0383495196971, -0.013805827091, 0.00153398078789, -0.0291456349698, 0.0, -0.00306796157577, -0.00153398078789
0.844, 0.499960522102, -0.2, 0.0, 0.0, 0.0, 0.0, 0.0, 0.0368155389093, -0.0122718463031, -0.00153398078789, -0.0245436926062, 0.00306796157577, -0.00766990393943, -0.00153398078789
0.848, 0.499898938656, -0.2, 0.0, 0.0, 0.0, 0.0, 0.0, 0.0337475773335, -0.0107378655152, 0.00306796157577, -0.0306796157577, 0.00306796157577, -0.00766990393943, 0.00306796157577
0.852, 0.499808936628, -0.2, 0.0, 0.0, 0.0, 0.0, 0.0, 0.0383495196971, -0.0107378655152, 0.00306796157577, -0.0276116541819, -0.00306796157577, -0.00460194236366, -0.00153398078789
0.856, 0.499690521137, -0.2, 0.0, 0.0, 0.0, 0.0, 0.0, 0.0337475773335, -0.0153398078789, 0.00306796157577, -0.0276116541819, -0.00153398078789, -0.00306796157577, 0.0
0.86, 0.499543698913, -0.2, 0.0, 0.0, 0.0, 0.0, 0.0, 0.0383495196971, -0.013805827091, 0.00153398078789, -0.0306796157577, 0.0, -0.00920388472731, 0.0
0.864, 0.499368478303, -0.2, 0.0, 0.0, 0.0, 0.0, 0.0, 0.0383495196971, -0.013805827091, -0.00306796157577, -0.0322135965456, -0.00306796157577, -0.00920388472731, 0.00153398078789
0.868, 0.499164869268, -0.2, 0.0, 0.0, 0.0, 0.0, 0.0, 0.0368155389093, -0.0168737886667, 0.0, -0.0276116541819, -0.00153398078789, -0.00920388472731, -0.00153398078789
0.872, 0.498932883383, -0.2, 0.0, 0.0, 0.0, 0.0, 0.0, 0.0368155389093, -0.0168737886667, 0.00153398078789, -0.0276116541819, 0.00153398078789, -0.00920388472731, 0.0
0.876, 0.498672533837, -0.2, 0.0, 0.0, 0.0, 0.0, 0.0, 0.0429514620608, -0.013805827091, -0.00306796157577, -0.0276116541819, -0.00153398078789, -0.00460194236366, -0.00306796157577
0.88, 0.498383835429, -0.2, 0.0, 0.0, 0.0, 0.0, 0.0, 0.0429514620608, -0.0184077694546, -0.00153398078789, -0.0276116541819, -0.00306796157577, -0.00613592315154, 0.00306796157577
0.884, 0.498066804572, -0.2, 0.0, 0.0, 0.0, 0.0, 0.0, 0.0383495196971, -0.0122718463031, 0.00306796157577, -0.0291456349698, 0.0, -0.00613592315154, 0.0
0.888, 0.497721459288, -0.2, 0.0, 0.0, 0.0, 0.0, 0.0, 0.0414174812729, -0.0168737886667, -0.00306796157577, -0.0306796157577, -0.00306796157577, -0.00920388472731, 0.0
0.892, 0.49734781921, -0.2, 0.0, 0.0, 0.0, 0.0, 0.0, 0.0444854428487, -0.013805827091, -0.00153398078789, -0.0322135965456, 0.00153398078789, -0.00920388472731, 0.00153398078789
0.896, 0.496945905579, -0.2, 0.0, 0.0, 0.0, 0.0, 0.0, 0.0444854428487, -0.0168737886667, 0.00153398078789, -0.0337475773335, 0.00153398078789, -0.00766990393943, 0.00153398078789
0.9, 0.496515741244, -0.2, 0.0, 0.0, 0.0, 0.0, 0.0, 0.0444854428487, -0.0168737886667, -0.00306796157577, -0.0322135965456, -0.00153398078789, -0.00460194236366, 0.00306796157577
0.904, 0.496057350657, -0.2, 0.0, 0.0, 0.0, 0.0, 0.0, 0.0414174812729, -0.0153398078789, -0.00153398078789, -0.0306796157577, 0.0, -0.0107378655152, -0.00306796157577
0.908, 0.495570759879, -0.2, 0.0, 0.0, 0.0, 0.0, 0.0, 0.0444854428487, -0.0184077694546, 0.00306796157577, -0.0291456349698, 0.00153398078789, -0.00613592315154, 0.0
0.912, 0.495055996571, -0.2, 0.0, 0.0, 0.0, 0.0, 0.0, 0.0444854428487, -0.0153398078789, -0.00306796157577, -0.0337475773335, 0.00306796157577, -0.00920388472731, -0.00306796157577
0.916, 0.494513089998, -0.2, 0.0, 0.0, 0.0, 0.0, 0.0, 0.0429514620608, -0.0168737886667, 0.00153398078789, -0.0306796157577, -0.00153398078789, -0.00613592315154, 0.0
0.92, 0.493942071021, -0.2, 0.0, 0.0, 0.0, 0.0, 0.0, 0.0429514620608, -0.0184077694546, 0.00306796157577, -0.0337475773335, 0.00153398078789, -0.00766990393943, 0.00153398078789
0.924, 0.493342972104, -0.2, 0.0, 0.0, 0.0, 0.0, 0.0, 0.0475534044245, -0.013805827091, 0.00306796157577, -0.0337475773335, 0.0, -0.0122718463031, 0.0
0.928, 0.492715827304, -0.2, 0.0, 0.0, 0.0, 0.0, 0.0, 0.0444854428487, -0.0184077694546, 0.0, -0.0322135965456, -0.00153398078789, -0.00766990393943, -0.00153398078789
0.932, 0.492060672273, -0.2, 0.0, 0.0, 0.0, 0.0, 0.0, 0.0429514620608, -0.0168737886667, 0.0, -0.0368155389093, 0.00153398078789, -0.0107378655152, 0.00153398078789
0.936, 0.491377544256, -0.2, 0.0, 0.0, 0.0, 0.0, 0.0, 0.0429514620608, -0.0168737886667, -0.00306796157577, -0.0337475773335, 0.00306796157577, -0.0122718463031, -0.00306796157577
0.94, 0.490666482088, -0.2, 0.0, 0.0, 0.0, 0.0, 0.0, 0.0475534044245, -0.0184077694546, -0.00306796157577, -0.0368155389093, 0.00153398078789, -0.00766990393943, -0.00306796157577
0.944, 0.489927526192, -0.2, 0.0, 0.0, 0.0, 0.0, 0.0, 0.0490873852123, -0.0199417502425, -0.00153398078789, -0.0368155389093, 0.00153398078789, -0.00766990393943, 0.00306796157577
0.948, 0.489160718577, -0.2, 0.0, 0.0, 0.0, 0.0, 0.0, 0.0444854428487, -0.0184077694546, -0.00306796157577, -0.0322135965456, 0.00153398078789, -0.0107378655152, 0.0
0.952, 0.488366102834, -0.2, 0.0, 0.0, 0.0, 0.0, 0.0, 0.0506213660002, -0.0214757310304, 0.00306796157577, -0.0352815581214, 0.00153398078789, -0.00920388472731, -0.00306796157577
0.956, 0.487543724136, -0.2, 0.0, 0.0, 0.0, 0.0, 0.0, 0.0490873852123, -0.0214757310304, 0.00153398078789, -0.0383495196971, 0.0, -0.0107378655152, 0.00306796157577
0.96, 0.486693629235, -0.2, 0.0, 0.0, 0.0, 0.0, 0.0, 0.0490873852123, -0.0199417502425, -0.00153398078789, -0.0383495196971, 0.00153398078789, -0.00920388472731, -0.00153398078789
0.964, 0.485815866457, -0.2, 0.0, 0.0, 0.0, 0.0, 0.0, 0.0490873852123, -0.0184077694546, -0.00306796157577, -0.0322135965456, -0.00306796157577, -0.0122718463031, 0.0
0.968, 0.484910485702, -0.2, 0.0, 0.0, 0.0, 0.0, 0.0, 0.0490873852123, -0.0153398078789, 0.00306796157577, -0.0383495196971, -0.00153398078789, -0.0122718463031, 0.0
0.972, 0.48397753844, -0.2, 0.0, 0.0, 0.0, 0.0, 0.0, 0.0521553467881, -0.0214757310304, -0.00153398078789, -0.0337475773335, -0.00306796157577, -0.00920388472731, 0.00153398078789
0.976, 0.483017077707, -0.2, 0.0, 0.0, 0.0, 0.0, 0.0, 0.053689327576, -0.0184077694546, 0.0, -0.0337475773335, 0.00306796157577, -0.013805827091, -0.00306796157577
0.98, 0.482029158104, -0.2, 0.0, 0.0, 0.0, 0.0, 0.0, 0.053689327576, -0.0214757310304, -0.00153398078789, -0.0352815581214, 0.0, -0.00920388472731, -0.00306796157577
0.984, 0.481013835793, -0.2, 0.0, 0.0, 0.0, 0.0, 0.0, 0.0552233083639, -0.0168737886667, 0.0, -0.039883500485, 0.00153398078789, -0.00766990393943, 0.00153398078789
0.988, 0.479971168494, -0.2, 0.0, 0.0, 0.0, 0.0, 0.0, 0.0506213660002, -0.0168737886667, 0.00153398078789, -0.0337475773335, 0.0, -0.00766990393943, 0.0
0.992, 0.478901215481, -0.2, 0.0, 0.0, 0.0, 0.0, 0.0, 0.0567572891518, -0.0168737886667, 0.00153398078789, -0.0352815581214, -0.00153398078789, -0.013805827091, -0.00153398078789
0.996, 0.47780403758, -0.2, 0.0, 0.0, 0.0, 0.0, 0.0, 0.0552233083639, -0.0214757310304, -0.00306796157577, -0.0383495196971, -0.00306796157577, -0.013805827091, -0.00306796157577
1.0, 0.476679697163, -0.2, 0.0, 0.0, 0.0, 0.0, 0.0, 0.053689327576, -0.0184077694546, 0.00153398078789, -0.0368155389093, -0.00306796157577, -0.013805827091, 0.00306796157577
1.004, 0.475528258148, -0.2, 0.0, 0.0, 0.0, 0.0, 0.0, 0.0582912699397, -0.0199417502425, 0.00306796157577, -0.039883500485, -0.00153398078789, -0.0122718463031, -0.00306796157577
1.008, 0.474349785992, -0.2, 0.0, 0.0, 0.0, 0.0, 0.0, 0.0521553467881, -0.0199417502425, -0.00306796157577, -0.0383495196971, -0.00306796157577, -0.00766990393943, 0.00306796157577
1.012, 0.47314434769, -0.2, 0.0, 0.0, 0.0, 0.0, 0.0, 0.053689327576, -0.0199417502425, -0.00153398078789, -0.0429514620608, -0.00153398078789, -0.00920388472731, -0.00306796157577
1.016, 0.47191201177, -0.2, 0.0, 0.0, 0.0, 0.0, 0.0, 0.0567572891518, -0.0199417502425, 0.0, -0.0429514620608, 0.00306796157577, -0.00766990393943, -0.00306796157577
1.02, 0.470652848289, -0.2, 0.0, 0.0, 0.0, 0.0, 0.0, 0.0598252507275, -0.0245436926062, 0.0, -0.0414174812729, 0.0, -0.0122718463031, -0.00153398078789
1.024, 0.469366928827, -0.2, 0.0, 0.0, 0.0, 0.0, 0.0, 0.0567572891518, -0.0199417502425, 0.00306796157577, -0.039883500485, 0.00153398078789, -0.00920388472731, 0.0
1.028, 0.468054326488, -0.2, 0.0, 0.0, 0.0, 0.0, 0.0, 0.0613592315154, -0.0199417502425, 0.00306796157577, -0.039883500485, 0.00306796157577, -0.00920388472731, 0.0
1.032, 0.466715115892, -0.2, 0.0, 0.0, 0.0, 0.0, 0.0, 0.0598252507275, -0.0184077694546, 0.00153398078789, -0.039883500485, 0.00306796157577, -0.0153398078789, -0.00153398078789
1.036, 0.46534937317, -0.2, 0.0, 0.0, 0.0, 0.0, 0.0, 0.0582912699397, -0.0199417502425, 0.00306796157577, -0.0444854428487, 0.00153398078789, -0.0107378655152, -0.00306796157577
1.04, 0.463957175964, -0.2, 0.0, 0.0, 0.0, 0.0, 0.0, 0.0613592315154, -0.0199417502425, 0.0, -0.0383495196971, -0.00153398078789, -0.013805827091, -0.00153398078789
1.044, 0.462538603417, -0.2, 0.0, 0.0, 0.0, 0.0, 0.0, 0.0567572891518, -0.0214757310304, 0.00153398078789, -0.039883500485, 0.00153398078789, -0.0153398078789, 0.00153398078789
1.048, 0.461093736175, -0.2, 0.0, 0.0, 0.0, 0.0, 0.0, 0.0628932123033, -0.0230097118183, 0.0, -0.039883500485, 0.00306796157577, -0.0153398078789, 0.00306796157577
1.052, 0.459622656375, -0.2, 0.0, 0.0, 0.0, 0.0, 0.0, 0.0582912699397, -0.0214757310304, -0.00306796157577, -0.0429514620608, -0.00153398078789, -0.0107378655152, 0.00306796157577
1.056, 0.458125447647, -0.2, 0.0, 0.0, 0.0, 0.0, 0.0, 0.0582912699397, -0.0214757310304, -0.00306796157577, -0.039883500485, -0.00153398078789, -0.0107378655152, -0.00153398078789
1.06, 0.456602195104, -0.2, 0.0, 0.0, 0.0, 0.0, 0.0, 0.0644271930912, -0.0230097118183, 0.00306796157577, -0.0460194236366, 0.0, -0.0122718463031, 0.00306796157577
1.064, 0.455052985342, -0.2, 0.0, 0.0, 0.0, 0.0, 0.0, 0.0659611738791, -0.0199417502425, -0.00306796157577, -0.0429514620608, 0.0, -0.00920388472731, -0.00153398078789
1.068, 0.453477906432, -0.2, 0.0, 0.0, 0.0, 0.0, 0.0, 0.0628932123033, -0.0199417502425, -0.00306796157577, -0.0429514620608, 0.0, -0.0122718463031, 0.00153398078789
1.072, 0.451877047914, -0.2, 0.0, 0.0, 0.0, 0.0, 0.0, 0.0659611738791, -0.0230097118183, -0.00306796157577, -0.0460194236366, -0.00306796157577, -0.013805827091, 0.00306796157577
1.076, 0.450250500794, -0.2, 0.0, 0.0, 0.0, 0.0, 0.0, 0.0613592315154, -0.0245436926062, -0.00306796157577, -0.0429514620608, 0.0, -0.0122718463031, 0.00153398078789
1.08, 0.448598357541, -0.2, 0.0, 0.0, 0.0, 0.0, 0.0, 0.0613592315154, -0.0245436926062, -0.00306796157577, -0.0475534044245, 0.00306796157577, -0.0107378655152, 0.00306796157577
1.084, 0.446920712076, -0.2, 0.0, 0.0, 0.0, 0.0, 0.0, 0.0628932123033, -0.0245436926062, -0.00153398078789, -0.0444854428487, 0.00306796157577, -0.0122718463031, 0.00306796157577
1.088, 0.44521765977, -0.2, 0.0, 0.0, 0.0, 0.0, 0.0, 0.067495154667, -0.0230097118183, 0.00153398078789, -0.0429514620608, 0.00153398078789, -0.0107378655152, 0.00306796157577
1.092, 0.443489297441, -0.2, 0.0, 0.0, 0.0, 0.0, 0.0, 0.0628932123033, -0.0276116541819, 0.00153398078789, -0.0429514620608, -0.00306796157577, -0.0153398078789, 0.00306796157577
1.096, 0.441735723343, -0.2, 0.0, 0.0, 0.0, 0.0, 0.0, 0.067495154667, -0.0260776733941, 0.00153398078789, -0.0429514620608, 0.00306796157577, -0.013805827091, -0.00153398078789
1.1, 0.439957037165, -0.2, 0.0, 0.0, 0.0, 0.0, 0.0, 0.067495154667, -0.0276116541819, 0.0, -0.0444854428487, -0.00153398078789, -0.0107378655152, 0.00153398078789
1.104, 0.438153340022, -0.2, 0.0, 0.0, 0.0, 0.0, 0.0, 0.0644271930912, -0.0291456349698, 0.00153398078789, -0.0490873852123, -0.00306796157577, -0.0107378655152, -0.00153398078789
1.108, 0.436324734452, -0.2, 0.0, 0.0, 0.0, 0.0, 0.0, 0.0705631162427, -0.0291456349698, 0.0, -0.0460194236366, -0.00153398078789, -0.0153398078789, 0.00153398078789
1.112, 0.43447132441, -0.2, 0.0, 0.0, 0.0, 0.0, 0.0, 0.067495154667, -0.0291456349698, -0.00153398078789, -0.0429514620608, 0.0, -0.013805827091, 0.00306796157577
1.116, 0.432593215258, -0.2, 0.0, 0.0, 0.0, 0.0, 0.0, 0.0705631162427, -0.0245436926062, -0.00306796157577, -0.0460194236366, 0.00306796157577, -0.013805827091, 0.0
1.12, 0.430690513765, -0.2, 0.0, 0.0, 0.0, 0.0, 0.0, 0.0720970970306, -0.0291456349698, 0.0, -0.0444854428487, 0.0, -0.013805827091, 0.00153398078789
1.124, 0.428763328097, -0.2, 0.0, 0.0, 0.0, 0.0, 0.0, 0.0690291354549, -0.0230097118183, 0.00153398078789, -0.0444854428487, 0.00153398078789, -0.0168737886667, 0.00306796157577
1.128, 0.426811767811, -0.2, 0.0, 0.0, 0.0, 0.0, 0.0, 0.067495154667, -0.0291456349698, 0.00306796157577, -0.0490873852123, -0.00306796157577, -0.0153398078789, 0.0
1.132, 0.424835943852, -0.2, 0.0, 0.0, 0.0, 0.0, 0.0, 0.0720970970306, -0.0276116541819, 0.00306796157577, -0.0444854428487, -0.00306796157577, -0.013805827091, 0.00306796157577
1.136, 0.422835968543, -0.2, 0.0, 0.0, 0.0, 0.0, 0.0, 0.0736310778185, -0.0276116541819, -0.00306796157577, -0.0444854428487, -0.00306796157577, -0.0168737886667, 0.0
1.14, 0.420811955578, -0.2, 0.0, 0.0, 0.0, 0.0, 0.0, 0.0705631162427, -0.0306796157577, -0.00153398078789, -0.0490873852123, 0.00153398078789, -0.0153398078789, 0.00306796157577
1.144, 0.418764020021, -0.2, 0.0, 0.0, 0.0, 0.0, 0.0, 0.0736310778185, -0.0245436926062, -0.00153398078789, -0.0506213660002, 0.0, -0.0153398078789, -0.00153398078789
1.148, 0.416692278294, -0.2, 0.0, 0.0, 0.0, 0.0, 0.0, 0.0690291354549, -0.0291456349698, 0.0, -0.0460194236366, 0.0, -0.0168737886667, -0.00153398078789
1.152, 0.414596848173, -0.2, 0.0, 0.0, 0.0, 0.0, 0.0, 0.0705631162427, -0.0260776733941, 0.00153398078789, -0.0444854428487, -0.00306796157577, -0.013805827091, 0.00153398078789
1.156, 0.412477848779, -0.2, 0.0, 0.0, 0.0, 0.0, 0.0, 0.0766990393943, -0.0306796157577, 0.0, -0.0460194236366, -0.00153398078789, -0.0122718463031, -0.00153398078789
1.16, 0.410335400576, -0.2, 0.0, 0.0, 0.0, 0.0, 0.0, 0.0736310778185, -0.0260776733941, -0.00153398078789, -0.0506213660002, -0.00306796157577, -0.0168737886667, 0.00306796157577
1.164, 0.408169625359, -0.2, 0.0, 0.0, 0.0, 0.0, 0.0, 0.0766990393943, -0.0322135965456, 0.00306796157577, -0.0475534044245, 0.00306796157577, -0.0184077694546, -0.00306796157577
1.168, 0.405980646248, -0.2, 0.0, 0.0, 0.0, 0.0, 0.0, 0.0782330201822, -0.0276116541819, 0.00306796157577, -0.0490873852123, 0.00306796157577, -0.0122718463031, 0.0
1.172, 0.403768587685, -0.2, 0.0, 0.0, 0.0, 0.0, 0.0, 0.0782330201822, -0.0276116541819, 0.00306796157577, -0.0460194236366, -0.00153398078789, -0.0168737886667, -0.00153398078789
1.176, 0.401533575422, -0.2, 0.0, 0.0, 0.0, 0.0, 0.0, 0.0782330201822, -0.0322135965456, 0.00306796157577, -0.0521553467881, 0.00153398078789, -0.0168737886667, 0.00306796157577
1.18, 0.399275736517, -0.2, 0.0, 0.0, 0.0, 0.0, 0.0, 0.0766990393943, -0.0291456349698, 0.00306796157577, -0.0521553467881, 0.0, -0.0168737886667, -0.00306796157577
1.184, 0.396995199324, -0.2, 0.0, 0.0, 0.0, 0.0, 0.0, 0.0797670009701, -0.0291456349698, 0.0, -0.053689327576, 0.0, -0.0168737886667, -0.00306796157577
1.188, 0.394692093489, -0.2, 0.0, 0.0, 0.0, 0.0, 0.0, 0.0751650586064, -0.0260776733941, 0.00306796157577, -0.0475534044245, -0.00153398078789, -0.0184077694546, 0.00153398078789
1.192, 0.392366549941, -0.2, 0.0, 0.0, 0.0, 0.0, 0.0, 0.0797670009701, -0.0260776733941, 0.00306796157577, -0.053689327576, -0.00153398078789, -0.0168737886667, 0.00153398078789
1.196, 0.390018700883, -0.2, 0.0, 0.0, 0.0, 0.0, 0.0, 0.0797670009701, -0.0322135965456, 0.00306796157577, -0.0490873852123, 0.0, -0.0153398078789, 0.00153398078789
1.2, 0.387648679788, -0.2, 0.0, 0.0, 0.0, 0.0, 0.0, 0.0797670009701, -0.0306796157577, -0.00153398078789, -0.0490873852123, 0.00306796157577, -0.0168737886667, 0.00306796157577
1.204, 0.385256621388, -0.2, 0.0, 0.0, 0.0, 0.0, 0.0, 0.0828349625458, -0.0291456349698, -0.00153398078789, -0.0475534044245, -0.00153398078789, -0.0153398078789, 0.0
1.208, 0.382842661668, -0.2, 0.0, 0.0, 0.0, 0.0, 0.0, 0.0828349625458, -0.0322135965456, 0.00460194236366, -0.0521553467881, 0.00460194236366, -0.013805827091, 0.00306796157577
1.212, 0.380406937859, -0.2, 0.0, 0.0, 0.0, 0.0, 0.0, 0.0766990393943, -0.0306796157577, 0.0, -0.053689327576, -0.00153398078789, -0.013805827091, 0.0
1.216, 0.377949588429, -0.2, 0.0, 0.0, 0.0, 0.0, 0.0, 0.0797670009701, -0.0306796157577, 0.00460194236366, -0.0552233083639, -0.00153398078789, -0.0168737886667, 0.0
1.22, 0.375470753073, -0.2, 0.0, 0.0, 0.0, 0.0, 0.0, 0.0797670009701, -0.0306796157577, 0.00460194236366, -0.0490873852123, -0.00153398078789, -0.0199417502425, 0.0
1.224, 0.372970572712, -0.2, 0.0, 0.0, 0.0, 0.0, 0.0, 0.0813009817579, -0.0291456349698, -0.00153398078789, -0.0552233083639, 0.00153398078789, -0.0199417502425, -0.00306796157577
1.228, 0.370449189476, -0.2, 0.0, 0.0, 0.0, 0.0, 0.0, 0.0782330201822, -0.0322135965456, 0.00460194236366, -0.0506213660002, 0.0, -0.0153398078789, 0.00306796157577
1.232, 0.367906746704, -0.2, 0.0, 0.0, 0.0, 0.0, 0.0, 0.0843689433337, -0.0291456349698, 0.00153398078789, -0.0552233083639, 0.0, -0.013805827091, 0.00306796157577
1.236, 0.365343388928, -0.2, 0.0, 0.0, 0.0, 0.0, 0.0, 0.0859029241216, -0.0306796157577, 0.00306796157577, -0.053689327576, 0.00306796157577, -0.0168737886667, -0.00306796157577
1.24, 0.362759261874, -0.2, 0.0, 0.0, 0.0, 0.0, 0.0, 0.0859029241216, -0.0291456349698, 0.00153398078789, -0.0506213660002, -0.00153398078789, -0.0199417502425, -0.00153398078789
1.244, 0.360154512444, -0.2, 0.0, 0.0, 0.0, 0.0, 0.0, 0.0828349625458, -0.0291456349698, 0.00460194236366, -0.0567572891518, 0.0, -0.013805827091, 0.0
1.248, 0.357529288716, -0.2, 0.0, 0.0, 0.0, 0.0, 0.0, 0.0828349625458, -0.0291456349698, 0.00306796157577, -0.053689327576, 0.00460194236366, -0.013805827091, 0.00306796157577
1.252, 0.354883739929, -0.2, 0.0, 0.0, 0.0, 0.0, 0.0, 0.0828349625458, -0.0306796157577, 0.0, -0.0567572891518, 0.00153398078789, -0.0153398078789, -0.00153398078789
1.256, 0.352218016481, -0.2, 0.0, 0.0, 0.0, 0.0, 0.0, 0.0843689433337, -0.0368155389093, 0.00306796157577, -0.0567572891518, 0.00153398078789, -0.0214757310304, -0.00306796157577
1.26, 0.349532269913, -0.2, 0.0, 0.0, 0.0, 0.0, 0.0, 0.0843689433337, -0.0322135965456, 0.0, -0.0552233083639, 0.0, -0.0184077694546, 0.00306796157577
1.264, 0.346826652906, -0.2, 0.0, 0.0, 0.0, 0.0, 0.0, 0.0874369049095, -0.0337475773335, 0.0, -0.0521553467881, -0.00153398078789, -0.0184077694546, -0.00153398078789
1.268, 0.344101319272, -0.2, 0.0, 0.0, 0.0, 0.0, 0.0, 0.0828349625458, -0.0337475773335, 0.00306796157577, -0.0552233083639, 0.00306796157577, -0.0214757310304, -0.00153398078789
1.272, 0.341356423942, -0.2, 0.0, 0.0, 0.0, 0.0, 0.0, 0.0874369049095, -0.0368155389093, 0.00153398078789, -0.0552233083639, 0.00460194236366, -0.0214757310304, 0.0
1.276, 0.338592122959, -0.2, 0.0, 0.0, 0.0, 0.0, 0.0, 0.0889708856974, -0.0337475773335, 0.0, -0.0521553467881, -0.00153398078789, -0.0168737886667, -0.00306796157577
1.28, 0.335808573471, -0.2, 0.0, 0.0, 0.0, 0.0, 0.0, 0.0889708856974, -0.0352815581214, -0.00153398078789, -0.0552233083639, 0.00306796157577, -0.0199417502425, -0.00306796157577
1.284, 0.333005933717, -0.2, 0.0, 0.0, 0.0, 0.0, 0.0, 0.0889708856974, -0.0337475773335, 0.00460194236366, -0.0552233083639, 0.00153398078789, -0.0153398078789, -0.00153398078789
1.288, 0.330184363025, -0.2, 0.0, 0.0, 0.0, 0.0, 0.0, 0.0905048664853, -0.0337475773335, 0.00153398078789, -0.0582912699397, 0.0, -0.0184077694546, 0.00153398078789
1.292, 0.327344021798, -0.2, 0.0, 0.0, 0.0, 0.0, 0.0, 0.0905048664853, -0.0368155389093, 0.00153398078789, -0.0521553467881, 0.0, -0.0184077694546, -0.00153398078789
1.296, 0.324485071503, -0.2, 0.0, 0.0, 0.0, 0.0, 0.0, 0.0889708856974, -0.0383495196971, 0.0, -0.0567572891518, 0.00460194236366, -0.0214757310304, -0.00153398078789
1.3, 0.32160767467, -0.2, 0.0, 0.0, 0.0, 0.0, 0.0, 0.0874369049095, -0.0383495196971, 0.0, -0.053689327576, -0.00153398078789, -0.0199417502425, 0.0
1.304, 0.318711994874, -0.2, 0.0, 0.0, 0.0, 0.0, 0.0, 0.0889708856974, -0.0337475773335, 0.00460194236366, -0.0582912699397, 0.00153398078789, -0.0153398078789, 0.0
1.308, 0.315798196731, -0.2, 0.0, 0.0, 0.0, 0.0, 0.0, 0.093572828061, -0.0383495196971, 0.00306796157577, -0.053689327576, 0.00306796157577, -0.0153398078789, 0.00306796157577
1.312, 0.312866445886, -0.2, 0.0, 0.0, 0.0, 0.0, 0.0, 0.0889708856974, -0.0368155389093, 0.00153398078789, -0.0582912699397, -0.00153398078789, -0.0184077694546, 0.00153398078789
1.316, 0.309916909005, -0.2, 0.0, 0.0, 0.0, 0.0, 0.0, 0.0874369049095, -0.0383495196971, -0.00153398078789, -0.053689327576, -0.00153398078789, -0.0153398078789, -0.00306796157577
1.32, 0.306949753766, -0.2, 0.0, 0.0, 0.0, 0.0, 0.0, 0.093572828061, -0.039883500485, 0.00153398078789, -0.0567572891518, 0.00460194236366, -0.0184077694546, 0.0
1.324, 0.303965148847, -0.2, 0.0, 0.0, 0.0, 0.0, 0.0, 0.0889708856974, -0.0383495196971, 0.00306796157577, -0.0598252507275, 0.00460194236366, -0.0214757310304, -0.00306796157577
1.328, 0.300963263919, -0.2, 0.0, 0.0, 0.0, 0.0, 0.0, 0.0889708856974, -0.0383495196971, 0.00153398078789, -0.0582912699397, -0.00153398078789, -0.0214757310304, 0.0
1.332, 0.297944269636, -0.2, 0.0, 0.0, 0.0, 0.0, 0.0, 0.0920388472731, -0.0337475773335, 0.0, -0.0567572891518, 0.0, -0.0214757310304, 0.00153398078789
1.336, 0.294908337622, -0.2, 0.0, 0.0, 0.0, 0.0, 0.0, 0.0905048664853, -0.039883500485, 0.00460194236366, -0.0552233083639, 0.00306796157577, -0.0168737886667, -0.00153398078789
1.34, 0.291855640466, -0.2, 0.0, 0.0, 0.0, 0.0, 0.0, 0.0920388472731, -0.0337475773335, 0.00306796157577, -0.0567572891518, 0.00153398078789, -0.0168737886667, 0.00306796157577
1.344, 0.288786351711, -0.2, 0.0, 0.0, 0.0, 0.0, 0.0, 0.093572828061, -0.0368155389093, 0.00306796157577, -0.0582912699397, 0.00153398078789, -0.0214757310304, 0.00306796157577
1.348, 0.285700645841, -0.2, 0.0, 0.0, 0.0, 0.0, 0.0, 0.0905048664853, -0.0368155389093, 0.00153398078789, -0.0582912699397, 0.00460194236366, -0.0199417502425, -0.00153398078789
1.352, 0.282598698275, -0.2, 0.0, 0.0, 0.0, 0.0, 0.0, 0.093572828061, -0.0368155389093, 0.00460194236366, -0.0567572891518, 0.00153398078789, -0.0230097118183, -0.00153398078789
1.356, 0.279480685353, -0.2, 0.0, 0.0, 0.0, 0.0, 0.0, 0.0966407896368, -0.0352815581214, 0.00153398078789, -0.0552233083639, 0.00306796157577, -0.0199417502425, 0.00306796157577
1.36, 0.276346784331, -0.2, 0.0, 0.0, 0.0, 0.0, 0.0, 0.0951068088489, -0.0383495196971, 0.00153398078789, -0.0582912699397, 0.00460194236366, -0.0184077694546, 0.00306796157577
1.364, 0.273197173367, -0.2, 0.0, 0.0, 0.0, 0.0, 0.0, 0.093572828061, -0.0414174812729, 0.00460194236366, -0.0567572891518, 0.00306796157577, -0.0184077694546, -0.00153398078789
1.368, 0.270032031512, -0.2, 0.0, 0.0, 0.0, 0.0, 0.0, 0.0997087512126, -0.0368155389093, -0.00153398078789, -0.0582912699397, -0.00153398078789, -0.0168737886667, 0.00306796157577
1.372, 0.2668515387, -0.2, 0.0, 0.0, 0.0, 0.0, 0.0, 0.0981747704247, -0.039883500485, -0.00153398078789, -0.0552233083639, 0.0, -0.0184077694546, 0.00306796157577
1.376, 0.263655875738, -0.2, 0.0, 0.0, 0.0, 0.0, 0.0, 0.0966407896368, -0.0429514620608, -0.00153398078789, -0.0613592315154, -0.00153398078789, -0.0184077694546, -0.00306796157577
1.38, 0.260445224294, -0.2, 0.0, 0.0, 0.0, 0.0, 0.0, 0.0997087512126, -0.0429514620608, 0.0, -0.0582912699397, 0.00460194236366, -0.0199417502425, -0.00306796157577
1.384, 0.257219766891, -0.2, 0.0, 0.0, 0.0, 0.0, 0.0, 0.093572828061, -0.0368155389093, -0.00153398078789, -0.0552233083639, 0.00153398078789, -0.0199417502425, -0.00153398078789
1.388, 0.25397968689, -0.2, 0.0, 0.0, 0.0, 0.0, 0.0, 0.101242732, -0.0429514620608, 0.0, -0.0613592315154, 0.0, -0.0168737886667, 0.00306796157577
1.392, 0.250725168487, -0.2, 0.0, 0.0, 0.0, 0.0, 0.0, 0.0981747704247, -0.039883500485, 0.00306796157577, -0.0613592315154, -0.00153398078789, -0.0168737886667, 0.00306796157577
1.396, 0.247456396696, -0.2, 0.0, 0.0, 0.0, 0.0, 0.0, 0.0981747704247, -0.0429514620608, -0.00153398078789, -0.0552233083639, -0.00153398078789, -0.0184077694546, 0.00153398078789
1.4, 0.244173557342, -0.2, 0.0, 0.0, 0.0, 0.0, 0.0, 0.0997087512126, -0.0368155389093, -0.00153398078789, -0.0582912699397, 0.00306796157577, -0.0168737886667, 0.00153398078789
1.404, 0.240876837051, -0.2, 0.0, 0.0, 0.0, 0.0, 0.0, 0.102776712788, -0.0429514620608, -0.00153398078789, -0.0552233083639, -0.00153398078789, -0.0214757310304, 0.00153398078789
1.408, 0.237566423236, -0.2, 0.0, 0.0, 0.0, 0.0, 0.0, 0.101242732, -0.0414174812729, 0.00306796157577, -0.0598252507275, 0.00306796157577, -0.0199417502425, 0.00306796157577
1.412, 0.23424250409, -0.2, 0.0, 0.0, 0.0, 0.0, 0.0, 0.0966407896368, -0.0429514620608, -0.00153398078789, -0.0552233083639, 0.0, -0.0230097118183, 0.00153398078789
1.416, 0.230905268574, -0.2, 0.0, 0.0, 0.0, 0.0, 0.0, 0.0997087512126, -0.0383495196971, 0.00153398078789, -0.0598252507275, 0.00153398078789, -0.0230097118183, 0.00306796157577
1.42, 0.227554906404, -0.2, 0.0, 0.0, 0.0, 0.0, 0.0, 0.0981747704247, -0.0383495196971, 0.0, -0.0567572891518, 0.00460194236366, -0.0199417502425, 0.00153398078789
1.424, 0.224191608045, -0.2, 0.0, 0.0, 0.0, 0.0, 0.0, 0.0981747704247, -0.0429514620608, 0.00153398078789, -0.0613592315154, 0.0, -0.0199417502425, 0.0
1.428, 0.220815564695, -0.2, 0.0, 0.0, 0.0, 0.0, 0.0, 0.0997087512126, -0.0383495196971, -0.00153398078789, -0.0582912699397, -0.00153398078789, -0.0230097118183, 0.00153398078789
1.432, 0.217426968278, -0.2, 0.0, 0.0, 0.0, 0.0, 0.0, 0.101242732, -0.0414174812729, 0.00460194236366, -0.0582912699397, 0.00153398078789, -0.0230097118183, -0.00306796157577
1.436, 0.21402601143, -0.2, 0.0, 0.0, 0.0, 0.0, 0.0, 0.102776712788, -0.0414174812729, 0.00460194236366, -0.0582912699397, 0.00153398078789, -0.0245436926062, -0.00306796157577
1.44, 0.210612887493, -0.2, 0.0, 0.0, 0.0, 0.0, 0.0, 0.0997087512126, -0.0444854428487, 0.00306796157577, -0.0598252507275, 0.0, -0.0214757310304, -0.00153398078789
1.444, 0.207187790497, -0.2, 0.0, 0.0, 0.0, 0.0, 0.0, 0.104310693576, -0.0414174812729, 0.00306796157577, -0.0582912699397, 0.00153398078789, -0.0184077694546, 0.0
1.448, 0.203750915154, -0.2, 0.0, 0.0, 0.0, 0.0, 0.0, 0.105844674364, -0.0460194236366, 0.0, -0.0598252507275, 0.0, -0.0214757310304, -0.00306796157577
1.452, 0.200302456846, -0.2, 0.0, 0.0, 0.0, 0.0, 0.0, 0.104310693576, -0.0429514620608, 0.00460194236366, -0.0567572891518, 0.00153398078789, -0.0199417502425, -0.00306796157577
1.456, 0.196842611614, -0.2, 0.0, 0.0, 0.0, 0.0, 0.0, 0.104310693576, -0.0444854428487, -0.00153398078789, -0.0628932123033, 0.00460194236366, -0.0230097118183, 0.00153398078789
1.46, 0.193371576144, -0.2, 0.0, 0.0, 0.0, 0.0, 0.0, 0.0997087512126, -0.0414174812729, -0.00153398078789, -0.0598252507275, 0.00460194236366, -0.0230097118183, 0.00306796157577
1.464, 0.189889547761, -0.2, 0.0, 0.0, 0.0, 0.0, 0.0, 0.101242732, -0.0475534044245, -0.00153398078789, -0.0628932123033, -0.00153398078789, -0.0184077694546, 0.0
1.468, 0.186396724413, -0.2, 0.0, 0.0, 0.0, 0.0, 0.0, 0.101242732, -0.0460194236366, 0.0, -0.0628932123033, 0.0, -0.0184077694546, -0.00153398078789
1.472, 0.182893304663, -0.2, 0.0, 0.0, 0.0, 0.0, 0.0, 0.104310693576, -0.0444854428487, 0.00460194236366, -0.0598252507275, 0.00153398078789, -0.0184077694546, 0.00153398078789
1.476, 0.179379487674, -0.2, 0.0, 0.0, 0.0, 0.0, 0.0, 0.104310693576, -0.0444854428487, 0.00460194236366, -0.0598252507275, 0.00153398078789, -0.0184077694546, 0.00153398078789
1.48, 0.175855473204, -0.2, 0.0, 0.0, 0.0, 0.0, 0.0, 0.104310693576, -0.0429514620608, 0.00153398078789, -0.0598252507275, -0.00153398078789, -0.0199417502425, -0.00153398078789
1.484, 0.172321461587, -0.2, 0.0, 0.0, 0.0, 0.0, 0.0, 0.107378655152, -0.0460194236366, 0.00460194236366, -0.0613592315154, 0.00306796157577, -0.0214757310304, 0.00153398078789
1.488, 0.168777653728, -0.2, 0.0, 0.0, 0.0, 0.0, 0.0, 0.102776712788, -0.0444854428487, -0.00153398078789, -0.0613592315154, 0.00153398078789, -0.0199417502425, 0.00153398078789
1.492, 0.165224251086, -0.2, 0.0, 0.0, 0.0, 0.0, 0.0, 0.107378655152, -0.0460194236366, -0.00153398078789, -0.0613592315154, -0.00153398078789, -0.0199417502425, -0.00306796157577
1.496, 0.161661455668, -0.2, 0.0, 0.0, 0.0, 0.0, 0.0, 0.105844674364, -0.0444854428487, 0.00153398078789, -0.0582912699397, 0.00460194236366, -0.0230097118183, -0.00306796157577
1.5, 0.158089470014, -0.2, 0.0, 0.0, 0.0, 0.0, 0.0, 0.10891263594, -0.0429514620608, 0.00460194236366, -0.0567572891518, 0.00460194236366, -0.0245436926062, 0.00306796157577
1.504, 0.154508497187, -0.2, 0.0, 0.0, 0.0, 0.0, 0.0, 0.102776712788, -0.0460194236366, 0.00153398078789, -0.0567572891518, 0.0, -0.0230097118183, 0.00153398078789
1.508, 0.150918740761, -0.2, 0.0, 0.0, 0.0, 0.0, 0.0, 0.107378655152, -0.0444854428487, 0.0, -0.0567572891518, 0.00153398078789, -0.0230097118183, 0.0
1.512, 0.147320404807, -0.2, 0.0, 0.0, 0.0, 0.0, 0.0, 0.107378655152, -0.0444854428487, 0.0, -0.0567572891518, 0.00153398078789, -0.0230097118183, 0.0
1.516, 0.143713693887, -0.2, 0.0, 0.0, 0.0, 0.0, 0.0, 0.105844674364, -0.0460194236366, 0.00460194236366, -0.0628932123033, 0.00153398078789, -0.0199417502425, -0.00306796157577
1.52, 0.140098813037, -0.2, 0.0, 0.0, 0.0, 0.0, 0.0, 0.10891263594, -0.0475534044245, -0.00153398078789, -0.0582912699397, 0.0, -0.0199417502425, -0.00306796157577
1.524, 0.136475967759, -0.2, 0.0, 0.0, 0.0, 0.0, 0.0, 0.105844674364, -0.0444854428487, 0.00153398078789, -0.0567572891518, 0.00306796157577, -0.0184077694546, 0.0
1.528, 0.132845364005, -0.2, 0.0, 0.0, 0.0, 0.0, 0.0, 0.107378655152, -0.0460194236366, 0.00460194236366, -0.0628932123033, 0.00460194236366, -0.0245436926062, 0.00306796157577
1.532, 0.129207208172, -0.2, 0.0, 0.0, 0.0, 0.0, 0.0, 0.110446616728, -0.0444854428487, 0.00460194236366, -0.0613592315154, 0.0, -0.0245436926062, 0.00153398078789
1.536, 0.125561707083, -0.2, 0.0, 0.0, 0.0, 0.0, 0.0, 0.107378655152, -0.0460194236366, 0.0, -0.0628932123033, 0.00306796157577, -0.0245436926062, 0.00153398078789
1.54, 0.121909067981, -0.2, 0.0, 0.0, 0.0, 0.0, 0.0, 0.107378655152, -0.0460194236366, 0.00306796157577, -0.0598252507275, 0.00153398078789, -0.0184077694546, -0.00306796157577
1.544, 0.118249498512, -0.2, 0.0, 0.0, 0.0, 0.0, 0.0, 0.111980597516, -0.0444854428487, 0.00153398078789, -0.0598252507275, 0.00460194236366, -0.0214757310304, 0.00153398078789
1.548, 0.114583206718, -0.2, 0.0, 0.0, 0.0, 0.0, 0.0, 0.105844674364, -0.0506213660002, -0.00153398078789, -0.0582912699397, 0.00153398078789, -0.0214757310304, -0.00153398078789
1.552, 0.110910401024, -0.2, 0.0, 0.0, 0.0, 0.0, 0.0, 0.110446616728, -0.0444854428487, 0.00153398078789, -0.0567572891518, 0.00460194236366, -0.0230097118183, 0.0
1.556, 0.107231290223, -0.2, 0.0, 0.0, 0.0, 0.0, 0.0, 0.105844674364, -0.0521553467881, 0.00153398078789, -0.0582912699397, -0.00153398078789, -0.0214757310304, 0.00153398078789
1.56, 0.103546083468, -0.2, 0.0, 0.0, 0.0, 0.0, 0.0, 0.105844674364, -0.0490873852123, 0.00460194236366, -0.0582912699397, 0.00460194236366, -0.0199417502425, -0.00153398078789
1.564, 0.0998549902572, -0.2, 0.0, 0.0, 0.0, 0.0, 0.0, 0.105844674364, -0.0506213660002, 0.00306796157577, -0.0582912699397, 0.00460194236366, -0.0199417502425, 0.0
1.568, 0.096158220425, -0.2, 0.0, 0.0, 0.0, 0.0, 0.0, 0.105844674364, -0.0475534044245, 0.0, -0.0613592315154, -0.00153398078789, -0.0184077694546, -0.00153398078789
1.572, 0.0924559841276, -0.2, 0.0, 0.0, 0.0, 0.0, 0.0, 0.111980597516, -0.0521553467881, 0.0, -0.0582912699397, 0.0, -0.0245436926062, 0.0
1.576, 0.0887484918321, -0.2, 0.0, 0.0, 0.0, 0.0, 0.0, 0.110446616728, -0.0521553467881, -0.00153398078789, -0.0567572891518, 0.00306796157577, -0.0199417502425, 0.00306796157577
1.58, 0.0850359543044, -0.2, 0.0, 0.0, 0.0, 0.0, 0.0, 0.113514578304, -0.0490873852123, 0.0, -0.0582912699397, 0.00460194236366, -0.0184077694546, 0.00153398078789
1.584, 0.0813185825974, -0.2, 0.0, 0.0, 0.0, 0.0, 0.0, 0.113514578304, -0.0490873852123, 0.00306796157577, -0.0598252507275, 0.00306796157577, -0.0245436926062, -0.00153398078789
1.588, 0.0775965880386, -0.2, 0.0, 0.0, 0.0, 0.0, 0.0, 0.107378655152, -0.0521553467881, 0.00153398078789, -0.0613592315154, -0.00153398078789, -0.0230097118183, -0.00306796157577
1.592, 0.0738701822184, -0.2, 0.0, 0.0, 0.0, 0.0, 0.0, 0.113514578304, -0.0506213660002, 0.00153398078789, -0.0567572891518, 0.00306796157577, -0.0184077694546, -0.00153398078789
1.596, 0.0701395769779, -0.2, 0.0, 0.0, 0.0, 0.0, 0.0, 0.110446616728, -0.053689327576, 0.00153398078789, -0.0567572891518, 0.00153398078789, -0.0214757310304, 0.00153398078789
1.6, 0.0664049843969, -0.2, 0.0, 0.0, 0.0, 0.0, 0.0, 0.10891263594, -0.0521553467881, 0.00153398078789, -0.0552233083639, 0.00306796157577, -0.0199417502425, 0.0
1.604, 0.0626666167822, -0.2, 0.0, 0.0, 0.0, 0.0, 0.0, 0.10891263594, -0.0490873852123, -0.00153398078789, -0.0598252507275, 0.0, -0.0245436926062, -0.00153398078789
1.608, 0.0589246866547, -0.2, 0.0, 0.0, 0.0, 0.0, 0.0, 0.110446616728, -0.0475534044245, 0.0, -0.0613592315154, 0.00153398078789, -0.0184077694546, -0.00306796157577
1.612, 0.0551794067382, -0.2, 0.0, 0.0, 0.0, 0.0, 0.0, 0.107378655152, -0.0506213660002, -0.00153398078789, -0.0598252507275, 0.0, -0.0230097118183, 0.00306796157577
1.616, 0.0514309899468, -0.2, 0.0, 0.0, 0.0, 0.0, 0.0, 0.10891263594, -0.0521553467881, 0.00460194236366, -0.0613592315154, 0.00306796157577, -0.0230097118183, 0.0
1.62, 0.047679649373, -0.2, 0.0, 0.0, 0.0, 0.0, 0.0, 0.113514578304, -0.0521553467881, -0.00153398078789, -0.0582912699397, -0.00153398078789, -0.0184077694546, -0.00306796157577
1.624, 0.0439255982754, -0.2, 0.0, 0.0, 0.0, 0.0, 0.0, 0.107378655152, -0.0552233083639, 0.00153398078789, -0.0552233083639, 0.00306796157577, -0.0199417502425, 0.00306796157577
1.628, 0.0401690500667, -0.2, 0.0, 0.0, 0.0, 0.0, 0.0, 0.10891263594, -0.053689327576, 0.00460194236366, -0.0598252507275, 0.00306796157577, -0.0230097118183, -0.00153398078789
1.632, 0.0364102183017, -0.2, 0.0, 0.0, 0.0, 0.0, 0.0, 0.113514578304, -0.0490873852123, 0.00153398078789, -0.0552233083639, 0.00153398078789, -0.0230097118183, -0.00306796157577
1.636, 0.0326493166648, -0.2, 0.0, 0.0, 0.0, 0.0, 0.0, 0.10891263594, -0.0552233083639, 0.00306796157577, -0.0552233083639, 0.0, -0.0230097118183, -0.00306796157577
1.64, 0.0288865589583, -0.2, 0.0, 0.0, 0.0, 0.0, 0.0, 0.113514578304, -0.0490873852123, -0.00153398078789, -0.0598252507275, 0.00153398078789, -0.0199417502425, -0.00306796157577
1.644, 0.0251221590899, -0.2, 0.0, 0.0, 0.0, 0.0, 0.0, 0.111980597516, -0.0506213660002, 0.00460194236366, -0.0598252507275, 0.00306796157577, -0.0214757310304, -0.00306796157577
1.648, 0.0213563310606, -0.2, 0.0, 0.0, 0.0, 0.0, 0.0, 0.110446616728, -0.0552233083639, 0.00306796157577, -0.0598252507275, 0.00306796157577, -0.0245436926062, -0.00306796157577
1.652, 0.0175892889526, -0.2, 0.0, 0.0, 0.0, 0.0, 0.0, 0.10891263594, -0.0521553467881, 0.00460194236366, -0.0582912699397, 0.00153398078789, -0.0184077694546, -0.00306796157577
1.656, 0.0138212469173, -0.2, 0.0, 0.0, 0.0, 0.0, 0.0, 0.115048559091, -0.0521553467881, 0.00460194236366, -0.0567572891518, 0.00153398078789, -0.0199417502425, 0.00153398078789
1.66, 0.0100524191627, -0.2, 0.0, 0.0, 0.0, 0.0, 0.0, 0.111980597516, -0.0567572891518, -0.00153398078789, -0.0613592315154, 0.00306796157577, -0.0184077694546, 0.00306796157577
1.664, 0.00628301994168, -0.2, 0.0, 0.0, 0.0, 0.0, 0.0, 0.10891263594, -0.0506213660002, 0.00306796157577, -0.0598252507275, -0.00153398078789, -0.0199417502425, -0.00306796157577
1.668, 0.00251326353941, -0.2, 0.0, 0.0, 0.0, 0.0, 0.0, 0.111980597516, -0.0506213660002, 0.0, -0.0598252507275, 0.00460194236366, -0.0184077694546, 0.00306796157577
1.672, -0.0012566357385, -0.2, 0.0, 0.0, 0.0, 0.0, 0.0, 0.10891263594, -0.0521553467881, 0.00460194236366, -0.0582912699397, 0.0, -0.0199417502425, 0.0
1.676, -0.00502646357837, -0.2, 0.0, 0.0, 0.0, 0.0, 0.0, 0.110446616728, -0.0552233083639, 0.0, -0.0582912699397, 0.00460194236366, -0.0199417502425, -0.00306796157577
1.68, -0.00879600567055, -0.2, 0.0, 0.0, 0.0, 0.0, 0.0, 0.115048559091, -0.053689327576, 0.00460194236366, -0.0567572891518, 0.0, -0.0230097118183, 0.0
1.684, -0.0125650477217, -0.2, 0.0, 0.0, 0.0, 0.0, 0.0, 0.10891263594, -0.0552233083639, 0.00153398078789, -0.0552233083639, 0.00306796157577, -0.0199417502425, 0.0
1.688, -0.0163333754668, -0.2, 0.0, 0.0, 0.0, 0.0, 0.0, 0.10891263594, -0.0521553467881, 0.00306796157577, -0.0552233083639, 0.0, -0.0245436926062, 0.0
1.692, -0.0201007746815, -0.2, 0.0, 0.0, 0.0, 0.0, 0.0, 0.110446616728, -0.0521553467881, -0.00153398078789, -0.0552233083639, -0.00153398078789, -0.0245436926062, 0.0
1.696, -0.0238670311942, -0.2, 0.0, 0.0, 0.0, 0.0, 0.0, 0.115048559091, -0.0567572891518, 0.0, -0.0567572891518, 0.00460194236366, -0.0245436926062, -0.00153398078789
1.7, -0.0276319308985, -0.2, 0.0, 0.0, 0.0, 0.0, 0.0, 0.111980597516, -0.0567572891518, 0.00306796157577, -0.0567572891518, 0.00306796157577, -0.0245436926062, -0.00153398078789
1.704, -0.0313952597647, -0.2, 0.0, 0.0, 0.0, 0.0, 0.0, 0.10891263594, -0.0567572891518, 0.00306796157577, -0.0567572891518, 0.00460194236366, -0.0230097118183, 0.00153398078789
1.708, -0.0351568038527, -0.2, 0.0, 0.0, 0.0, 0.0, 0.0, 0.113514578304, -0.0567572891518, 0.0, -0.0598252507275, 0.00306796157577, -0.0199417502425, 0.00153398078789
1.712, -0.0389163493237, -0.2, 0.0, 0.0, 0.0, 0.0, 0.0, 0.113514578304, -0.0552233083639, 0.0, -0.0567572891518, 0.00306796157577, -0.0199417502425, 0.0
1.716, -0.0426736824528, -0.2, 0.0, 0.0, 0.0, 0.0, 0.0, 0.113514578304, -0.0521553467881, 0.00153398078789, -0.0582912699397, 0.00460194236366, -0.0230097118183, 0.00306796157577
1.72, -0.0464285896406, -0.2, 0.0, 0.0, 0.0, 0.0, 0.0, 0.10891263594, -0.053689327576, -0.00153398078789, -0.0582912699397, 0.0, -0.0184077694546, -0.00153398078789
1.724, -0.0501808574256, -0.2, 0.0, 0.0, 0.0, 0.0, 0.0, 0.111980597516, -0.0582912699397, 0.0, -0.0521553467881, 0.00153398078789, -0.0214757310304, 0.00153398078789
1.728, -0.0539302724965, -0.2, 0.0, 0.0, 0.0, 0.0, 0.0, 0.111980597516, -0.053689327576, 0.0, -0.0521553467881, 0.00460194236366, -0.0168737886667, -0.00153398078789
1.732, -0.0576766217042, -0.2, 0.0, 0.0, 0.0, 0.0, 0.0, 0.111980597516, -0.053689327576, -0.00153398078789, -0.0521553467881, 0.00306796157577, -0.0199417502425, -0.00153398078789
1.736, -0.0614196920736, -0.2, 0.0, 0.0, 0.0, 0.0, 0.0, 0.111980597516, -0.0582912699397, 0.0, -0.0552233083639, 0.00460194236366, -0.0199417502425, -0.00153398078789
1.74, -0.0651592708163, -0.2, 0.0, 0.0, 0.0, 0.0, 0.0, 0.111980597516, -0.0552233083639, 0.00306796157577, -0.0552233083639, 0.00460194236366, -0.0184077694546, -0.00153398078789
1.744, -0.0688951453423, -0.2, 0.0, 0.0, 0.0, 0.0, 0.0, 0.115048559091, -0.0598252507275, 0.0, -0.053689327576, 0.00460194236366, -0.0168737886667, 0.00306796157577
1.748, -0.0726271032722, -0.2, 0.0, 0.0, 0.0, 0.0, 0.0, 0.10891263594, -0.0552233083639, 0.0, -0.0582912699397, 0.0, -0.0168737886667, -0.00153398078789
1.752, -0.0763549324491, -0.2, 0.0, 0.0, 0.0, 0.0, 0.0, 0.115048559091, -0.0582912699397, 0.0, -0.0521553467881, 0.00306796157577, -0.0230097118183, -0.00306796157577
1.756, -0.0800784209511, -0.2, 0.0, 0.0, 0.0, 0.0, 0.0, 0.111980597516, -0.0567572891518, -0.00153398078789, -0.0552233083639, 0.00306796157577, -0.0168737886667, -0.00153398078789
1.76, -0.0837973571028, -0.2, 0.0, 0.0, 0.0, 0.0, 0.0, 0.113514578304, -0.0552233083639, 0.00153398078789, -0.0552233083639, 0.00153398078789, -0.0199417502425, 0.0
1.764, -0.0875115294876, -0.2, 0.0, 0.0, 0.0, 0.0, 0.0, 0.110446616728, -0.0582912699397, 0.00306796157577, -0.053689327576, 0.00306796157577, -0.0199417502425, 0.00306796157577
1.768, -0.09122072696, -0.2, 0.0, 0.0, 0.0, 0.0, 0.0, 0.111980597516, -0.0598252507275, 0.00306796157577, -0.0521553467881, -0.00153398078789, -0.0199417502425, -0.00306796157577
1.772, -0.094924738657, -0.2, 0.0, 0.0, 0.0, 0.0, 0.0, 0.111980597516, -0.0598252507275, 0.00153398078789, -0.0567572891518, 0.00306796157577, -0.0168737886667, -0.00153398078789
1.776, -0.0986233540106, -0.2, 0.0, 0.0, 0.0, 0.0, 0.0, 0.113514578304, -0.0552233083639, -0.00153398078789, -0.0521553467881, 0.00306796157577, -0.0199417502425, 0.0
1.78, -0.102316362759, -0.2, 0.0, 0.0, 0.0, 0.0, 0.0, 0.113514578304, -0.0613592315154, 0.00460194236366, -0.0552233083639, 0.00460194236366, -0.0168737886667, -0.00306796157577
1.784, -0.106003554961, -0.2, 0.0, 0.0, 0.0, 0.0, 0.0, 0.113514578304, -0.0613592315154, 0.00460194236366, -0.0567572891518, -0.00153398078789, -0.0184077694546, 0.00153398078789
1.788, -0.109684721003, -0.2, 0.0, 0.0, 0.0, 0.0, 0.0, 0.111980597516, -0.0598252507275, -0.00153398078789, -0.0506213660002, 0.0, -0.0214757310304, 0.00306796157577
1.792, -0.113359651617, -0.2, 0.0, 0.0, 0.0, 0.0, 0.0, 0.107378655152, -0.0567572891518, 0.00460194236366, -0.0490873852123, 0.0, -0.0230097118183, 0.00153398078789
1.796, -0.117028137888, -0.2, 0.0, 0.0, 0.0, 0.0, 0.0, 0.107378655152, -0.0628932123033, 0.00306796157577, -0.0521553467881, 0.00153398078789, -0.0214757310304, -0.00153398078789
1.8, -0.120689971266, -0.2, 0.0, 0.0, 0.0, 0.0, 0.0, 0.110446616728, -0.0582912699397, 0.00460194236366, -0.053689327576, 0.00153398078789, -0.0199417502425, -0.00153398078789
1.804, -0.124344943582, -0.2, 0.0, 0.0, 0.0, 0.0, 0.0, 0.113514578304, -0.0598252507275, 0.0, -0.053689327576, 0.00306796157577, -0.0214757310304, 0.00306796157577
1.808, -0.127992847056, -0.2, 0.0, 0.0, 0.0, 0.0, 0.0, 0.110446616728, -0.0582912699397, 0.0, -0.0490873852123, 0.0, -0.0168737886667, -0.00153398078789
1.812, -0.131633474309, -0.2, 0.0, 0.0, 0.0, 0.0, 0.0, 0.111980597516, -0.0598252507275, 0.00306796157577, -0.0552233083639, 0.00306796157577, -0.0214757310304, -0.00306796157577
1.816, -0.135266618377, -0.2, 0.0, 0.0, 0.0, 0.0, 0.0, 0.111980597516, -0.0582912699397, 0.00460194236366, -0.0506213660002, 0.00153398078789, -0.0214757310304, 0.00153398078789
1.82, -0.13889207272, -0.2, 0.0, 0.0, 0.0, 0.0, 0.0, 0.107378655152, -0.0567572891518, 0.00306796157577, -0.0490873852123, 0.0, -0.0168737886667, 0.0
1.824, -0.142509631235, -0.2, 0.0, 0.0, 0.0, 0.0, 0.0, 0.107378655152, -0.0567572891518, 0.00460194236366, -0.0490873852123, 0.00460194236366, -0.0153398078789, -0.00306796157577
1.828, -0.14611908827, -0.2, 0.0, 0.0, 0.0, 0.0, 0.0, 0.111980597516, -0.0628932123033, 0.00306796157577, -0.053689327576, 0.00460194236366, -0.0168737886667, -0.00306796157577
1.832, -0.149720238632, -0.2, 0.0, 0.0, 0.0, 0.0, 0.0, 0.10891263594, -0.0598252507275, 0.00306796157577, -0.053689327576, 0.00460194236366, -0.0214757310304, -0.00306796157577
1.836, -0.1533128776, -0.2, 0.0, 0.0, 0.0, 0.0, 0.0, 0.107378655152, -0.0582912699397, -0.00153398078789, -0.0521553467881, 0.00153398078789, -0.0153398078789, -0.00306796157577
1.84, -0.156896800938, -0.2, 0.0, 0.0, 0.0, 0.0, 0.0, 0.10891263594, -0.0598252507275, 0.00306796157577, -0.0506213660002, 0.00153398078789, -0.0199417502425, -0.00153398078789
1.844, -0.160471804904, -0.2, 0.0, 0.0, 0.0, 0.0, 0.0, 0.107378655152, -0.0613592315154, 0.00153398078789, -0.0521553467881, 0.00306796157577, -0.0184077694546, 0.00153398078789
1.848, -0.164037686264, -0.2, 0.0, 0.0, 0.0, 0.0, 0.0, 0.10891263594, -0.0582912699397, -0.00153398078789, -0.0460194236366, 0.00153398078789, -0.0168737886667, 0.00306796157577
1.852, -0.167594242303, -0.2, 0.0, 0.0, 0.0, 0.0, 0.0, 0.105844674364, -0.0644271930912, -0.00153398078789, -0.0490873852123, 0.0, -0.0153398078789, 0.00153398078789
1.856, -0.171141270835, -0.2, 0.0, 0.0, 0.0, 0.0, 0.0, 0.104310693576, -0.0598252507275, 0.00153398078789, -0.0490873852123, 0.00460194236366, -0.0214757310304, -0.00306796157577
1.86, -0.174678570216, -0.2, 0.0, 0.0, 0.0, 0.0, 0.0, 0.107378655152, -0.0582912699397, 0.00306796157577, -0.0475534044245, 0.00153398078789, -0.0153398078789, 0.00153398078789
1.864, -0.178205939357, -0.2, 0.0, 0.0, 0.0, 0.0, 0.0, 0.105844674364, -0.0598252507275, -0.00153398078789, -0.0521553467881, 0.00306796157577, -0.0168737886667, -0.00153398078789
1.868, -0.181723177729, -0.2, 0.0, 0.0, 0.0, 0.0, 0.0, 0.105844674364, -0.0613592315154, 0.00306796157577, -0.0475534044245, 0.0, -0.0153398078789, 0.00153398078789
1.872, -0.185230085385, -0.2, 0.0, 0.0, 0.0, 0.0, 0.0, 0.104310693576, -0.0628932123033, 0.0, -0.0475534044245, 0.00460194236366, -0.0184077694546, -0.00153398078789
1.876, -0.188726462959, -0.2, 0.0, 0.0, 0.0, 0.0, 0.0, 0.107378655152, -0.0659611738791, -0.00153398078789, -0.0460194236366, 0.0, -0.0153398078789, -0.00153398078789
1.88, -0.192212111689, -0.2, 0.0, 0.0, 0.0, 0.0, 0.0, 0.107378655152, -0.0644271930912, -0.00153398078789, -0.0490873852123, -0.00153398078789, -0.0168737886667, -0.00306796157577
1.884, -0.195686833419, -0.2, 0.0, 0.0, 0.0, 0.0, 0.0, 0.104310693576, -0.0644271930912, 0.00153398078789, -0.0475534044245, 0.00460194236366, -0.0199417502425, -0.00306796157577
1.888, -0.199150430616, -0.2, 0.0, 0.0, 0.0, 0.0, 0.0, 0.107378655152, -0.0659611738791, 0.0, -0.0444854428487, 0.00460194236366, -0.0153398078789, -0.00153398078789
1.892, -0.20260270638, -0.2, 0.0, 0.0, 0.0, 0.0, 0.0, 0.107378655152, -0.0644271930912, 0.00460194236366, -0.0475534044245, 0.00153398078789, -0.0168737886667, 0.00153398078789
1.896, -0.206043464453, -0.2, 0.0, 0.0, 0.0, 0.0, 0.0, 0.105844674364, -0.0613592315154, 0.00306796157577, -0.0444854428487, -0.00153398078789, -0.0184077694546, 0.00306796157577
1.9, -0.209472509233, -0.2, 0.0, 0.0, 0.0, 0.0, 0.0, 0.102776712788, -0.0659611738791, 0.00460194236366, -0.0460194236366, 0.00153398078789, -0.0168737886667, 0.00306796157577
1.904, -0.212889645783, -0.2, 0.0, 0.0, 0.0, 0.0, 0.0, 0.105844674364, -0.0598252507275, 0.00153398078789, -0.0475534044245, -0.00153398078789, -0.0168737886667, -0.00306796157577
1.908, -0.216294679843, -0.2, 0.0, 0.0, 0.0, 0.0, 0.0, 0.107378655152, -0.0659611738791, 0.00460194236366, -0.0444854428487, 0.0, -0.0199417502425, 0.00153398078789
1.912, -0.219687417843, -0.2, 0.0, 0.0, 0.0, 0.0, 0.0, 0.104310693576, -0.0644271930912, -0.00306796157577, -0.0475534044245, -0.00153398078789, -0.0184077694546, 0.0
1.916, -0.223067666909, -0.2, 0.0, 0.0, 0.0, 0.0, 0.0, 0.107378655152, -0.0659611738791, -0.00306796157577, -0.0475534044245, -0.00153398078789, -0.013805827091, 0.00153398078789
1.92, -0.226435234879, -0.2, 0.0, 0.0, 0.0, 0.0, 0.0, 0.102776712788, -0.0644271930912, 0.0, -0.0414174812729, 0.00153398078789, -0.0168737886667, 0.00153398078789
1.924, -0.229789930311, -0.2, 0.0, 0.0, 0.0, 0.0, 0.0, 0.107378655152, -0.0659611738791, 0.00306796157577, -0.0429514620608, -0.00153398078789, -0.013805827091, -0.00153398078789
1.928, -0.233131562495, -0.2, 0.0, 0.0, 0.0, 0.0, 0.0, 0.107378655152, -0.067495154667, -0.00153398078789, -0.0414174812729, 0.00306796157577, -0.0153398078789, 0.00153398078789
1.932, -0.236459941464, -0.2, 0.0, 0.0, 0.0, 0.0, 0.0, 0.101242732, -0.0659611738791, -0.00306796157577, -0.0475534044245, -0.00153398078789, -0.0168737886667, 0.00153398078789
1.936, -0.239774878004, -0.2, 0.0, 0.0, 0.0, 0.0, 0.0, 0.102776712788, -0.0613592315154, -0.00153398078789, -0.039883500485, 0.00460194236366, -0.0184077694546, 0.00306796157577
1.94, -0.243076183666, -0.2, 0.0, 0.0, 0.0, 0.0, 0.0, 0.101242732, -0.0613592315154, 0.00306796157577, -0.0444854428487, -0.00153398078789, -0.0153398078789, 0.00306796157577
1.944, -0.246363670774, -0.2, 0.0, 0.0, 0.0, 0.0, 0.0, 0.0997087512126, -0.0644271930912, -0.00153398078789, -0.0460194236366, 0.0, -0.0122718463031, 0.0
1.948, -0.24963715244, -0.2, 0.0, 0.0, 0.0, 0.0, 0.0, 0.0997087512126, -0.0613592315154, 0.0, -0.0444854428487, -0.00153398078789, -0.0184077694546, -0.00153398078789
1.952, -0.25289644257, -0.2, 0.0, 0.0, 0.0, 0.0, 0.0, 0.0997087512126, -0.0644271930912, 0.00306796157577, -0.0429514620608, 0.00153398078789, -0.0122718463031, 0.0
1.956, -0.256141355878, -0.2, 0.0, 0.0, 0.0, 0.0, 0.0, 0.0981747704247, -0.0659611738791, 0.00153398078789, -0.039883500485, -0.00153398078789, -0.0153398078789, 0.0
1.96, -0.259371707895, -0.2, 0.0, 0.0, 0.0, 0.0, 0.0, 0.0997087512126, -0.0628932123033, 0.00153398078789, -0.0429514620608, 0.00153398078789, -0.0153398078789, 0.00153398078789
1.964, -0.262587314981, -0.2, 0.0, 0.0, 0.0, 0.0, 0.0, 0.101242732, -0.0659611738791, -0.00306796157577, -0.0383495196971, 0.00153398078789, -0.0168737886667, -0.00306796157577
1.968, -0.265787994331, -0.2, 0.0, 0.0, 0.0, 0.0, 0.0, 0.102776712788, -0.0659611738791, 0.0, -0.039883500485, 0.0, -0.013805827091, 0.00153398078789
1.972, -0.268973563992, -0.2, 0.0, 0.0, 0.0, 0.0, 0.0, 0.102776712788, -0.0644271930912, -0.00153398078789, -0.0444854428487, 0.00153398078789, -0.013805827091, 0.00153398078789
1.976, -0.272143842869, -0.2, 0.0, 0.0, 0.0, 0.0, 0.0, 0.0966407896368, -0.067495154667, 0.00153398078789, -0.0414174812729, 0.00153398078789, -0.013805827091, 0.0
1.98, -0.275298650735, -0.2, 0.0, 0.0, 0.0, 0.0, 0.0, 0.102776712788, -0.0628932123033, 0.00153398078789, -0.0368155389093, 0.00460194236366, -0.0153398078789, 0.0
1.984, -0.278437808244, -0.2, 0.0, 0.0, 0.0, 0.0, 0.0, 0.0997087512126, -0.0628932123033, 0.00306796157577, -0.0414174812729, 0.0, -0.013805827091, 0.0
1.988, -0.281561136939, -0.2, 0.0, 0.0, 0.0, 0.0, 0.0, 0.101242732, -0.067495154667, 0.00306796157577, -0.0383495196971, 0.00460194236366, -0.0107378655152, 0.00306796157577
1.992, -0.284668459263, -0.2, 0.0, 0.0, 0.0, 0.0, 0.0, 0.0981747704247, -0.0644271930912, -0.00306796157577, -0.0429514620608, 0.00153398078789, -0.013805827091, 0.0
1.996, -0.287759598568, -0.2, 0.0, 0.0, 0.0, 0.0, 0.0, 0.0966407896368, -0.0628932123033, -0.00153398078789, -0.0352815581214, 0.00153398078789, -0.0107378655152, -0.00153398078789
2.0, -0.290834379128, -0.2, 0.0, 0.0, 0.0, 0.0, 0.0, 0.0966407896368, -0.0690291354549, 0.0, -0.0352815581214, 0.00306796157577, -0.0107378655152, 0.0
2.004, -0.293892626146, -0.2, 0.0, 0.0, 0.0, 0.0, 0.0, 0.0966407896368, -0.0659611738791, 0.00153398078789, -0.0383495196971, 0.00460194236366, -0.0107378655152, -0.00153398078789
2.008, -0.296934165764, -0.2, 0.0, 0.0, 0.0, 0.0, 0.0, 0.0981747704247, -0.0659611738791, 0.00153398078789, -0.039883500485, 0.00153398078789, -0.00920388472731, 0.0
2.012, -0.299958825076, -0.2, 0.0, 0.0, 0.0, 0.0, 0.0, 0.0997087512126, -0.0705631162427, 0.0, -0.0414174812729, 0.00153398078789, -0.0122718463031, 0.00306796157577
2.016, -0.302966432132, -0.2, 0.0, 0.0, 0.0, 0.0, 0.0, 0.0951068088489, -0.0659611738791, 0.0, -0.0352815581214, 0.0, -0.00920388472731, -0.00153398078789
2.02, -0.305956815955, -0.2, 0.0, 0.0, 0.0, 0.0, 0.0, 0.0920388472731, -0.0659611738791, -0.00306796157577, -0.0383495196971, -0.00153398078789, -0.0153398078789, 0.0
2.024, -0.308929806545, -0.2, 0.0, 0.0, 0.0, 0.0, 0.0, 0.0981747704247, -0.0690291354549, 0.0, -0.039883500485, 0.00460194236366, -0.00920388472731, 0.00153398078789
2.028, -0.311885234892, -0.2, 0.0, 0.0, 0.0, 0.0, 0.0, 0.0920388472731, -0.0659611738791, -0.00306796157577, -0.0368155389093, 0.00306796157577, -0.0107378655152, -0.00153398078789
2.032, -0.314822932985, -0.2, 0.0, 0.0, 0.0, 0.0, 0.0, 0.0905048664853, -0.0705631162427, 0.00306796157577, -0.0368155389093, 0.00306796157577, -0.0153398078789, 0.00306796157577
2.036, -0.317742733817, -0.2, 0.0, 0.0, 0.0, 0.0, 0.0, 0.093572828061, -0.0690291354549, -0.00153398078789, -0.0322135965456, 0.00306796157577, -0.0153398078789, 0.00153398078789
2.04, -0.320644471404, -0.2, 0.0, 0.0, 0.0, 0.0, 0.0, 0.093572828061, -0.067495154667, 0.0, -0.0383495196971, 0.0, -0.013805827091, 0.0
2.044, -0.323527980785, -0.2, 0.0, 0.0, 0.0, 0.0, 0.0, 0.0951068088489, -0.0659611738791, 0.00153398078789, -0.0337475773335, 0.00460194236366, -0.013805827091, 0.00306796157577
2.048, -0.326393098036, -0.2, 0.0, 0.0, 0.0, 0.0, 0.0, 0.0951068088489, -0.0659611738791, 0.00306796157577, -0.0368155389093, 0.00153398078789, -0.00766990393943, 0.00153398078789
2.052, -0.329239660279, -0.2, 0.0, 0.0, 0.0, 0.0, 0.0, 0.0920388472731, -0.0690291354549, -0.00306796157577, -0.0352815581214, -0.00153398078789, -0.0122718463031, 0.0
2.056, -0.332067505692, -0.2, 0.0, 0.0, 0.0, 0.0, 0.0, 0.0951068088489, -0.0690291354549, 0.00153398078789, -0.0337475773335, -0.00153398078789, -0.00766990393943, -0.00306796157577
2.06, -0.334876473514, -0.2, 0.0, 0.0, 0.0, 0.0, 0.0, 0.0905048664853, -0.0705631162427, 0.0, -0.0368155389093, -0.00153398078789, -0.00920388472731, 0.00306796157577
2.064, -0.337666404061, -0.2, 0.0, 0.0, 0.0, 0.0, 0.0, 0.093572828061, -0.0705631162427, 0.00306796157577, -0.0322135965456, 0.0, -0.00766990393943, -0.00153398078789
2.068, -0.340437138727, -0.2, 0.0, 0.0, 0.0, 0.0, 0.0, 0.0889708856974, -0.0720970970306, -0.00306796157577, -0.0352815581214, 0.00153398078789, -0.00920388472731, -0.00153398078789
2.072, -0.343188520001, -0.2, 0.0, 0.0, 0.0, 0.0, 0.0, 0.0920388472731, -0.067495154667, 0.00306796157577, -0.0337475773335, 0.00153398078789, -0.0122718463031, -0.00306796157577
2.076, -0.34592039147, -0.2, 0.0, 0.0, 0.0, 0.0, 0.0, 0.0905048664853, -0.067495154667, 0.0, -0.0322135965456, 0.00153398078789, -0.0107378655152, -0.00306796157577
2.08, -0.348632597831, -0.2, 0.0, 0.0, 0.0, 0.0, 0.0, 0.0889708856974, -0.0705631162427, 0.00306796157577, -0.0337475773335, 0.00306796157577, -0.0122718463031, 0.00153398078789
2.084, -0.351324984899, -0.2, 0.0, 0.0, 0.0, 0.0, 0.0, 0.0889708856974, -0.0720970970306, 0.00306796157577, -0.0337475773335, 0.00460194236366, -0.0122718463031, 0.00153398078789
2.088, -0.353997399616, -0.2, 0.0, 0.0, 0.0, 0.0, 0.0, 0.0859029241216, -0.0705631162427, -0.00153398078789, -0.0291456349698, -0.00153398078789, -0.0122718463031, 0.00306796157577
2.092, -0.356649690057, -0.2, 0.0, 0.0, 0.0, 0.0, 0.0, 0.0843689433337, -0.067495154667, -0.00306796157577, -0.0337475773335, 0.00306796157577, -0.0122718463031, 0.0
2.096, -0.359281705444, -0.2, 0.0, 0.0, 0.0, 0.0, 0.0, 0.0889708856974, -0.0720970970306, 0.0, -0.0276116541819, 0.00153398078789, -0.00920388472731, 0.0
2.1, -0.36189329615, -0.2, 0.0, 0.0, 0.0, 0.0, 0.0, 0.0859029241216, -0.067495154667, -0.00153398078789, -0.0306796157577, 0.00460194236366, -0.0107378655152, 0.00153398078789
2.104, -0.364484313711, -0.2, 0.0, 0.0, 0.0, 0.0, 0.0, 0.0874369049095, -0.0720970970306, 0.0, -0.0322135965456, 0.00153398078789, -0.00766990393943, 0.00153398078789
2.108, -0.367054610829, -0.2, 0.0, 0.0, 0.0, 0.0, 0.0, 0.0843689433337, -0.0705631162427, -0.00153398078789, -0.0260776733941, 0.00306796157577, -0.00766990393943, 0.0
2.112, -0.369604041388, -0.2, 0.0, 0.0, 0.0, 0.0, 0.0, 0.0813009817579, -0.0736310778185, 0.00306796157577, -0.0291456349698, 0.0, -0.00460194236366, 0.00153398078789
2.116, -0.372132460455, -0.2, 0.0, 0.0, 0.0, 0.0, 0.0, 0.0874369049095, -0.0705631162427, 0.0, -0.0306796157577, 0.0, -0.00766990393943, 0.00306796157577
2.12, -0.374639724293, -0.2, 0.0, 0.0, 0.0, 0.0, 0.0, 0.0813009817579, -0.0720970970306, -0.00153398078789, -0.0291456349698, -0.00153398078789, -0.00920388472731, -0.00306796157577
2.124, -0.377125690368, -0.2, 0.0, 0.0, 0.0, 0.0, 0.0, 0.0797670009701, -0.0690291354549, 0.00306796157577, -0.0260776733941, 0.00306796157577, -0.00920388472731, -0.00306796157577
2.128, -0.379590217356, -0.2, 0.0, 0.0, 0.0, 0.0, 0.0, 0.0797670009701, -0.0690291354549, 0.00153398078789, -0.0291456349698, 0.00306796157577, -0.0107378655152, -0.00306796157577
2.132, -0.382033165152, -0.2, 0.0, 0.0, 0.0, 0.0, 0.0, 0.0828349625458, -0.067495154667, 0.00153398078789, -0.0260776733941, 0.00153398078789, -0.00613592315154, 0.00153398078789
2.136, -0.384454394877, -0.2, 0.0, 0.0, 0.0, 0.0, 0.0, 0.0782330201822, -0.0736310778185, -0.00153398078789, -0.0276116541819, 0.00460194236366, -0.00766990393943, 0.00153398078789
2.14, -0.386853768888, -0.2, 0.0, 0.0, 0.0, 0.0, 0.0, 0.0828349625458, -0.0705631162427, -0.00460194236366, -0.0276116541819, 0.0, -0.00306796157577, -0.00153398078789
2.144, -0.389231150784, -0.2, 0.0, 0.0, 0.0, 0.0, 0.0, 0.0828349625458, -0.0720970970306, -0.00460194236366, -0.0245436926062, 0.00306796157577, -0.00613592315154, 0.00153398078789
2.148, -0.391586405413, -0.2, 0.0, 0.0, 0.0, 0.0, 0.0, 0.0766990393943, -0.067495154667, 0.00153398078789, -0.0230097118183, 0.00306796157577, -0.00613592315154, 0.00153398078789
2.152, -0.393919398883, -0.2, 0.0, 0.0, 0.0, 0.0, 0.0, 0.0813009817579, -0.067495154667, 0.00153398078789, -0.0245436926062, 0.00153398078789, -0.00306796157577, -0.00306796157577
2.156, -0.396229998567, -0.2, 0.0, 0.0, 0.0, 0.0, 0.0, 0.0782330201822, -0.0705631162427, -0.00306796157577, -0.0245436926062, 0.00153398078789, -0.00306796157577, 0.0
2.16, -0.398518073109, -0.2, 0.0, 0.0, 0.0, 0.0, 0.0, 0.0766990393943, -0.067495154667, 0.0, -0.0245436926062, 0.00460194236366, -0.00306796157577, 0.00153398078789
2.164, -0.400783492435, -0.2, 0.0, 0.0, 0.0, 0.0, 0.0, 0.0766990393943, -0.0705631162427, -0.00306796157577, -0.0230097118183, 0.00460194236366, -0.00766990393943, 0.0
2.168, -0.403026127761, -0.2, 0.0, 0.0, 0.0, 0.0, 0.0, 0.0751650586064, -0.0705631162427, 0.0, -0.0230097118183, -0.00153398078789, -0.00766990393943, -0.00153398078789
2.172, -0.405245851594, -0.2, 0.0, 0.0, 0.0, 0.0, 0.0, 0.0797670009701, -0.0690291354549, -0.00153398078789, -0.0260776733941, 0.0, -0.00613592315154, -0.00306796157577
2.176, -0.407442537747, -0.2, 0.0, 0.0, 0.0, 0.0, 0.0, 0.0766990393943, -0.0705631162427, -0.00306796157577, -0.0245436926062, 0.00460194236366, -0.00613592315154, 0.0
2.18, -0.409616061341, -0.2, 0.0, 0.0, 0.0, 0.0, 0.0, 0.0736310778185, -0.0705631162427, -0.00153398078789, -0.0199417502425, 0.0, -0.00306796157577, -0.00153398078789
2.184, -0.411766298814, -0.2, 0.0, 0.0, 0.0, 0.0, 0.0, 0.0766990393943, -0.0720970970306, 0.0, -0.0199417502425, -0.00153398078789, -0.00153398078789, -0.00153398078789
2.188, -0.413893127928, -0.2, 0.0, 0.0, 0.0, 0.0, 0.0, 0.0705631162427, -0.0690291354549, -0.00153398078789, -0.0199417502425, 0.00460194236366, -0.00613592315154, 0.00153398078789
2.192, -0.415996427776, -0.2, 0.0, 0.0, 0.0, 0.0, 0.0, 0.0720970970306, -0.0751650586064, -0.00306796157577, -0.0199417502425, 0.0, -0.00766990393943, 0.00153398078789
2.196, -0.418076078787, -0.2, 0.0, 0.0, 0.0, 0.0, 0.0, 0.0705631162427, -0.0705631162427, 0.0, -0.0214757310304, 0.00306796157577, -0.00153398078789, 0.0
2.2, -0.420131962737, -0.2, 0.0, 0.0, 0.0, 0.0, 0.0, 0.0705631162427, -0.0736310778185, -0.00460194236366, -0.0230097118183, 0.00460194236366, -0.00153398078789, -0.00153398078789
2.204, -0.422163962751, -0.2, 0.0, 0.0, 0.0, 0.0, 0.0, 0.0736310778185, -0.0736310778185, -0.00306796157577, -0.0184077694546, 0.0, -0.00153398078789, 0.0
2.208, -0.424171963313, -0.2, 0.0, 0.0, 0.0, 0.0, 0.0, 0.0720970970306, -0.0690291354549, -0.00460194236366, -0.0214757310304, 0.00306796157577, -0.00306796157577, -0.00306796157577
2.212, -0.42615585027, -0.2, 0.0, 0.0, 0.0, 0.0, 0.0, 0.067495154667, -0.0751650586064, 0.0, -0.0199417502425, -0.00153398078789, -0.00613592315154, 0.0
2.216, -0.428115510842, -0.2, 0.0, 0.0, 0.0, 0.0, 0.0, 0.0659611738791, -0.0705631162427, -0.00460194236366, -0.0184077694546, 0.00306796157577, -0.00460194236366, 0.00306796157577
2.22, -0.430050833624, -0.2, 0.0, 0.0, 0.0, 0.0, 0.0, 0.0705631162427, -0.0751650586064, -0.00306796157577, -0.0153398078789, 0.0, -0.00613592315154, 0.00153398078789
2.224, -0.431961708596, -0.2, 0.0, 0.0, 0.0, 0.0, 0.0, 0.0705631162427, -0.0751650586064, -0.00306796157577, -0.0214757310304, 0.00306796157577, -0.00153398078789, 0.0
2.228, -0.433848027128, -0.2, 0.0, 0.0, 0.0, 0.0, 0.0, 0.0644271930912, -0.0720970970306, -0.00460194236366, -0.0184077694546, 0.0, -0.00306796157577, 0.00153398078789
2.232, -0.435709681983, -0.2, 0.0, 0.0, 0.0, 0.0, 0.0, 0.0644271930912, -0.0751650586064, 0.00153398078789, -0.0184077694546, -0.00153398078789, 0.00153398078789, 0.00153398078789
2.236, -0.437546567331, -0.2, 0.0, 0.0, 0.0, 0.0, 0.0, 0.0690291354549, -0.0751650586064, 0.00153398078789, -0.0153398078789, 0.0, -0.00153398078789, 0.0
2.24, -0.439358578746, -0.2, 0.0, 0.0, 0.0, 0.0, 0.0, 0.0659611738791, -0.0751650586064, -0.00306796157577, -0.0122718463031, -0.00153398078789, -0.00306796157577, -0.00153398078789
2.244, -0.441145613217, -0.2, 0.0, 0.0, 0.0, 0.0, 0.0, 0.0644271930912, -0.0720970970306, 0.0, -0.0168737886667, 0.00153398078789, -0.00306796157577, -0.00153398078789
2.248, -0.442907569156, -0.2, 0.0, 0.0, 0.0, 0.0, 0.0, 0.067495154667, -0.0736310778185, -0.00306796157577, -0.0184077694546, 0.00153398078789, 0.0, 0.00306796157577
2.252, -0.444644346396, -0.2, 0.0, 0.0, 0.0, 0.0, 0.0, 0.0659611738791, -0.0736310778185, -0.00306796157577, -0.013805827091, 0.00306796157577, 0.0, -0.00153398078789
2.256, -0.446355846205, -0.2, 0.0, 0.0, 0.0, 0.0, 0.0, 0.0659611738791, -0.0751650586064, -0.00306796157577, -0.013805827091, 0.00306796157577, 0.00153398078789, 0.0
2.26, -0.448041971285, -0.2, 0.0, 0.0, 0.0, 0.0, 0.0, 0.0628932123033, -0.0720970970306, 0.0, -0.0168737886667, 0.0, -0.00306796157577, -0.00153398078789
2.264, -0.449702625783, -0.2, 0.0, 0.0, 0.0, 0.0, 0.0, 0.0628932123033, -0.0736310778185, -0.00153398078789, -0.0153398078789, 0.0, 0.00306796157577, -0.00306796157577
2.268, -0.451337715293, -0.2, 0.0, 0.0, 0.0, 0.0, 0.0, 0.0598252507275, -0.0736310778185, 0.0, -0.0122718463031, 0.00153398078789, 0.0, -0.00306796157577
2.272, -0.452947146863, -0.2, 0.0, 0.0, 0.0, 0.0, 0.0, 0.0582912699397, -0.0720970970306, -0.00306796157577, -0.00920388472731, -0.00153398078789, 0.00306796157577, 0.0
2.276, -0.454530828997, -0.2, 0.0, 0.0, 0.0, 0.0, 0.0, 0.0628932123033, -0.0751650586064, -0.00153398078789, -0.0122718463031, 0.00460194236366, -0.00306796157577, 0.0
2.28, -0.456088671667, -0.2, 0.0, 0.0, 0.0, 0.0, 0.0, 0.0613592315154, -0.0720970970306, -0.00460194236366, -0.0107378655152, 0.00306796157577, 0.00306796157577, 0.00306796157577
2.284, -0.45762058631, -0.2, 0.0, 0.0, 0.0, 0.0, 0.0, 0.0552233083639, -0.0736310778185, 0.0, -0.0122718463031, 0.0, 0.0, 0.00153398078789
2.288, -0.45912648584, -0.2, 0.0, 0.0, 0.0, 0.0, 0.0, 0.0567572891518, -0.0736310778185, -0.00460194236366, -0.0122718463031, 0.0, 0.00153398078789, -0.00153398078789
2.292, -0.460606284649, -0.2, 0.0, 0.0, 0.0, 0.0, 0.0, 0.0582912699397, -0.0736310778185, -0.00153398078789, -0.0107378655152, 0.0, 0.00460194236366, 0.00153398078789
2.296, -0.46205989861, -0.2, 0.0, 0.0, 0.0, 0.0, 0.0, 0.0567572891518, -0.0720970970306, 0.00153398078789, -0.013805827091, 0.0, 0.00153398078789, 0.00306796157577
2.3, -0.46348724509, -0.2, 0.0, 0.0, 0.0, 0.0, 0.0, 0.0552233083639, -0.0736310778185, -0.00460194236366, -0.00613592315154, -0.00153398078789, 0.00153398078789, -0.00153398078789
2.304, -0.464888242944, -0.2, 0.0, 0.0, 0.0, 0.0, 0.0, 0.053689327576, -0.0751650586064, -0.00613592315154, -0.00920388472731, 0.0, -0.00153398078789, 0.00153398078789
2.308, -0.466262812528, -0.2, 0.0, 0.0, 0.0, 0.0, 0.0, 0.0552233083639, -0.0736310778185, 0.0, -0.0107378655152, -0.00153398078789, 0.00460194236366, 0.00153398078789
2.312, -0.4676108757, -0.2, 0.0, 0.0, 0.0, 0.0, 0.0, 0.0567572891518, -0.0736310778185, -0.00306796157577, -0.0107378655152, 0.00460194236366, 0.00306796157577, 0.00306796157577
2.316, -0.468932355824, -0.2, 0.0, 0.0, 0.0, 0.0, 0.0, 0.0552233083639, -0.0736310778185, 0.0, -0.00613592315154, 0.00153398078789, 0.0, 0.0
2.32, -0.470227177776, -0.2, 0.0, 0.0, 0.0, 0.0, 0.0, 0.0521553467881, -0.0720970970306, -0.00306796157577, -0.00613592315154, -0.00153398078789, 0.00306796157577, 0.00153398078789
2.324, -0.471495267946, -0.2, 0.0, 0.0, 0.0, 0.0, 0.0, 0.0490873852123, -0.0766990393943, -0.00460194236366, -0.00766990393943, 0.00460194236366, 0.00306796157577, 0.0
2.328, -0.472736554246, -0.2, 0.0, 0.0, 0.0, 0.0, 0.0, 0.0490873852123, -0.0751650586064, -0.00613592315154, -0.00460194236366, 0.00460194236366, 0.00613592315154, 0.00306796157577
2.332, -0.473950966111, -0.2, 0.0, 0.0, 0.0, 0.0, 0.0, 0.0521553467881, -0.0736310778185, 0.0, -0.00460194236366, -0.00153398078789, 0.00306796157577, 0.00306796157577
2.336, -0.475138434501, -0.2, 0.0, 0.0, 0.0, 0.0, 0.0, 0.0475534044245, -0.0766990393943, -0.00460194236366, -0.00306796157577, 0.00306796157577, 0.0, -0.00306796157577
2.34, -0.476298891912, -0.2, 0.0, 0.0, 0.0, 0.0, 0.0, 0.0475534044245, -0.0766990393943, 0.0, -0.00766990393943, 0.00460194236366, 0.00766990393943, 0.00306796157577
2.344, -0.477432272373, -0.2, 0.0, 0.0, 0.0, 0.0, 0.0, 0.0460194236366, -0.0751650586064, -0.00306796157577, -0.00460194236366, 0.00306796157577, 0.00153398078789, -0.00306796157577
2.348, -0.478538511453, -0.2, 0.0, 0.0, 0.0, 0.0, 0.0, 0.0475534044245, -0.0782330201822, -0.00306796157577, -0.00460194236366, -0.00153398078789, 0.00766990393943, 0.00306796157577
2.352, -0.479617546264, -0.2, 0.0, 0.0, 0.0, 0.0, 0.0, 0.0460194236366, -0.0751650586064, -0.00306796157577, -0.00613592315154, -0.00153398078789, 0.00153398078789, 0.0
2.356, -0.480669315464, -0.2, 0.0, 0.0, 0.0, 0.0, 0.0, 0.0460194236366, -0.0736310778185, -0.00153398078789, -0.00153398078789, 0.0, 0.00460194236366, -0.00306796157577
2.36, -0.481693759261, -0.2, 0.0, 0.0, 0.0, 0.0, 0.0, 0.0460194236366, -0.0736310778185, -0.00460194236366, -0.00306796157577, 0.00153398078789, 0.00460194236366, -0.00306796157577
